P3
400 225
255
204 226 255
204 226 255
204 226 255
204 226 255
204 226 255
204 226 255
204 226 255
204 226 255
204 226 255
204 226 255
204 226 255
204 226 255
204 226 255
204 226 255
204 226 255
203 226 255
203 226 255
203 226 255
203 226 255
203 226 255
203 226 255
203 226 255
203 226 255
203 225 255
203 225 255
203 225 255
203 225 255
203 225 255
203 225 255
203 225 255
203 225 255
203 225 255
202 225 255
202 225 255
202 225 255
202 225 255
202 225 255
202 225 255
202 225 255
202 225 255
202 225 255
202 225 255
202 225 255
202 225 255
202 225 255
202 225 255
202 225 255
202 225 255
201 225 255
201 225 255
201 225 255
201 225 255
201 224 255
201 224 255
201 224 255
201 224 255
201 224 255
201 224 255
201 224 255
201 224 255
201 224 255
201 224 255
201 224 255
200 224 255
200 224 255
200 224 255
200 224 255
200 224 255
200 224 255
200 224 255
200 224 255
200 224 255
200 224 255
200 224 255
200 224 255
200 224 255
200 224 255
200 224 255
199 224 255
199 224 255
199 223 255
199 223 255
199 223 255
199 223 255
199 223 255
199 223 255
199 223 255
199 223 255
199 223 255
199 223 255
199 223 255
199 223 255
198 223 255
198 223 255
198 223 255
198 223 255
198 223 255
198 223 255
198 223 255
198 223 255
198 223 255
198 223 255
198 223 255
198 223 255
198 223 255
198 223 255
197 222 255
197 222 255
197 222 255
197 222 255
197 222 255
197 222 255
197 222 255
197 222 255
197 222 255
197 222 255
197 222 255
197 222 255
197 222 255
197 222 255
197 222 255
196 222 255
196 222 255
196 222 255
196 222 255
196 222 255
196 222 255
196 222 255
196 222 255
196 222 255
196 222 255
196 222 255
196 222 255
196 222 255
196 222 255
196 221 255
196 221 255
195 221 255
195 221 255
195 221 255
195 221 255
195 221 255
195 221 255
195 221 255
195 221 255
195 221 255
195 221 255
195 221 255
195 221 255
195 221 255
195 221 255
195 221 255
195 221 255
195 221 255
195 221 255
194 221 255
194 221 255
194 221 255
194 221 255
194 221 255
194 221 255
194 221 255
194 221 255
194 221 255
194 221 255
194 221 255
194 221 255
194 221 255
194 221 255
194 221 255
194 221 255
194 221 255
194 221 255
194 221 255
194 221 255
194 221 255
194 221 255
194 220 255
194 220 255
194 220 255
194 220 255
194 220 255
194 220 255
194 220 255
194 220 255
194 220 255
193 220 255
193 220 255
193 220 255
193 220 255
193 220 255
193 220 255
193 220 255
193 220 255
193 220 255
193 220 255
193 220 255
193 220 255
193 220 255
193 220 255
193 220 255
193 220 255
193 220 255
193 220 255
193 220 255
193 220 255
193 220 255
193 220 255
193 220 255
193 220 255
193 220 255
193 220 255
193 220 255
193 220 255
194 220 255
194 220 255
194 220 255
194 220 255
194 220 255
194 220 255
194 220 255
194 220 255
194 220 255
194 221 255
194 221 255
194 221 255
194 221 255
194 221 255
194 221 255
194 221 255
194 221 255
194 221 255
194 221 255
194 221 255
194 221 255
194 221 255
194 221 255
194 221 255
194 221 255
194 221 255
194 221 255
194 221 255
194 221 255
194 221 255
194 221 255
195 221 255
195 221 255
195 221 255
195 221 255
195 221 255
195 221 255
195 221 255
195 221 255
195 221 255
195 221 255
195 221 255
195 221 255
195 221 255
195 221 255
195 221 255
195 221 255
195 221 255
195 221 255
196 221 255
196 221 255
196 222 255
196 222 255
196 222 255
196 222 255
196 222 255
196 222 255
196 222 255
196 222 255
196 222 255
196 222 255
196 222 255
196 222 255
196 222 255
196 222 255
197 222 255
197 222 255
197 222 255
197 222 255
197 222 255
197 222 255
197 222 255
197 222 255
197 222 255
197 222 255
197 222 255
197 222 255
197 222 255
197 222 255
197 223 255
198 223 255
198 223 255
198 223 255
198 223 255
198 223 255
198 223 255
198 223 255
198 223 255
198 223 255
198 223 255
198 223 255
198 223 255
198 223 255
198 223 255
199 223 255
199 223 255
199 223 255
199 223 255
199 223 255
199 223 255
199 223 255
199 223 255
199 223 255
199 223 255
199 223 255
199 223 255
199 224 255
199 224 255
199 224 255
200 224 255
200 224 255
200 224 255
200 224 255
200 224 255
200 224 255
200 224 255
200 224 255
200 224 255
200 224 255
200 224 255
200 224 255
200 224 255
200 224 255
201 224 255
201 224 255
201 224 255
201 224 255
201 224 255
201 224 255
201 224 255
201 224 255
201 224 255
201 224 255
201 225 255
201 225 255
201 225 255
201 225 255
201 225 255
202 225 255
202 225 255
202 225 255
202 225 255
202 225 255
202 225 255
202 225 255
202 225 255
202 225 255
202 225 255
202 225 255
202 225 255
202 225 255
202 225 255
202 225 255
202 225 255
203 225 255
203 225 255
203 225 255
203 225 255
203 225 255
203 225 255
203 225 255
203 225 255
203 225 255
203 226 255
203 226 255
203 226 255
203 226 255
203 226 255
203 226 255
203 226 255
203 226 255
204 226 255
204 226 255
204 226 255
204 226 255
204 226 255
204 226 255
204 226 255
204 226 255
204 226 255
204 226 255
204 226 255
204 226 255
204 226 255
204 226 255
204 226 255
204 226 255
204 226 255
204 226 255
204 226 255
204 226 255
204 226 255
204 226 255
204 226 255
204 226 255
204 226 255
204 226 255
204 226 255
204 226 255
204 226 255
204 226 255
204 226 255
204 226 255
204 226 255
203 226 255
203 226 255
203 226 255
203 226 255
203 226 255
203 226 255
203 226 255
203 225 255
203 225 255
203 225 255
203 225 255
203 225 255
203 225 255
203 225 255
203 225 255
203 225 255
202 225 255
202 225 255
202 225 255
202 225 255
202 225 255
202 225 255
202 225 255
202 225 255
202 225 255
202 225 255
202 225 255
202 225 255
202 225 255
202 225 255
202 225 255
202 225 255
201 225 255
201 225 255
201 225 255
201 225 255
201 224 255
201 224 255
201 224 255
201 224 255
201 224 255
201 224 255
201 224 255
201 224 255
201 224 255
201 224 255
201 224 255
200 224 255
200 224 255
200 224 255
200 224 255
200 224 255
200 224 255
200 224 255
200 224 255
200 224 255
200 224 255
200 224 255
200 224 255
200 224 255
200 224 255
200 224 255
199 224 255
199 224 255
199 223 255
199 223 255
199 223 255
199 223 255
199 223 255
199 223 255
199 223 255
199 223 255
199 223 255
199 223 255
199 223 255
199 223 255
198 223 255
198 223 255
198 223 255
198 223 255
198 223 255
198 223 255
198 223 255
198 223 255
198 223 255
198 223 255
198 223 255
198 223 255
198 223 255
198 223 255
197 223 255
197 222 255
197 222 255
197 222 255
197 222 255
197 222 255
197 222 255
197 222 255
197 222 255
197 222 255
197 222 255
197 222 255
197 222 255
197 222 255
197 222 255
196 222 255
196 222 255
196 222 255
196 222 255
196 222 255
196 222 255
196 222 255
196 222 255
196 222 255
196 222 255
196 222 255
196 222 255
196 222 255
196 222 255
196 222 255
196 221 255
195 221 255
195 221 255
195 221 255
195 221 255
195 221 255
195 221 255
195 221 255
195 221 255
195 221 255
195 221 255
195 221 255
195 221 255
195 221 255
195 221 255
195 221 255
195 221 255
195 221 255
195 221 255
195 221 255
194 221 255
194 221 255
194 221 255
194 221 255
194 221 255
194 221 255
194 221 255
194 221 255
194 221 255
194 221 255
194 221 255
194 221 255
194 221 255
194 221 255
194 221 255
194 221 255
194 221 255
194 221 255
194 221 255
194 221 255
194 221 255
194 221 255
194 221 255
194 221 255
194 221 255
194 220 255
194 220 255
194 220 255
194 220 255
194 220 255
194 220 255
194 220 255
194 220 255
194 220 255
194 220 255
194 220 255
194 220 255
194 220 255
194 220 255
194 220 255
194 220 255
194 220 255
194 220 255
194 220 255
194 220 255
194 220 255
194 220 255
194 220 255
194 220 255
194 220 255
194 220 255
194 220 255
194 220 255
194 220 255
194 220 255
194 220 255
194 220 255
194 220 255
194 220 255
194 221 255
194 221 255
194 221 255
194 221 255
194 221 255
194 221 255
194 221 255
194 221 255
194 221 255
194 221 255
194 221 255
194 221 255
194 221 255
194 221 255
194 221 255
194 221 255
194 221 255
194 221 255
194 221 255
194 221 255
194 221 255
194 221 255
194 221 255
194 221 255
194 221 255
195 221 255
195 221 255
195 221 255
195 221 255
195 221 255
195 221 255
195 221 255
195 221 255
195 221 255
195 221 255
195 221 255
195 221 255
195 221 255
195 221 255
195 221 255
195 221 255
195 221 255
195 221 255
195 221 255
196 221 255
196 222 255
196 222 255
196 222 255
196 222 255
196 222 255
196 222 255
196 222 255
196 222 255
196 222 255
196 222 255
196 222 255
196 222 255
196 222 255
196 222 255
196 222 255
197 222 255
197 222 255
197 222 255
197 222 255
197 222 255
197 222 255
197 222 255
197 222 255
197 222 255
197 222 255
197 222 255
197 222 255
197 222 255
197 222 255
197 223 255
198 223 255
198 223 255
198 223 255
198 223 255
198 223 255
198 223 255
198 223 255
198 223 255
198 223 255
198 223 255
198 223 255
198 223 255
198 223 255
198 223 255
199 223 255
199 223 255
199 223 255
199 223 255
199 223 255
199 223 255
199 223 255
199 223 255
199 223 255
199 223 255
199 223 255
199 223 255
199 224 255
199 224 255
199 224 255
200 224 255
200 224 255
200 224 255
200 224 255
200 224 255
200 224 255
200 224 255
200 224 255
200 224 255
200 224 255
200 224 255
200 224 255
200 224 255
200 224 255
201 224 255
201 224 255
201 224 255
201 224 255
201 224 255
201 224 255
201 224 255
201 224 255
201 224 255
201 224 255
201 225 255
201 225 255
201 225 255
201 225 255
201 225 255
202 225 255
202 225 255
202 225 255
202 225 255
202 225 255
202 225 255
202 225 255
202 225 255
202 225 255
202 225 255
202 225 255
202 225 255
202 225 255
202 225 255
202 225 255
202 225 255
203 225 255
203 225 255
203 225 255
203 225 255
203 225 255
203 225 255
203 225 255
203 225 255
203 225 255
203 226 255
203 226 255
203 226 255
203 226 255
203 226 255
203 226 255
203 226 255
204 226 255
204 226 255
204 226 255
204 226 255
204 226 255
204 226 255
204 226 255
204 226 255
204 226 255
204 226 255
204 226 255
204 226 255
204 226 255
204 226 255
204 226 255
204 226 255
204 226 255
204 226 255
205 226 255
205 226 255
204 226 255
204 226 255
204 226 255
204 226 255
204 226 255
204 226 255
204 226 255
204 226 255
204 226 255
204 226 255
204 226 255
204 226 255
204 226 255
204 226 255
204 226 255
204 226 255
204 226 255
204 226 255
203 226 255
203 226 255
203 226 255
203 226 255
203 226 255
203 226 255
203 226 255
203 225 255
203 225 255
203 225 255
203 225 255
203 225 255
203 225 255
203 225 255
203 225 255
203 225 255
203 225 255
202 225 255
202 225 255
202 225 255
202 225 255
202 225 255
202 225 255
202 225 255
202 225 255
202 225 255
202 225 255
202 225 255
202 225 255
202 225 255
202 225 255
202 225 255
201 225 255
201 225 255
201 225 255
201 225 255
201 225 255
201 224 255
201 224 255
201 224 255
201 224 255
201 224 255
201 224 255
201 224 255
201 224 255
201 224 255
201 224 255
200 224 255
200 224 255
200 224 255
200 224 255
200 224 255
200 224 255
200 224 255
200 224 255
200 224 255
200 224 255
200 224 255
200 224 255
200 224 255
200 224 255
200 224 255
199 224 255
199 224 255
199 223 255
199 223 255
199 223 255
199 223 255
199 223 255
199 223 255
199 223 255
199 223 255
199 223 255
199 223 255
199 223 255
199 223 255
198 223 255
198 223 255
198 223 255
198 223 255
198 223 255
198 223 255
198 223 255
198 223 255
198 223 255
198 223 255
198 223 255
198 223 255
198 223 255
198 223 255
197 223 255
197 222 255
197 222 255
197 222 255
197 222 255
197 222 255
197 222 255
197 222 255
197 222 255
197 222 255
197 222 255
197 222 255
197 222 255
197 222 255
197 222 255
196 222 255
196 222 255
196 222 255
196 222 255
196 222 255
196 222 255
196 222 255
196 222 255
196 222 255
196 222 255
196 222 255
196 222 255
196 222 255
196 222 255
196 222 255
196 221 255
195 221 255
195 221 255
195 221 255
195 221 255
195 221 255
195 221 255
195 221 255
195 221 255
195 221 255
195 221 255
195 221 255
195 221 255
195 221 255
195 221 255
195 221 255
195 221 255
195 221 255
195 221 255
195 221 255
195 221 255
195 221 255
194 221 255
194 221 255
194 221 255
194 221 255
194 221 255
194 221 255
194 221 255
194 221 255
194 221 255
194 221 255
194 221 255
194 221 255
194 221 255
194 221 255
194 221 255
194 221 255
194 221 255
194 221 255
194 221 255
194 221 255
194 221 255
194 221 255
194 221 255
194 221 255
194 221 255
194 221 255
194 221 255
194 221 255
194 221 255
194 221 255
194 221 255
194 220 255
194 220 255
194 220 255
194 220 255
194 220 255
194 220 255
194 220 255
194 220 255
194 220 255
194 220 255
194 220 255
194 220 255
194 220 255
194 220 255
194 220 255
194 221 255
194 221 255
194 221 255
194 221 255
194 221 255
194 221 255
194 221 255
194 221 255
194 221 255
194 221 255
194 221 255
194 221 255
194 221 255
194 221 255
194 221 255
194 221 255
194 221 255
194 221 255
194 221 255
194 221 255
194 221 255
194 221 255
194 221 255
194 221 255
194 221 255
194 221 255
194 221 255
194 221 255
194 221 255
194 221 255
194 221 255
195 221 255
195 221 255
195 221 255
195 221 255
195 221 255
195 221 255
195 221 255
195 221 255
195 221 255
195 221 255
195 221 255
195 221 255
195 221 255
195 221 255
195 221 255
195 221 255
195 221 255
195 221 255
195 221 255
195 221 255
196 221 255
196 222 255
196 222 255
196 222 255
196 222 255
196 222 255
196 222 255
196 222 255
196 222 255
196 222 255
196 222 255
196 222 255
196 222 255
196 222 255
196 222 255
196 222 255
197 222 255
197 222 255
197 222 255
197 222 255
197 222 255
197 222 255
197 222 255
197 222 255
197 222 255
197 222 255
197 222 255
197 222 255
197 222 255
197 222 255
197 223 255
198 223 255
198 223 255
198 223 255
198 223 255
198 223 255
198 223 255
198 223 255
198 223 255
198 223 255
198 223 255
198 223 255
198 223 255
198 223 255
198 223 255
199 223 255
199 223 255
199 223 255
199 223 255
199 223 255
199 223 255
199 223 255
199 223 255
199 223 255
199 223 255
199 223 255
199 223 255
199 224 255
199 224 255
200 224 255
200 224 255
200 224 255
200 224 255
200 224 255
200 224 255
200 224 255
200 224 255
200 224 255
200 224 255
200 224 255
200 224 255
200 224 255
200 224 255
200 224 255
201 224 255
201 224 255
201 224 255
201 224 255
201 224 255
201 224 255
201 224 255
201 224 255
201 224 255
201 224 255
201 225 255
201 225 255
201 225 255
201 225 255
201 225 255
202 225 255
202 225 255
202 225 255
202 225 255
202 225 255
202 225 255
202 225 255
202 225 255
202 225 255
202 225 255
202 225 255
202 225 255
202 225 255
202 225 255
202 225 255
203 225 255
203 225 255
203 225 255
203 225 255
203 225 255
203 225 255
203 225 255
203 225 255
203 225 255
203 225 255
203 226 255
203 226 255
203 226 255
203 226 255
203 226 255
203 226 255
203 226 255
204 226 255
204 226 255
204 226 255
204 226 255
204 226 255
204 226 255
204 226 255
204 226 255
204 226 255
204 226 255
204 226 255
204 226 255
204 226 255
204 226 255
204 226 255
204 226 255
204 226 255
204 226 255
205 226 255
205 226 255
205 226 255
205 226 255
205 226 255
205 226 255
204 226 255
204 226 255
204 226 255
204 226 255
204 226 255
204 226 255
204 226 255
204 226 255
204 226 255
204 226 255
204 226 255
204 226 255
204 226 255
204 226 255
204 226 255
204 226 255
204 226 255
204 226 255
203 226 255
203 226 255
203 226 255
203 226 255
203 226 255
203 226 255
203 226 255
203 226 255
203 225 255
203 225 255
203 225 255
203 225 255
203 225 255
203 225 255
203 225 255
203 225 255
203 225 255
202 225 255
202 225 255
202 225 255
202 225 255
202 225 255
202 225 255
202 225 255
202 225 255
202 225 255
202 225 255
202 225 255
202 225 255
202 225 255
202 225 255
202 225 255
201 225 255
201 225 255
201 225 255
201 225 255
201 225 255
201 224 255
201 224 255
201 224 255
201 224 255
201 224 255
201 224 255
201 224 255
201 224 255
201 224 255
201 224 255
200 224 255
200 224 255
200 224 255
200 224 255
200 224 255
200 224 255
200 224 255
200 224 255
200 224 255
200 224 255
200 224 255
200 224 255
200 224 255
200 224 255
200 224 255
199 224 255
199 224 255
199 223 255
199 223 255
199 223 255
199 223 255
199 223 255
199 223 255
199 223 255
199 223 255
199 223 255
199 223 255
199 223 255
199 223 255
198 223 255
198 223 255
198 223 255
198 223 255
198 223 255
198 223 255
198 223 255
198 223 255
198 223 255
198 223 255
198 223 255
198 223 255
198 223 255
198 223 255
197 223 255
197 222 255
197 222 255
197 222 255
197 222 255
197 222 255
197 222 255
197 222 255
197 222 255
197 222 255
197 222 255
197 222 255
197 222 255
197 222 255
197 222 255
196 222 255
196 222 255
196 222 255
196 222 255
196 222 255
196 222 255
196 222 255
196 222 255
196 222 255
196 222 255
196 222 255
196 222 255
196 222 255
196 222 255
196 222 255
196 221 255
196 221 255
195 221 255
195 221 255
195 221 255
195 221 255
195 221 255
195 221 255
195 221 255
195 221 255
195 221 255
195 221 255
195 221 255
195 221 255
195 221 255
195 221 255
195 221 255
195 221 255
195 221 255
195 221 255
195 221 255
195 221 255
195 221 255
194 221 255
194 221 255
194 221 255
194 221 255
194 221 255
194 221 255
194 221 255
194 221 255
194 221 255
194 221 255
194 221 255
194 221 255
194 221 255
194 221 255
194 221 255
194 221 255
194 221 255
194 221 255
194 221 255
194 221 255
194 221 255
194 221 255
194 221 255
194 221 255
194 221 255
194 221 255
194 221 255
194 221 255
194 221 255
194 221 255
194 221 255
194 221 255
194 221 255
194 221 255
194 221 255
194 221 255
194 221 255
194 221 255
194 221 255
194 221 255
194 221 255
194 221 255
194 221 255
194 221 255
194 221 255
194 221 255
194 221 255
194 221 255
194 221 255
194 221 255
194 221 255
194 221 255
194 221 255
194 221 255
194 221 255
194 221 255
194 221 255
194 221 255
194 221 255
194 221 255
194 221 255
194 221 255
194 221 255
194 221 255
194 221 255
194 221 255
194 221 255
194 221 255
194 221 255
194 221 255
195 221 255
195 221 255
195 221 255
195 221 255
195 221 255
195 221 255
195 221 255
195 221 255
195 221 255
195 221 255
195 221 255
195 221 255
195 221 255
195 221 255
195 221 255
195 221 255
195 221 255
195 221 255
195 221 255
195 221 255
195 221 255
196 221 255
196 222 255
196 222 255
196 222 255
196 222 255
196 222 255
196 222 255
196 222 255
196 222 255
196 222 255
196 222 255
196 222 255
196 222 255
196 222 255
196 222 255
196 222 255
196 222 255
197 222 255
197 222 255
197 222 255
197 222 255
197 222 255
197 222 255
197 222 255
197 222 255
197 222 255
197 222 255
197 222 255
197 222 255
197 222 255
197 222 255
197 223 255
198 223 255
198 223 255
198 223 255
198 223 255
198 223 255
198 223 255
198 223 255
198 223 255
198 223 255
198 223 255
198 223 255
198 223 255
198 223 255
198 223 255
199 223 255
199 223 255
199 223 255
199 223 255
199 223 255
199 223 255
199 223 255
199 223 255
199 223 255
199 223 255
199 223 255
199 223 255
199 224 255
199 224 255
200 224 255
200 224 255
200 224 255
200 224 255
200 224 255
200 224 255
200 224 255
200 224 255
200 224 255
200 224 255
200 224 255
200 224 255
200 224 255
200 224 255
200 224 255
201 224 255
201 224 255
201 224 255
201 224 255
201 224 255
201 224 255
201 224 255
201 224 255
201 224 255
201 224 255
201 225 255
201 225 255
201 225 255
201 225 255
201 225 255
202 225 255
202 225 255
202 225 255
202 225 255
202 225 255
202 225 255
202 225 255
202 225 255
202 225 255
202 225 255
202 225 255
202 225 255
202 225 255
202 225 255
202 225 255
203 225 255
203 225 255
203 225 255
203 225 255
203 225 255
203 225 255
203 225 255
203 225 255
203 225 255
203 226 255
203 226 255
203 226 255
203 226 255
203 226 255
203 226 255
203 226 255
203 226 255
204 226 255
204 226 255
204 226 255
204 226 255
204 226 255
204 226 255
204 226 255
204 226 255
204 226 255
204 226 255
204 226 255
204 226 255
204 226 255
204 226 255
204 226 255
204 226 255
204 226 255
204 226 255
205 226 255
205 226 255
205 226 255
205 226 255
205 226 255
205 226 255
205 226 255
205 226 255
205 226 255
205 226 255
205 226 255
204 226 255
204 226 255
204 226 255
204 226 255
204 226 255
204 226 255
204 226 255
204 226 255
204 226 255
204 226 255
204 226 255
204 226 255
204 226 255
204 226 255
204 226 255
204 226 255
204 226 255
204 226 255
203 226 255
203 226 255
203 226 255
203 226 255
203 226 255
203 226 255
203 226 255
203 225 255
203 225 255
203 225 255
203 225 255
203 225 255
203 225 255
203 225 255
203 225 255
203 225 255
202 225 255
202 225 255
202 225 255
202 225 255
202 225 255
202 225 255
202 225 255
202 225 255
202 225 255
202 225 255
202 225 255
202 225 255
202 225 255
202 225 255
202 225 255
202 225 255
201 225 255
201 225 255
201 225 255
201 225 255
201 224 255
201 224 255
201 224 255
201 224 255
201 224 255
201 224 255
201 224 255
201 224 255
201 224 255
201 224 255
200 224 255
200 224 255
200 224 255
200 224 255
200 224 255
200 224 255
200 224 255
200 224 255
200 224 255
200 224 255
200 224 255
200 224 255
200 224 255
200 224 255
200 224 255
199 224 255
199 224 255
199 223 255
199 223 255
199 223 255
199 223 255
199 223 255
199 223 255
199 223 255
199 223 255
199 223 255
199 223 255
199 223 255
199 223 255
198 223 255
198 223 255
198 223 255
198 223 255
198 223 255
198 223 255
198 223 255
198 223 255
198 223 255
198 223 255
198 223 255
198 223 255
198 223 255
198 223 255
197 223 255
197 222 255
197 222 255
197 222 255
197 222 255
197 222 255
197 222 255
197 222 255
197 222 255
197 222 255
197 222 255
197 222 255
197 222 255
197 222 255
197 222 255
197 222 255
196 222 255
196 222 255
196 222 255
196 222 255
196 222 255
196 222 255
196 222 255
196 222 255
196 222 255
196 222 255
196 222 255
196 222 255
196 222 255
196 222 255
196 222 255
196 221 255
196 221 255
195 221 255
195 221 255
195 221 255
195 221 255
195 221 255
195 221 255
195 221 255
195 221 255
195 221 255
195 221 255
195 221 255
195 221 255
195 221 255
195 221 255
195 221 255
195 221 255
195 221 255
195 221 255
195 221 255
195 221 255
195 221 255
195 221 255
194 221 255
194 221 255
194 221 255
194 221 255
194 221 255
194 221 255
194 221 255
194 221 255
194 221 255
194 221 255
194 221 255
194 221 255
194 221 255
194 221 255
194 221 255
194 221 255
194 221 255
194 221 255
194 221 255
194 221 255
194 221 255
194 221 255
194 221 255
194 221 255
194 221 255
194 221 255
194 221 255
194 221 255
194 221 255
194 221 255
194 221 255
194 221 255
194 221 255
194 221 255
194 221 255
194 221 255
194 221 255
194 221 255
194 221 255
194 221 255
194 221 255
194 221 255
194 221 255
194 221 255
194 221 255
194 221 255
194 221 255
194 221 255
194 221 255
194 221 255
194 221 255
194 221 255
194 221 255
194 221 255
194 221 255
194 221 255
194 221 255
194 221 255
194 221 255
194 221 255
194 221 255
194 221 255
195 221 255
195 221 255
195 221 255
195 221 255
195 221 255
195 221 255
195 221 255
195 221 255
195 221 255
195 221 255
195 221 255
195 221 255
195 221 255
195 221 255
195 221 255
195 221 255
195 221 255
195 221 255
195 221 255
195 221 255
195 221 255
195 221 255
196 221 255
196 221 255
196 222 255
196 222 255
196 222 255
196 222 255
196 222 255
196 222 255
196 222 255
196 222 255
196 222 255
196 222 255
196 222 255
196 222 255
196 222 255
196 222 255
196 222 255
197 222 255
197 222 255
197 222 255
197 222 255
197 222 255
197 222 255
197 222 255
197 222 255
197 222 255
197 222 255
197 222 255
197 222 255
197 222 255
197 222 255
197 222 255
197 223 255
198 223 255
198 223 255
198 223 255
198 223 255
198 223 255
198 223 255
198 223 255
198 223 255
198 223 255
198 223 255
198 223 255
198 223 255
198 223 255
198 223 255
199 223 255
199 223 255
199 223 255
199 223 255
199 223 255
199 223 255
199 223 255
199 223 255
199 223 255
199 223 255
199 223 255
199 223 255
199 224 255
199 224 255
200 224 255
200 224 255
200 224 255
200 224 255
200 224 255
200 224 255
200 224 255
200 224 255
200 224 255
200 224 255
200 224 255
200 224 255
200 224 255
200 224 255
200 224 255
201 224 255
201 224 255
201 224 255
201 224 255
201 224 255
201 224 255
201 224 255
201 224 255
201 224 255
201 224 255
201 225 255
201 225 255
201 225 255
201 225 255
202 225 255
202 225 255
202 225 255
202 225 255
202 225 255
202 225 255
202 225 255
202 225 255
202 225 255
202 225 255
202 225 255
202 225 255
202 225 255
202 225 255
202 225 255
202 225 255
203 225 255
203 225 255
203 225 255
203 225 255
203 225 255
203 225 255
203 225 255
203 225 255
203 225 255
203 226 255
203 226 255
203 226 255
203 226 255
203 226 255
203 226 255
203 226 255
203 226 255
204 226 255
204 226 255
204 226 255
204 226 255
204 226 255
204 226 255
204 226 255
204 226 255
204 226 255
204 226 255
204 226 255
204 226 255
204 226 255
204 226 255
204 226 255
204 226 255
204 226 255
205 226 255
205 226 255
205 226 255
205 226 255
205 226 255
205 226 255
205 226 255
205 227 255
205 227 255
205 226 255
205 226 255
205 226 255
205 226 255
205 226 255
205 226 255
205 226 255
204 226 255
204 226 255
204 226 255
204 226 255
204 226 255
204 226 255
204 226 255
204 226 255
204 226 255
204 226 255
204 226 255
204 226 255
204 226 255
204 226 255
204 226 255
204 226 255
204 226 255
204 226 255
203 226 255
203 226 255
203 226 255
203 226 255
203 226 255
203 226 255
203 226 255
203 225 255
203 225 255
203 225 255
203 225 255
203 225 255
203 225 255
203 225 255
203 225 255
203 225 255
202 225 255
202 225 255
202 225 255
202 225 255
202 225 255
202 225 255
202 225 255
202 225 255
202 225 255
202 225 255
202 225 255
202 225 255
202 225 255
202 225 255
202 225 255
202 225 255
201 225 255
201 225 255
201 225 255
201 225 255
201 224 255
201 224 255
201 224 255
201 224 255
201 224 255
201 224 255
201 224 255
201 224 255
201 224 255
201 224 255
200 224 255
200 224 255
200 224 255
200 224 255
200 224 255
200 224 255
200 224 255
200 224 255
200 224 255
200 224 255
200 224 255
200 224 255
200 224 255
200 224 255
200 224 255
199 224 255
199 224 255
199 223 255
199 223 255
199 223 255
199 223 255
199 223 255
199 223 255
199 223 255
199 223 255
199 223 255
199 223 255
199 223 255
199 223 255
198 223 255
198 223 255
198 223 255
198 223 255
198 223 255
198 223 255
198 223 255
198 223 255
198 223 255
198 223 255
198 223 255
198 223 255
198 223 255
198 223 255
198 223 255
197 222 255
197 222 255
197 222 255
197 222 255
197 222 255
197 222 255
197 222 255
197 222 255
197 222 255
197 222 255
197 222 255
197 222 255
197 222 255
197 222 255
197 222 255
196 222 255
196 222 255
196 222 255
196 222 255
196 222 255
196 222 255
196 222 255
196 222 255
196 222 255
196 222 255
196 222 255
196 222 255
196 222 255
196 222 255
196 222 255
196 222 255
196 221 255
195 221 255
195 221 255
195 221 255
195 221 255
195 221 255
195 221 255
195 221 255
195 221 255
195 221 255
195 221 255
195 221 255
195 221 255
195 221 255
195 221 255
195 221 255
195 221 255
195 221 255
195 221 255
195 221 255
195 221 255
195 221 255
195 221 255
195 221 255
195 221 255
194 221 255
194 221 255
194 221 255
194 221 255
194 221 255
194 221 255
194 221 255
194 221 255
194 221 255
194 221 255
194 221 255
194 221 255
194 221 255
194 221 255
194 221 255
194 221 255
194 221 255
194 221 255
194 221 255
194 221 255
194 221 255
194 221 255
194 221 255
194 221 255
194 221 255
194 221 255
194 221 255
194 221 255
194 221 255
194 221 255
194 221 255
194 221 255
194 221 255
194 221 255
194 221 255
194 221 255
194 221 255
194 221 255
194 221 255
194 221 255
194 221 255
194 221 255
194 221 255
194 221 255
194 221 255
194 221 255
194 221 255
194 221 255
194 221 255
194 221 255
194 221 255
194 221 255
194 221 255
194 221 255
195 221 255
195 221 255
195 221 255
195 221 255
195 221 255
195 221 255
195 221 255
195 221 255
195 221 255
195 221 255
195 221 255
195 221 255
195 221 255
195 221 255
195 221 255
195 221 255
195 221 255
195 221 255
195 221 255
195 221 255
195 221 255
195 221 255
195 221 255
195 221 255
196 221 255
196 222 255
196 222 255
196 222 255
196 222 255
196 222 255
196 222 255
196 222 255
196 222 255
196 222 255
196 222 255
196 222 255
196 222 255
196 222 255
196 222 255
196 222 255
196 222 255
197 222 255
197 222 255
197 222 255
197 222 255
197 222 255
197 222 255
197 222 255
197 222 255
197 222 255
197 222 255
197 222 255
197 222 255
197 222 255
197 222 255
197 222 255
198 223 255
198 223 255
198 223 255
198 223 255
198 223 255
198 223 255
198 223 255
198 223 255
198 223 255
198 223 255
198 223 255
198 223 255
198 223 255
198 223 255
198 223 255
199 223 255
199 223 255
199 223 255
199 223 255
199 223 255
199 223 255
199 223 255
199 223 255
199 223 255
199 223 255
199 223 255
199 223 255
199 224 255
199 224 255
200 224 255
200 224 255
200 224 255
200 224 255
200 224 255
200 224 255
200 224 255
200 224 255
200 224 255
200 224 255
200 224 255
200 224 255
200 224 255
200 224 255
200 224 255
201 224 255
201 224 255
201 224 255
201 224 255
201 224 255
201 224 255
201 224 255
201 224 255
201 224 255
201 224 255
201 225 255
201 225 255
201 225 255
201 225 255
202 225 255
202 225 255
202 225 255
202 225 255
202 225 255
202 225 255
202 225 255
202 225 255
202 225 255
202 225 255
202 225 255
202 225 255
202 225 255
202 225 255
202 225 255
202 225 255
203 225 255
203 225 255
203 225 255
203 225 255
203 225 255
203 225 255
203 225 255
203 225 255
203 225 255
203 226 255
203 226 255
203 226 255
203 226 255
203 226 255
203 226 255
203 226 255
204 226 255
204 226 255
204 226 255
204 226 255
204 226 255
204 226 255
204 226 255
204 226 255
204 226 255
204 226 255
204 226 255
204 226 255
204 226 255
204 226 255
204 226 255
204 226 255
204 226 255
204 226 255
205 226 255
205 226 255
205 226 255
205 226 255
205 226 255
205 226 255
205 226 255
205 227 255
205 227 255
205 227 255
205 227 255
205 227 255
205 227 255
205 226 255
205 226 255
205 226 255
205 226 255
205 226 255
205 226 255
205 226 255
205 226 255
204 226 255
204 226 255
204 226 255
204 226 255
204 226 255
204 226 255
204 226 255
204 226 255
204 226 255
204 226 255
204 226 255
204 226 255
204 226 255
204 226 255
204 226 255
204 226 255
204 226 255
203 226 255
203 226 255
203 226 255
203 226 255
203 226 255
203 226 255
203 226 255
203 225 255
203 225 255
203 225 255
203 225 255
203 225 255
203 225 255
203 225 255
203 225 255
203 225 255
202 225 255
202 225 255
202 225 255
202 225 255
202 225 255
202 225 255
202 225 255
202 225 255
202 225 255
202 225 255
202 225 255
202 225 255
202 225 255
202 225 255
202 225 255
202 225 255
201 225 255
201 225 255
201 225 255
201 225 255
201 224 255
201 224 255
201 224 255
201 224 255
201 224 255
201 224 255
201 224 255
201 224 255
201 224 255
201 224 255
200 224 255
200 224 255
200 224 255
200 224 255
200 224 255
200 224 255
200 224 255
200 224 255
200 224 255
200 224 255
200 224 255
200 224 255
200 224 255
200 224 255
200 224 255
199 224 255
199 224 255
199 223 255
199 223 255
199 223 255
199 223 255
199 223 255
199 223 255
199 223 255
199 223 255
199 223 255
199 223 255
199 223 255
199 223 255
198 223 255
198 223 255
198 223 255
198 223 255
198 223 255
198 223 255
198 223 255
198 223 255
198 223 255
198 223 255
198 223 255
198 223 255
198 223 255
198 223 255
198 223 255
197 222 255
197 222 255
197 222 255
197 222 255
197 222 255
197 222 255
197 222 255
197 222 255
197 222 255
197 222 255
197 222 255
197 222 255
197 222 255
197 222 255
197 222 255
196 222 255
196 222 255
196 222 255
196 222 255
196 222 255
196 222 255
196 222 255
196 222 255
196 222 255
196 222 255
196 222 255
196 222 255
196 222 255
196 222 255
196 222 255
196 222 255
196 222 255
196 221 255
195 221 255
195 221 255
195 221 255
195 221 255
195 221 255
195 221 255
195 221 255
195 221 255
195 221 255
195 221 255
195 221 255
195 221 255
195 221 255
195 221 255
195 221 255
195 221 255
195 221 255
195 221 255
195 221 255
195 221 255
195 221 255
195 221 255
195 221 255
195 221 255
195 221 255
195 221 255
194 221 255
194 221 255
194 221 255
194 221 255
194 221 255
194 221 255
194 221 255
194 221 255
194 221 255
194 221 255
194 221 255
194 221 255
194 221 255
194 221 255
194 221 255
194 221 255
194 221 255
194 221 255
194 221 255
194 221 255
194 221 255
194 221 255
194 221 255
194 221 255
194 221 255
194 221 255
194 221 255
194 221 255
194 221 255
194 221 255
194 221 255
194 221 255
194 221 255
194 221 255
194 221 255
194 221 255
194 221 255
194 221 255
194 221 255
194 221 255
194 221 255
194 221 255
194 221 255
194 221 255
195 221 255
195 221 255
195 221 255
195 221 255
195 221 255
195 221 255
195 221 255
195 221 255
195 221 255
195 221 255
195 221 255
195 221 255
195 221 255
195 221 255
195 221 255
195 221 255
195 221 255
195 221 255
195 221 255
195 221 255
195 221 255
195 221 255
195 221 255
195 221 255
195 221 255
195 221 255
196 221 255
196 222 255
196 222 255
196 222 255
196 222 255
196 222 255
196 222 255
196 222 255
196 222 255
196 222 255
196 222 255
196 222 255
196 222 255
196 222 255
196 222 255
196 222 255
196 222 255
196 222 255
197 222 255
197 222 255
197 222 255
197 222 255
197 222 255
197 222 255
197 222 255
197 222 255
197 222 255
197 222 255
197 222 255
197 222 255
197 222 255
197 222 255
197 222 255
198 223 255
198 223 255
198 223 255
198 223 255
198 223 255
198 223 255
198 223 255
198 223 255
198 223 255
198 223 255
198 223 255
198 223 255
198 223 255
198 223 255
198 223 255
199 223 255
199 223 255
199 223 255
199 223 255
199 223 255
199 223 255
199 223 255
199 223 255
199 223 255
199 223 255
199 223 255
199 223 255
199 224 255
199 224 255
200 224 255
200 224 255
200 224 255
200 224 255
200 224 255
200 224 255
200 224 255
200 224 255
200 224 255
200 224 255
200 224 255
200 224 255
200 224 255
200 224 255
200 224 255
201 224 255
201 224 255
201 224 255
201 224 255
201 224 255
201 224 255
201 224 255
201 224 255
201 224 255
201 224 255
201 225 255
201 225 255
201 225 255
201 225 255
202 225 255
202 225 255
202 225 255
202 225 255
202 225 255
202 225 255
202 225 255
202 225 255
202 225 255
202 225 255
202 225 255
202 225 255
202 225 255
202 225 255
202 225 255
202 225 255
203 225 255
203 225 255
203 225 255
203 225 255
203 225 255
203 225 255
203 225 255
203 225 255
203 225 255
203 226 255
203 226 255
203 226 255
203 226 255
203 226 255
203 226 255
203 226 255
204 226 255
204 226 255
204 226 255
204 226 255
204 226 255
204 226 255
204 226 255
204 226 255
204 226 255
204 226 255
204 226 255
204 226 255
204 226 255
204 226 255
204 226 255
204 226 255
204 226 255
204 226 255
205 226 255
205 226 255
205 226 255
205 226 255
205 226 255
205 226 255
205 226 255
205 227 255
205 227 255
205 227 255
205 227 255
205 227 255
205 227 255
205 227 255
205 227 255
205 227 255
205 227 255
205 227 255
205 226 255
205 226 255
205 226 255
205 226 255
205 226 255
205 226 255
205 226 255
204 226 255
204 226 255
204 226 255
204 226 255
204 226 255
204 226 255
204 226 255
204 226 255
204 226 255
204 226 255
204 226 255
204 226 255
204 226 255
204 226 255
204 226 255
204 226 255
204 226 255
203 226 255
203 226 255
203 226 255
203 226 255
203 226 255
203 226 255
203 226 255
203 226 255
203 225 255
203 225 255
203 225 255
203 225 255
203 225 255
203 225 255
203 225 255
203 225 255
202 225 255
202 225 255
202 225 255
202 225 255
202 225 255
202 225 255
202 225 255
202 225 255
202 225 255
202 225 255
202 225 255
202 225 255
202 225 255
202 225 255
202 225 255
202 225 255
201 225 255
201 225 255
201 225 255
201 225 255
201 224 255
201 224 255
201 224 255
201 224 255
201 224 255
201 224 255
201 224 255
201 224 255
201 224 255
201 224 255
201 224 255
200 224 255
200 224 255
200 224 255
200 224 255
200 224 255
200 224 255
200 224 255
200 224 255
200 224 255
200 224 255
200 224 255
200 224 255
200 224 255
200 224 255
199 224 255
199 224 255
199 223 255
199 223 255
199 223 255
199 223 255
199 223 255
199 223 255
199 223 255
199 223 255
199 223 255
199 223 255
199 223 255
199 223 255
198 223 255
198 223 255
198 223 255
198 223 255
198 223 255
198 223 255
198 223 255
198 223 255
198 223 255
198 223 255
198 223 255
198 223 255
198 223 255
198 223 255
198 223 255
197 223 255
197 222 255
197 222 255
197 222 255
197 222 255
197 222 255
197 222 255
197 222 255
197 222 255
197 222 255
197 222 255
197 222 255
197 222 255
197 222 255
197 222 255
197 222 255
196 222 255
196 222 255
196 222 255
196 222 255
196 222 255
196 222 255
196 222 255
196 222 255
196 222 255
196 222 255
196 222 255
196 222 255
196 222 255
196 222 255
196 222 255
196 222 255
196 222 255
196 221 255
195 221 255
195 221 255
195 221 255
195 221 255
195 221 255
195 221 255
195 221 255
195 221 255
195 221 255
195 221 255
195 221 255
195 221 255
195 221 255
195 221 255
195 221 255
195 221 255
195 221 255
195 221 255
195 221 255
195 221 255
195 221 255
195 221 255
195 221 255
195 221 255
195 221 255
195 221 255
195 221 255
195 221 255
195 221 255
195 221 255
194 221 255
194 221 255
194 221 255
194 221 255
194 221 255
194 221 255
194 221 255
194 221 255
194 221 255
194 221 255
194 221 255
194 221 255
194 221 255
194 221 255
194 221 255
194 221 255
194 221 255
194 221 255
194 221 255
194 221 255
194 221 255
194 221 255
194 221 255
194 221 255
194 221 255
194 221 255
194 221 255
194 221 255
194 221 255
194 221 255
195 221 255
195 221 255
195 221 255
195 221 255
195 221 255
195 221 255
195 221 255
195 221 255
195 221 255
195 221 255
195 221 255
195 221 255
195 221 255
195 221 255
195 221 255
195 221 255
195 221 255
195 221 255
195 221 255
195 221 255
195 221 255
195 221 255
195 221 255
195 221 255
195 221 255
195 221 255
195 221 255
195 221 255
195 221 255
195 221 255
196 221 255
196 222 255
196 222 255
196 222 255
196 222 255
196 222 255
196 222 255
196 222 255
196 222 255
196 222 255
196 222 255
196 222 255
196 222 255
196 222 255
196 222 255
196 222 255
196 222 255
196 222 255
197 222 255
197 222 255
197 222 255
197 222 255
197 222 255
197 222 255
197 222 255
197 222 255
197 222 255
197 222 255
197 222 255
197 222 255
197 222 255
197 222 255
197 222 255
197 223 255
198 223 255
198 223 255
198 223 255
198 223 255
198 223 255
198 223 255
198 223 255
198 223 255
198 223 255
198 223 255
198 223 255
198 223 255
198 223 255
198 223 255
198 223 255
199 223 255
199 223 255
199 223 255
199 223 255
199 223 255
199 223 255
199 223 255
199 223 255
199 223 255
199 223 255
199 223 255
199 223 255
199 224 255
199 224 255
200 224 255
200 224 255
200 224 255
200 224 255
200 224 255
200 224 255
200 224 255
200 224 255
200 224 255
200 224 255
200 224 255
200 224 255
200 224 255
200 224 255
201 224 255
201 224 255
201 224 255
201 224 255
201 224 255
201 224 255
201 224 255
201 224 255
201 224 255
201 224 255
201 224 255
201 225 255
201 225 255
201 225 255
201 225 255
202 225 255
202 225 255
202 225 255
202 225 255
202 225 255
202 225 255
202 225 255
202 225 255
202 225 255
202 225 255
202 225 255
202 225 255
202 225 255
202 225 255
202 225 255
203 225 255
203 225 255
203 225 255
203 225 255
203 225 255
203 225 255
203 225 255
203 225 255
203 225 255
203 226 255
203 226 255
203 226 255
203 226 255
203 226 255
203 226 255
203 226 255
203 226 255
204 226 255
204 226 255
204 226 255
204 226 255
204 226 255
204 226 255
204 226 255
204 226 255
204 226 255
204 226 255
204 226 255
204 226 255
204 226 255
204 226 255
204 226 255
204 226 255
204 226 255
205 226 255
205 226 255
205 226 255
205 226 255
205 226 255
205 226 255
205 226 255
205 227 255
205 227 255
205 227 255
205 227 255
205 227 255
205 227 255
205 227 255
205 227 255
205 227 255
205 227 255
205 227 255
205 227 255
205 227 255
205 227 255
205 227 255
205 227 255
205 226 255
205 226 255
205 226 255
205 226 255
205 226 255
205 226 255
205 226 255
204 226 255
204 226 255
204 226 255
204 226 255
204 226 255
204 226 255
204 226 255
204 226 255
204 226 255
204 226 255
204 226 255
204 226 255
204 226 255
204 226 255
204 226 255
204 226 255
204 226 255
204 226 255
203 226 255
203 226 255
203 226 255
203 226 255
203 226 255
203 226 255
203 226 255
203 225 255
203 225 255
203 225 255
203 225 255
203 225 255
203 225 255
203 225 255
203 225 255
203 225 255
202 225 255
202 225 255
202 225 255
202 225 255
202 225 255
202 225 255
202 225 255
202 225 255
202 225 255
202 225 255
202 225 255
202 225 255
202 225 255
202 225 255
202 225 255
201 225 255
201 225 255
201 225 255
201 225 255
201 224 255
201 224 255
201 224 255
201 224 255
201 224 255
201 224 255
201 224 255
201 224 255
201 224 255
201 224 255
201 224 255
200 224 255
200 224 255
200 224 255
200 224 255
200 224 255
200 224 255
200 224 255
200 224 255
200 224 255
200 224 255
200 224 255
200 224 255
200 224 255
200 224 255
199 224 255
199 224 255
199 223 255
199 223 255
199 223 255
199 223 255
199 223 255
199 223 255
199 223 255
199 223 255
199 223 255
199 223 255
199 223 255
199 223 255
199 223 255
198 223 255
198 223 255
198 223 255
198 223 255
198 223 255
198 223 255
198 223 255
198 223 255
198 223 255
198 223 255
198 223 255
198 223 255
198 223 255
198 223 255
197 223 255
197 222 255
197 222 255
197 222 255
197 222 255
197 222 255
197 222 255
197 222 255
197 222 255
197 222 255
197 222 255
197 222 255
197 222 255
197 222 255
197 222 255
197 222 255
197 222 255
196 222 255
196 222 255
196 222 255
196 222 255
196 222 255
196 222 255
196 222 255
196 222 255
196 222 255
196 222 255
196 222 255
196 222 255
196 222 255
196 222 255
196 222 255
196 222 255
196 222 255
196 221 255
196 221 255
195 221 255
195 221 255
195 221 255
195 221 255
195 221 255
195 221 255
195 221 255
195 221 255
195 221 255
195 221 255
195 221 255
195 221 255
195 221 255
195 221 255
195 221 255
195 221 255
195 221 255
195 221 255
195 221 255
195 221 255
195 221 255
195 221 255
195 221 255
195 221 255
195 221 255
195 221 255
195 221 255
195 221 255
195 221 255
195 221 255
195 221 255
195 221 255
195 221 255
195 221 255
195 221 255
195 221 255
195 221 255
195 221 255
195 221 255
195 221 255
195 221 255
195 221 255
195 221 255
195 221 255
195 221 255
195 221 255
195 221 255
195 221 255
195 221 255
195 221 255
195 221 255
195 221 255
195 221 255
195 221 255
195 221 255
195 221 255
195 221 255
195 221 255
195 221 255
195 221 255
195 221 255
195 221 255
195 221 255
195 221 255
195 221 255
195 221 255
195 221 255
195 221 255
195 221 255
195 221 255
195 221 255
195 221 255
195 221 255
195 221 255
195 221 255
195 221 255
195 221 255
195 221 255
195 221 255
195 221 255
195 221 255
195 221 255
196 221 255
196 221 255
196 222 255
196 222 255
196 222 255
196 222 255
196 222 255
196 222 255
196 222 255
196 222 255
196 222 255
196 222 255
196 222 255
196 222 255
196 222 255
196 222 255
196 222 255
196 222 255
196 222 255
197 222 255
197 222 255
197 222 255
197 222 255
197 222 255
197 222 255
197 222 255
197 222 255
197 222 255
197 222 255
197 222 255
197 222 255
197 222 255
197 222 255
197 222 255
197 222 255
197 223 255
198 223 255
198 223 255
198 223 255
198 223 255
198 223 255
198 223 255
198 223 255
198 223 255
198 223 255
198 223 255
198 223 255
198 223 255
198 223 255
198 223 255
199 223 255
199 223 255
199 223 255
199 223 255
199 223 255
199 223 255
199 223 255
199 223 255
199 223 255
199 223 255
199 223 255
199 223 255
199 223 255
199 224 255
199 224 255
200 224 255
200 224 255
200 224 255
200 224 255
200 224 255
200 224 255
200 224 255
200 224 255
200 224 255
200 224 255
200 224 255
200 224 255
200 224 255
200 224 255
201 224 255
201 224 255
201 224 255
201 224 255
201 224 255
201 224 255
201 224 255
201 224 255
201 224 255
201 224 255
201 225 255
201 225 255
201 225 255
201 225 255
201 225 255
202 225 255
202 225 255
202 225 255
202 225 255
202 225 255
202 225 255
202 225 255
202 225 255
202 225 255
202 225 255
202 225 255
202 225 255
202 225 255
202 225 255
202 225 255
203 225 255
203 225 255
203 225 255
203 225 255
203 225 255
203 225 255
203 225 255
203 225 255
203 225 255
203 226 255
203 226 255
203 226 255
203 226 255
203 226 255
203 226 255
203 226 255
204 226 255
204 226 255
204 226 255
204 226 255
204 226 255
204 226 255
204 226 255
204 226 255
204 226 255
204 226 255
204 226 255
204 226 255
204 226 255
204 226 255
204 226 255
204 226 255
204 226 255
204 226 255
205 226 255
205 226 255
205 226 255
205 226 255
205 226 255
205 226 255
205 226 255
205 227 255
205 227 255
205 227 255
205 227 255
205 227 255
205 227 255
205 227 255
205 227 255
205 227 255
205 227 255
205 227 255
205 227 255
205 227 255
205 227 255
205 227 255
205 227 255
205 227 255
205 227 255
205 227 255
205 227 255
205 227 255
205 226 255
205 226 255
205 226 255
205 226 255
205 226 255
205 226 255
205 226 255
204 226 255
204 226 255
204 226 255
204 226 255
204 226 255
204 226 255
204 226 255
204 226 255
204 226 255
204 226 255
204 226 255
204 226 255
204 226 255
204 226 255
204 226 255
204 226 255
204 226 255
203 226 255
203 226 255
203 226 255
203 226 255
203 226 255
203 226 255
203 226 255
203 225 255
203 225 255
203 225 255
203 225 255
203 225 255
203 225 255
203 225 255
203 225 255
203 225 255
202 225 255
202 225 255
202 225 255
202 225 255
202 225 255
202 225 255
202 225 255
202 225 255
202 225 255
202 225 255
202 225 255
202 225 255
202 225 255
202 225 255
202 225 255
201 225 255
201 225 255
201 225 255
201 225 255
201 225 255
201 224 255
201 224 255
201 224 255
201 224 255
201 224 255
201 224 255
201 224 255
201 224 255
201 224 255
201 224 255
200 224 255
200 224 255
200 224 255
200 224 255
200 224 255
200 224 255
200 224 255
200 224 255
200 224 255
200 224 255
200 224 255
200 224 255
200 224 255
200 224 255
199 224 255
199 224 255
199 224 255
199 223 255
199 223 255
199 223 255
199 223 255
199 223 255
199 223 255
199 223 255
199 223 255
199 223 255
199 223 255
199 223 255
199 223 255
198 223 255
198 223 255
198 223 255
198 223 255
198 223 255
198 223 255
198 223 255
198 223 255
198 223 255
198 223 255
198 223 255
198 223 255
198 223 255
198 223 255
198 223 255
197 222 255
197 222 255
197 222 255
197 222 255
197 222 255
197 222 255
197 222 255
197 222 255
197 222 255
197 222 255
197 222 255
197 222 255
197 222 255
197 222 255
197 222 255
197 222 255
196 222 255
196 222 255
196 222 255
196 222 255
196 222 255
196 222 255
196 222 255
196 222 255
196 222 255
196 222 255
196 222 255
196 222 255
196 222 255
196 222 255
196 222 255
196 222 255
196 222 255
196 222 255
196 221 255
196 221 255
195 221 255
195 221 255
195 221 255
195 221 255
195 221 255
195 221 255
195 221 255
195 221 255
195 221 255
195 221 255
195 221 255
195 221 255
195 221 255
195 221 255
195 221 255
195 221 255
195 221 255
195 221 255
195 221 255
195 221 255
195 221 255
195 221 255
195 221 255
195 221 255
195 221 255
195 221 255
195 221 255
195 221 255
195 221 255
195 221 255
195 221 255
195 221 255
195 221 255
195 221 255
195 221 255
195 221 255
195 221 255
195 221 255
195 221 255
195 221 255
195 221 255
195 221 255
195 221 255
195 221 255
195 221 255
195 221 255
195 221 255
195 221 255
195 221 255
195 221 255
195 221 255
195 221 255
195 221 255
195 221 255
195 221 255
195 221 255
195 221 255
195 221 255
195 221 255
195 221 255
195 221 255
195 221 255
195 221 255
195 221 255
195 221 255
195 221 255
195 221 255
195 221 255
195 221 255
195 221 255
195 221 255
195 221 255
195 221 255
195 221 255
195 221 255
195 221 255
196 221 255
196 221 255
196 222 255
196 222 255
196 222 255
196 222 255
196 222 255
196 222 255
196 222 255
196 222 255
196 222 255
196 222 255
196 222 255
196 222 255
196 222 255
196 222 255
196 222 255
196 222 255
196 222 255
196 222 255
197 222 255
197 222 255
197 222 255
197 222 255
197 222 255
197 222 255
197 222 255
197 222 255
197 222 255
197 222 255
197 222 255
197 222 255
197 222 255
197 222 255
197 222 255
197 222 255
198 223 255
198 223 255
198 223 255
198 223 255
198 223 255
198 223 255
198 223 255
198 223 255
198 223 255
198 223 255
198 223 255
198 223 255
198 223 255
198 223 255
198 223 255
199 223 255
199 223 255
199 223 255
199 223 255
199 223 255
199 223 255
199 223 255
199 223 255
199 223 255
199 223 255
199 223 255
199 223 255
199 224 255
199 224 255
199 224 255
200 224 255
200 224 255
200 224 255
200 224 255
200 224 255
200 224 255
200 224 255
200 224 255
200 224 255
200 224 255
200 224 255
200 224 255
200 224 255
200 224 255
201 224 255
201 224 255
201 224 255
201 224 255
201 224 255
201 224 255
201 224 255
201 224 255
201 224 255
201 224 255
201 225 255
201 225 255
201 225 255
201 225 255
201 225 255
202 225 255
202 225 255
202 225 255
202 225 255
202 225 255
202 225 255
202 225 255
202 225 255
202 225 255
202 225 255
202 225 255
202 225 255
202 225 255
202 225 255
202 225 255
203 225 255
203 225 255
203 225 255
203 225 255
203 225 255
203 225 255
203 225 255
203 225 255
203 225 255
203 226 255
203 226 255
203 226 255
203 226 255
203 226 255
203 226 255
203 226 255
204 226 255
204 226 255
204 226 255
204 226 255
204 226 255
204 226 255
204 226 255
204 226 255
204 226 255
204 226 255
204 226 255
204 226 255
204 226 255
204 226 255
204 226 255
204 226 255
204 226 255
205 226 255
205 226 255
205 226 255
205 226 255
205 226 255
205 226 255
205 226 255
205 227 255
205 227 255
205 227 255
205 227 255
205 227 255
205 227 255
205 227 255
205 227 255
205 227 255
205 227 255
205 227 255
205 227 255
206 227 255
206 227 255
206 227 255
205 227 255
205 227 255
205 227 255
205 227 255
205 227 255
205 227 255
205 227 255
205 227 255
205 227 255
205 227 255
205 227 255
205 226 255
205 226 255
205 226 255
205 226 255
205 226 255
205 226 255
205 226 255
204 226 255
204 226 255
204 226 255
204 226 255
204 226 255
204 226 255
204 226 255
204 226 255
204 226 255
204 226 255
204 226 255
204 226 255
204 226 255
204 226 255
204 226 255
204 226 255
204 226 255
203 226 255
203 226 255
203 226 255
203 226 255
203 226 255
203 226 255
203 226 255
203 226 255
203 225 255
203 225 255
203 225 255
203 225 255
203 225 255
203 225 255
203 225 255
203 225 255
202 225 255
202 225 255
202 225 255
202 225 255
202 225 255
202 225 255
202 225 255
202 225 255
202 225 255
202 225 255
202 225 255
202 225 255
202 225 255
202 225 255
202 225 255
202 225 255
201 225 255
201 225 255
201 225 255
201 225 255
201 224 255
201 224 255
201 224 255
201 224 255
201 224 255
201 224 255
201 224 255
201 224 255
201 224 255
201 224 255
200 224 255
200 224 255
200 224 255
200 224 255
200 224 255
200 224 255
200 224 255
200 224 255
200 224 255
200 224 255
200 224 255
200 224 255
200 224 255
200 224 255
200 224 255
199 224 255
199 224 255
199 223 255
199 223 255
199 223 255
199 223 255
199 223 255
199 223 255
199 223 255
199 223 255
199 223 255
199 223 255
199 223 255
199 223 255
198 223 255
198 223 255
198 223 255
198 223 255
198 223 255
198 223 255
198 223 255
198 223 255
198 223 255
198 223 255
198 223 255
198 223 255
198 223 255
198 223 255
198 223 255
197 223 255
197 222 255
197 222 255
197 222 255
197 222 255
197 222 255
197 222 255
197 222 255
197 222 255
197 222 255
197 222 255
197 222 255
197 222 255
197 222 255
197 222 255
197 222 255
197 222 255
196 222 255
196 222 255
196 222 255
196 222 255
196 222 255
196 222 255
196 222 255
196 222 255
196 222 255
196 222 255
196 222 255
196 222 255
196 222 255
196 222 255
196 222 255
196 222 255
196 222 255
196 222 255
196 222 255
196 221 255
196 221 255
195 221 255
195 221 255
195 221 255
195 221 255
195 221 255
195 221 255
195 221 255
195 221 255
195 221 255
195 221 255
195 221 255
195 221 255
195 221 255
195 221 255
195 221 255
195 221 255
195 221 255
195 221 255
195 221 255
195 221 255
195 221 255
195 221 255
195 221 255
195 221 255
195 221 255
195 221 255
195 221 255
195 221 255
195 221 255
195 221 255
195 221 255
195 221 255
195 221 255
195 221 255
195 221 255
195 221 255
195 221 255
195 221 255
195 221 255
195 221 255
195 221 255
195 221 255
195 221 255
195 221 255
195 221 255
195 221 255
195 221 255
195 221 255
195 221 255
195 221 255
195 221 255
195 221 255
195 221 255
195 221 255
195 221 255
195 221 255
195 221 255
195 221 255
195 221 255
195 221 255
195 221 255
195 221 255
195 221 255
195 221 255
195 221 255
195 221 255
195 221 255
195 221 255
196 221 255
196 221 255
196 222 255
196 222 255
196 222 255
196 222 255
196 222 255
196 222 255
196 222 255
196 222 255
196 222 255
196 222 255
196 222 255
196 222 255
196 222 255
196 222 255
196 222 255
196 222 255
196 222 255
196 222 255
196 222 255
197 222 255
197 222 255
197 222 255
197 222 255
197 222 255
197 222 255
197 222 255
197 222 255
197 222 255
197 222 255
197 222 255
197 222 255
197 222 255
197 222 255
197 222 255
197 222 255
197 223 255
198 223 255
198 223 255
198 223 255
198 223 255
198 223 255
198 223 255
198 223 255
198 223 255
198 223 255
198 223 255
198 223 255
198 223 255
198 223 255
198 223 255
198 223 255
199 223 255
199 223 255
199 223 255
199 223 255
199 223 255
199 223 255
199 223 255
199 223 255
199 223 255
199 223 255
199 223 255
199 223 255
199 224 255
199 224 255
200 224 255
200 224 255
200 224 255
200 224 255
200 224 255
200 224 255
200 224 255
200 224 255
200 224 255
200 224 255
200 224 255
200 224 255
200 224 255
200 224 255
200 224 255
201 224 255
201 224 255
201 224 255
201 224 255
201 224 255
201 224 255
201 224 255
201 224 255
201 224 255
201 224 255
201 225 255
201 225 255
201 225 255
201 225 255
202 225 255
202 225 255
202 225 255
202 225 255
202 225 255
202 225 255
202 225 255
202 225 255
202 225 255
202 225 255
202 225 255
202 225 255
202 225 255
202 225 255
202 225 255
202 225 255
203 225 255
203 225 255
203 225 255
203 225 255
203 225 255
203 225 255
203 225 255
203 225 255
203 226 255
203 226 255
203 226 255
203 226 255
203 226 255
203 226 255
203 226 255
203 226 255
204 226 255
204 226 255
204 226 255
204 226 255
204 226 255
204 226 255
204 226 255
204 226 255
204 226 255
204 226 255
204 226 255
204 226 255
204 226 255
204 226 255
204 226 255
204 226 255
204 226 255
205 226 255
205 226 255
205 226 255
205 226 255
205 226 255
205 226 255
205 226 255
205 227 255
205 227 255
205 227 255
205 227 255
205 227 255
205 227 255
205 227 255
205 227 255
205 227 255
205 227 255
205 227 255
206 227 255
206 227 255
206 227 255
206 227 255
206 227 255
206 227 255
206 227 255
206 227 255
205 227 255
205 227 255
205 227 255
205 227 255
205 227 255
205 227 255
205 227 255
205 227 255
205 227 255
205 227 255
205 227 255
205 226 255
205 226 255
205 226 255
205 226 255
205 226 255
205 226 255
205 226 255
205 226 255
204 226 255
204 226 255
204 226 255
204 226 255
204 226 255
204 226 255
204 226 255
204 226 255
204 226 255
204 226 255
204 226 255
204 226 255
204 226 255
204 226 255
204 226 255
204 226 255
204 226 255
203 226 255
203 226 255
203 226 255
203 226 255
203 226 255
203 226 255
203 226 255
203 225 255
203 225 255
203 225 255
203 225 255
203 225 255
203 225 255
203 225 255
203 225 255
203 225 255
202 225 255
202 225 255
202 225 255
202 225 255
202 225 255
202 225 255
202 225 255
202 225 255
202 225 255
202 225 255
202 225 255
202 225 255
202 225 255
202 225 255
202 225 255
201 225 255
201 225 255
201 225 255
201 225 255
201 224 255
201 224 255
201 224 255
201 224 255
201 224 255
201 224 255
201 224 255
201 224 255
201 224 255
201 224 255
201 224 255
200 224 255
200 224 255
200 224 255
200 224 255
200 224 255
200 224 255
200 224 255
200 224 255
200 224 255
200 224 255
200 224 255
200 224 255
200 224 255
200 224 255
199 224 255
199 224 255
199 223 255
199 223 255
199 223 255
199 223 255
199 223 255
199 223 255
199 223 255
199 223 255
199 223 255
199 223 255
199 223 255
199 223 255
198 223 255
198 223 255
198 223 255
198 223 255
198 223 255
198 223 255
198 223 255
198 223 255
198 223 255
198 223 255
198 223 255
198 223 255
198 223 255
198 223 255
198 223 255
198 223 255
197 222 255
197 222 255
197 222 255
197 222 255
197 222 255
197 222 255
197 222 255
197 222 255
197 222 255
197 222 255
197 222 255
197 222 255
197 222 255
197 222 255
197 222 255
197 222 255
197 222 255
196 222 255
196 222 255
196 222 255
196 222 255
196 222 255
196 222 255
196 222 255
196 222 255
196 222 255
196 222 255
196 222 255
196 222 255
196 222 255
196 222 255
196 222 255
196 222 255
196 222 255
196 222 255
196 222 255
196 222 255
196 221 255
196 221 255
195 221 255
195 221 255
195 221 255
195 221 255
195 221 255
195 221 255
195 221 255
195 221 255
195 221 255
195 221 255
195 221 255
195 221 255
195 221 255
195 221 255
195 221 255
195 221 255
195 221 255
195 221 255
195 221 255
195 221 255
195 221 255
195 221 255
195 221 255
195 221 255
195 221 255
195 221 255
195 221 255
195 221 255
195 221 255
195 221 255
195 221 255
195 221 255
195 221 255
195 221 255
195 221 255
195 221 255
195 221 255
195 221 255
195 221 255
195 221 255
195 221 255
195 221 255
195 221 255
195 221 255
195 221 255
195 221 255
195 221 255
195 221 255
195 221 255
195 221 255
195 221 255
195 221 255
195 221 255
195 221 255
195 221 255
195 221 255
195 221 255
195 221 255
195 221 255
195 221 255
196 221 255
196 221 255
196 222 255
196 222 255
196 222 255
196 222 255
196 222 255
196 222 255
196 222 255
196 222 255
196 222 255
196 222 255
196 222 255
196 222 255
196 222 255
196 222 255
196 222 255
196 222 255
196 222 255
196 222 255
196 222 255
196 222 255
197 222 255
197 222 255
197 222 255
197 222 255
197 222 255
197 222 255
197 222 255
197 222 255
197 222 255
197 222 255
197 222 255
197 222 255
197 222 255
197 222 255
197 222 255
197 222 255
197 222 255
198 223 255
198 223 255
198 223 255
198 223 255
198 223 255
198 223 255
198 223 255
198 223 255
198 223 255
198 223 255
198 223 255
198 223 255
198 223 255
198 223 255
198 223 255
198 223 255
199 223 255
199 223 255
199 223 255
199 223 255
199 223 255
199 223 255
199 223 255
199 223 255
199 223 255
199 223 255
199 223 255
199 223 255
199 224 255
199 224 255
200 224 255
200 224 255
200 224 255
200 224 255
200 224 255
200 224 255
200 224 255
200 224 255
200 224 255
200 224 255
200 224 255
200 224 255
200 224 255
200 224 255
200 224 255
201 224 255
201 224 255
201 224 255
201 224 255
201 224 255
201 224 255
201 224 255
201 224 255
201 224 255
201 224 255
201 225 255
201 225 255
201 225 255
201 225 255
202 225 255
202 225 255
202 225 255
202 225 255
202 225 255
202 225 255
202 225 255
202 225 255
202 225 255
202 225 255
202 225 255
202 225 255
202 225 255
202 225 255
202 225 255
203 225 255
203 225 255
203 225 255
203 225 255
203 225 255
203 225 255
203 225 255
203 225 255
203 225 255
203 226 255
203 226 255
203 226 255
203 226 255
203 226 255
203 226 255
203 226 255
204 226 255
204 226 255
204 226 255
204 226 255
204 226 255
204 226 255
204 226 255
204 226 255
204 226 255
204 226 255
204 226 255
204 226 255
204 226 255
204 226 255
204 226 255
204 226 255
204 226 255
205 226 255
205 226 255
205 226 255
205 226 255
205 226 255
205 226 255
205 226 255
205 226 255
205 227 255
205 227 255
205 227 255
205 227 255
205 227 255
205 227 255
205 227 255
205 227 255
205 227 255
205 227 255
205 227 255
206 227 255
206 227 255
206 227 255
206 227 255
206 227 255
206 227 255
206 227 255
206 227 255
206 227 255
206 227 255
206 227 255
206 227 255
206 227 255
205 227 255
205 227 255
205 227 255
205 227 255
205 227 255
205 227 255
205 227 255
205 227 255
205 227 255
205 227 255
205 227 255
205 226 255
205 226 255
205 226 255
205 226 255
205 226 255
205 226 255
205 226 255
204 226 255
204 226 255
204 226 255
204 226 255
204 226 255
204 226 255
204 226 255
204 226 255
204 226 255
204 226 255
204 226 255
204 226 255
204 226 255
204 226 255
204 226 255
204 226 255
204 226 255
203 226 255
203 226 255
203 226 255
203 226 255
203 226 255
203 226 255
203 226 255
203 225 255
203 225 255
203 225 255
203 225 255
203 225 255
203 225 255
203 225 255
203 225 255
203 225 255
202 225 255
202 225 255
202 225 255
202 225 255
202 225 255
202 225 255
202 225 255
202 225 255
202 225 255
202 225 255
202 225 255
202 225 255
202 225 255
202 225 255
202 225 255
201 225 255
201 225 255
201 225 255
201 225 255
201 224 255
201 224 255
201 224 255
201 224 255
201 224 255
201 224 255
201 224 255
201 224 255
201 224 255
201 224 255
201 224 255
200 224 255
200 224 255
200 224 255
200 224 255
200 224 255
200 224 255
200 224 255
200 224 255
200 224 255
200 224 255
200 224 255
200 224 255
200 224 255
200 224 255
199 224 255
199 224 255
199 223 255
199 223 255
199 223 255
199 223 255
199 223 255
199 223 255
199 223 255
199 223 255
199 223 255
199 223 255
199 223 255
199 223 255
199 223 255
198 223 255
198 223 255
198 223 255
198 223 255
198 223 255
198 223 255
198 223 255
198 223 255
198 223 255
198 223 255
198 223 255
198 223 255
198 223 255
198 223 255
198 223 255
197 223 255
197 222 255
197 222 255
197 222 255
197 222 255
197 222 255
197 222 255
197 222 255
197 222 255
197 222 255
197 222 255
197 222 255
197 222 255
197 222 255
197 222 255
197 222 255
197 222 255
197 222 255
196 222 255
196 222 255
196 222 255
196 222 255
196 222 255
196 222 255
196 222 255
196 222 255
196 222 255
196 222 255
196 222 255
196 222 255
196 222 255
196 222 255
196 222 255
196 222 255
196 222 255
196 222 255
196 222 255
196 222 255
196 222 255
196 221 255
196 221 255
196 221 255
195 221 255
195 221 255
195 221 255
195 221 255
195 221 255
195 221 255
195 221 255
195 221 255
195 221 255
195 221 255
195 221 255
195 221 255
195 221 255
195 221 255
195 221 255
195 221 255
195 221 255
195 221 255
195 221 255
195 221 255
195 221 255
195 221 255
195 221 255
195 221 255
195 221 255
195 221 255
195 221 255
195 221 255
195 221 255
195 221 255
195 221 255
195 221 255
195 221 255
195 221 255
195 221 255
195 221 255
195 221 255
195 221 255
195 221 255
195 221 255
195 221 255
195 221 255
195 221 255
195 221 255
195 221 255
195 221 255
195 221 255
195 221 255
195 221 255
195 221 255
196 221 255
196 221 255
196 221 255
196 222 255
196 222 255
196 222 255
196 222 255
196 222 255
196 222 255
196 222 255
196 222 255
196 222 255
196 222 255
196 222 255
196 222 255
196 222 255
196 222 255
196 222 255
196 222 255
196 222 255
196 222 255
196 222 255
196 222 255
196 222 255
197 222 255
197 222 255
197 222 255
197 222 255
197 222 255
197 222 255
197 222 255
197 222 255
197 222 255
197 222 255
197 222 255
197 222 255
197 222 255
197 222 255
197 222 255
197 222 255
197 222 255
197 223 255
198 223 255
198 223 255
198 223 255
198 223 255
198 223 255
198 223 255
198 223 255
198 223 255
198 223 255
198 223 255
198 223 255
198 223 255
198 223 255
198 223 255
198 223 255
199 223 255
199 223 255
199 223 255
199 223 255
199 223 255
199 223 255
199 223 255
199 223 255
199 223 255
199 223 255
199 223 255
199 223 255
199 223 255
199 224 255
199 224 255
200 224 255
200 224 255
200 224 255
200 224 255
200 224 255
200 224 255
200 224 255
200 224 255
200 224 255
200 224 255
200 224 255
200 224 255
200 224 255
200 224 255
201 224 255
201 224 255
201 224 255
201 224 255
201 224 255
201 224 255
201 224 255
201 224 255
201 224 255
201 224 255
201 225 255
201 225 255
201 225 255
201 225 255
201 225 255
202 225 255
202 225 255
202 225 255
202 225 255
202 225 255
202 225 255
202 225 255
202 225 255
202 225 255
202 225 255
202 225 255
202 225 255
202 225 255
202 225 255
202 225 255
203 225 255
203 225 255
203 225 255
203 225 255
203 225 255
203 225 255
203 225 255
203 225 255
203 225 255
203 226 255
203 226 255
203 226 255
203 226 255
203 226 255
203 226 255
203 226 255
204 226 255
204 226 255
204 226 255
204 226 255
204 226 255
204 226 255
204 226 255
204 226 255
204 226 255
204 226 255
204 226 255
204 226 255
204 226 255
204 226 255
204 226 255
204 226 255
204 226 255
205 226 255
205 226 255
205 226 255
205 226 255
205 226 255
205 226 255
205 226 255
205 227 255
205 227 255
205 227 255
205 227 255
205 227 255
205 227 255
205 227 255
205 227 255
205 227 255
205 227 255
205 227 255
206 227 255
206 227 255
206 227 255
206 227 255
206 227 255
206 227 255
206 227 255
206 227 255
206 227 255
206 227 255
206 227 255
206 227 255
206 227 255
206 227 255
206 227 255
206 227 255
206 227 255
206 227 255
206 227 255
205 227 255
205 227 255
205 227 255
205 227 255
205 227 255
205 227 255
205 227 255
205 227 255
205 227 255
205 227 255
205 226 255
205 226 255
205 226 255
205 226 255
205 226 255
205 226 255
205 226 255
205 226 255
204 226 255
204 226 255
204 226 255
204 226 255
204 226 255
204 226 255
204 226 255
204 226 255
204 226 255
204 226 255
204 226 255
204 226 255
204 226 255
204 226 255
204 226 255
204 226 255
203 226 255
203 226 255
203 226 255
203 226 255
203 226 255
203 226 255
203 226 255
203 226 255
203 225 255
203 225 255
203 225 255
203 225 255
203 225 255
203 225 255
203 225 255
203 225 255
202 225 255
202 225 255
202 225 255
202 225 255
202 225 255
202 225 255
202 225 255
202 225 255
202 225 255
202 225 255
202 225 255
202 225 255
202 225 255
202 225 255
202 225 255
201 225 255
201 225 255
201 225 255
201 225 255
201 225 255
201 224 255
201 224 255
201 224 255
201 224 255
201 224 255
201 224 255
201 224 255
201 224 255
201 224 255
201 224 255
200 224 255
200 224 255
200 224 255
200 224 255
200 224 255
200 224 255
200 224 255
200 224 255
200 224 255
200 224 255
200 224 255
200 224 255
200 224 255
200 224 255
199 224 255
199 224 255
199 224 255
199 223 255
199 223 255
199 223 255
199 223 255
199 223 255
199 223 255
199 223 255
199 223 255
199 223 255
199 223 255
199 223 255
199 223 255
198 223 255
198 223 255
198 223 255
198 223 255
198 223 255
198 223 255
198 223 255
198 223 255
198 223 255
198 223 255
198 223 255
198 223 255
198 223 255
198 223 255
198 223 255
198 223 255
197 222 255
197 222 255
197 222 255
197 222 255
197 222 255
197 222 255
197 222 255
197 222 255
197 222 255
197 222 255
197 222 255
197 222 255
197 222 255
197 222 255
197 222 255
197 222 255
197 222 255
197 222 255
196 222 255
196 222 255
196 222 255
196 222 255
196 222 255
196 222 255
196 222 255
196 222 255
196 222 255
196 222 255
196 222 255
196 222 255
196 222 255
196 222 255
196 222 255
196 222 255
196 222 255
196 222 255
196 222 255
196 222 255
196 222 255
196 222 255
196 222 255
196 222 255
196 221 255
196 221 255
196 221 255
195 221 255
195 221 255
195 221 255
195 221 255
195 221 255
195 221 255
195 221 255
195 221 255
195 221 255
195 221 255
195 221 255
195 221 255
195 221 255
195 221 255
195 221 255
195 221 255
195 221 255
195 221 255
195 221 255
195 221 255
195 221 255
195 221 255
195 221 255
195 221 255
195 221 255
195 221 255
195 221 255
195 221 255
195 221 255
195 221 255
195 221 255
195 221 255
195 221 255
195 221 255
195 221 255
195 221 255
195 221 255
195 221 255
196 221 255
196 221 255
196 221 255
196 221 255
196 222 255
196 222 255
196 222 255
196 222 255
196 222 255
196 222 255
196 222 255
196 222 255
196 222 255
196 222 255
196 222 255
196 222 255
196 222 255
196 222 255
196 222 255
196 222 255
196 222 255
196 222 255
196 222 255
196 222 255
196 222 255
196 222 255
196 222 255
197 222 255
197 222 255
197 222 255
197 222 255
197 222 255
197 222 255
197 222 255
197 222 255
197 222 255
197 222 255
197 222 255
197 222 255
197 222 255
197 222 255
197 222 255
197 222 255
197 222 255
197 222 255
198 223 255
198 223 255
198 223 255
198 223 255
198 223 255
198 223 255
198 223 255
198 223 255
198 223 255
198 223 255
198 223 255
198 223 255
198 223 255
198 223 255
198 223 255
198 223 255
199 223 255
199 223 255
199 223 255
199 223 255
199 223 255
199 223 255
199 223 255
199 223 255
199 223 255
199 223 255
199 223 255
199 223 255
199 224 255
199 224 255
199 224 255
200 224 255
200 224 255
200 224 255
200 224 255
200 224 255
200 224 255
200 224 255
200 224 255
200 224 255
200 224 255
200 224 255
200 224 255
200 224 255
200 224 255
201 224 255
201 224 255
201 224 255
201 224 255
201 224 255
201 224 255
201 224 255
201 224 255
201 224 255
201 224 255
201 225 255
201 225 255
201 225 255
201 225 255
201 225 255
202 225 255
202 225 255
202 225 255
202 225 255
202 225 255
202 225 255
202 225 255
202 225 255
202 225 255
202 225 255
202 225 255
202 225 255
202 225 255
202 225 255
202 225 255
203 225 255
203 225 255
203 225 255
203 225 255
203 225 255
203 225 255
203 225 255
203 225 255
203 226 255
203 226 255
203 226 255
203 226 255
203 226 255
203 226 255
203 226 255
204 226 255
204 226 255
204 226 255
204 226 255
204 226 255
204 226 255
204 226 255
204 226 255
204 226 255
204 226 255
204 226 255
204 226 255
204 226 255
204 226 255
204 226 255
204 226 255
204 226 255
205 226 255
205 226 255
205 226 255
205 226 255
205 226 255
205 226 255
205 226 255
205 227 255
205 227 255
205 227 255
205 227 255
205 227 255
205 227 255
205 227 255
205 227 255
205 227 255
205 227 255
205 227 255
206 227 255
206 227 255
206 227 255
206 227 255
206 227 255
206 227 255
206 227 255
206 227 255
206 227 255
206 227 255
206 227 255
206 227 255
206 227 255
206 227 255
206 227 255
206 227 255
206 227 255
206 227 255
206 227 255
206 227 255
206 227 255
206 227 255
206 227 255
206 227 255
205 227 255
205 227 255
205 227 255
205 227 255
205 227 255
205 227 255
205 227 255
205 227 255
205 227 255
205 227 255
205 227 255
205 226 255
205 226 255
205 226 255
205 226 255
205 226 255
205 226 255
205 226 255
204 226 255
204 226 255
204 226 255
204 226 255
204 226 255
204 226 255
204 226 255
204 226 255
204 226 255
204 226 255
204 226 255
204 226 255
204 226 255
204 226 255
204 226 255
204 226 255
204 226 255
203 226 255
203 226 255
203 226 255
203 226 255
203 226 255
203 226 255
203 226 255
203 225 255
203 225 255
203 225 255
203 225 255
203 225 255
203 225 255
203 225 255
203 225 255
203 225 255
202 225 255
202 225 255
202 225 255
202 225 255
202 225 255
202 225 255
202 225 255
202 225 255
202 225 255
202 225 255
202 225 255
202 225 255
202 225 255
202 225 255
201 225 255
201 225 255
201 225 255
201 225 255
201 225 255
201 224 255
201 224 255
201 224 255
201 224 255
201 224 255
201 224 255
201 224 255
201 224 255
201 224 255
201 224 255
200 224 255
200 224 255
200 224 255
200 224 255
200 224 255
200 224 255
200 224 255
200 224 255
200 224 255
200 224 255
200 224 255
200 224 255
200 224 255
200 224 255
200 224 255
199 224 255
199 224 255
199 223 255
199 223 255
199 223 255
199 223 255
199 223 255
199 223 255
199 223 255
199 223 255
199 223 255
199 223 255
199 223 255
199 223 255
198 223 255
198 223 255
198 223 255
198 223 255
198 223 255
198 223 255
198 223 255
198 223 255
198 223 255
198 223 255
198 223 255
198 223 255
198 223 255
198 223 255
198 223 255
198 223 255
198 223 255
197 222 255
197 222 255
197 222 255
197 222 255
197 222 255
197 222 255
197 222 255
197 222 255
197 222 255
197 222 255
197 222 255
197 222 255
197 222 255
197 222 255
197 222 255
197 222 255
197 222 255
197 222 255
196 222 255
196 222 255
196 222 255
196 222 255
196 222 255
196 222 255
196 222 255
196 222 255
196 222 255
196 222 255
196 222 255
196 222 255
196 222 255
196 222 255
196 222 255
196 222 255
196 222 255
196 222 255
196 222 255
196 222 255
196 222 255
196 222 255
196 222 255
196 222 255
196 222 255
196 222 255
196 222 255
196 222 255
196 221 255
196 221 255
196 221 255
196 221 255
196 221 255
195 221 255
195 221 255
195 221 255
195 221 255
195 221 255
195 221 255
195 221 255
195 221 255
195 221 255
195 221 255
195 221 255
195 221 255
195 221 255
195 221 255
195 221 255
195 221 255
195 221 255
195 221 255
195 221 255
195 221 255
196 221 255
196 221 255
196 221 255
196 221 255
196 221 255
196 222 255
196 222 255
196 222 255
196 222 255
196 222 255
196 222 255
196 222 255
196 222 255
196 222 255
196 222 255
196 222 255
196 222 255
196 222 255
196 222 255
196 222 255
196 222 255
196 222 255
196 222 255
196 222 255
196 222 255
196 222 255
196 222 255
196 222 255
196 222 255
196 222 255
196 222 255
196 222 255
196 222 255
197 222 255
197 222 255
197 222 255
197 222 255
197 222 255
197 222 255
197 222 255
197 222 255
197 222 255
197 222 255
197 222 255
197 222 255
197 222 255
197 222 255
197 222 255
197 222 255
197 222 255
197 222 255
197 223 255
198 223 255
198 223 255
198 223 255
198 223 255
198 223 255
198 223 255
198 223 255
198 223 255
198 223 255
198 223 255
198 223 255
198 223 255
198 223 255
198 223 255
198 223 255
199 223 255
199 223 255
199 223 255
199 223 255
199 223 255
199 223 255
199 223 255
199 223 255
199 223 255
199 223 255
199 223 255
199 223 255
199 223 255
199 224 255
199 224 255
200 224 255
200 224 255
200 224 255
200 224 255
200 224 255
200 224 255
200 224 255
200 224 255
200 224 255
200 224 255
200 224 255
200 224 255
200 224 255
200 224 255
200 224 255
201 224 255
201 224 255
201 224 255
201 224 255
201 224 255
201 224 255
201 224 255
201 224 255
201 224 255
201 224 255
201 225 255
201 225 255
201 225 255
201 225 255
202 225 255
202 225 255
202 225 255
202 225 255
202 225 255
202 225 255
202 225 255
202 225 255
202 225 255
202 225 255
202 225 255
202 225 255
202 225 255
202 225 255
202 225 255
203 225 255
203 225 255
203 225 255
203 225 255
203 225 255
203 225 255
203 225 255
203 225 255
203 225 255
203 226 255
203 226 255
203 226 255
203 226 255
203 226 255
203 226 255
203 226 255
204 226 255
204 226 255
204 226 255
204 226 255
204 226 255
204 226 255
204 226 255
204 226 255
204 226 255
204 226 255
204 226 255
204 226 255
204 226 255
204 226 255
204 226 255
204 226 255
204 226 255
205 226 255
205 226 255
205 226 255
205 226 255
205 226 255
205 226 255
205 226 255
205 227 255
205 227 255
205 227 255
205 227 255
205 227 255
205 227 255
205 227 255
205 227 255
205 227 255
205 227 255
205 227 255
206 227 255
206 227 255
206 227 255
206 227 255
206 227 255
206 227 255
206 227 255
206 227 255
206 227 255
206 227 255
206 227 255
206 227 255
206 227 255
206 227 255
206 227 255
206 227 255
206 227 255
206 227 255
206 227 255
206 227 255
206 227 255
206 227 255
206 227 255
206 227 255
206 227 255
206 227 255
206 227 255
206 227 255
206 227 255
205 227 255
205 227 255
205 227 255
205 227 255
205 227 255
205 227 255
205 227 255
205 227 255
205 227 255
205 227 255
205 227 255
205 226 255
205 226 255
205 226 255
205 226 255
205 226 255
205 226 255
205 226 255
204 226 255
204 226 255
204 226 255
204 226 255
204 226 255
204 226 255
204 226 255
204 226 255
204 226 255
204 226 255
204 226 255
204 226 255
204 226 255
204 226 255
204 226 255
204 226 255
203 226 255
203 226 255
203 226 255
203 226 255
203 226 255
203 226 255
203 226 255
203 225 255
203 225 255
203 225 255
203 225 255
203 225 255
203 225 255
203 225 255
203 225 255
203 225 255
202 225 255
202 225 255
202 225 255
202 225 255
202 225 255
202 225 255
202 225 255
202 225 255
202 225 255
202 225 255
202 225 255
202 225 255
202 225 255
202 225 255
202 225 255
201 225 255
201 225 255
201 225 255
201 225 255
201 224 255
201 224 255
201 224 255
201 224 255
201 224 255
201 224 255
201 224 255
201 224 255
201 224 255
201 224 255
201 224 255
200 224 255
200 224 255
200 224 255
200 224 255
200 224 255
200 224 255
200 224 255
200 224 255
200 224 255
200 224 255
200 224 255
200 224 255
200 224 255
200 224 255
199 224 255
199 224 255
199 223 255
199 223 255
199 223 255
199 223 255
199 223 255
199 223 255
199 223 255
199 223 255
199 223 255
199 223 255
199 223 255
199 223 255
199 223 255
198 223 255
198 223 255
198 223 255
198 223 255
198 223 255
198 223 255
198 223 255
198 223 255
198 223 255
198 223 255
198 223 255
198 223 255
198 223 255
198 223 255
198 223 255
198 223 255
197 223 255
197 222 255
197 222 255
197 222 255
197 222 255
197 222 255
197 222 255
197 222 255
197 222 255
197 222 255
197 222 255
197 222 255
197 222 255
197 222 255
197 222 255
197 222 255
197 222 255
197 222 255
197 222 255
197 222 255
196 222 255
196 222 255
196 222 255
196 222 255
196 222 255
196 222 255
196 222 255
196 222 255
196 222 255
196 222 255
196 222 255
196 222 255
196 222 255
196 222 255
196 222 255
196 222 255
196 222 255
196 222 255
196 222 255
196 222 255
196 222 255
196 222 255
196 222 255
196 222 255
196 222 255
196 222 255
196 222 255
196 222 255
196 222 255
196 222 255
196 222 255
196 222 255
196 222 255
196 222 255
196 222 255
196 222 255
196 222 255
196 222 255
196 222 255
196 222 255
196 222 255
196 222 255
196 222 255
196 222 255
196 222 255
196 222 255
196 222 255
196 222 255
196 222 255
196 222 255
196 222 255
196 222 255
196 222 255
196 222 255
196 222 255
196 222 255
196 222 255
196 222 255
196 222 255
196 222 255
196 222 255
196 222 255
196 222 255
196 222 255
196 222 255
196 222 255
196 222 255
196 222 255
196 222 255
196 222 255
196 222 255
196 222 255
196 222 255
196 222 255
196 222 255
196 222 255
196 222 255
196 222 255
197 222 255
197 222 255
197 222 255
197 222 255
197 222 255
197 222 255
197 222 255
197 222 255
197 222 255
197 222 255
197 222 255
197 222 255
197 222 255
197 222 255
197 222 255
197 222 255
197 222 255
197 222 255
197 222 255
197 223 255
198 223 255
198 223 255
198 223 255
198 223 255
198 223 255
198 223 255
198 223 255
198 223 255
198 223 255
198 223 255
198 223 255
198 223 255
198 223 255
198 223 255
198 223 255
198 223 255
199 223 255
199 223 255
199 223 255
199 223 255
199 223 255
199 223 255
199 223 255
199 223 255
199 223 255
199 223 255
199 223 255
199 223 255
199 223 255
199 224 255
199 224 255
200 224 255
200 224 255
200 224 255
200 224 255
200 224 255
200 224 255
200 224 255
200 224 255
200 224 255
200 224 255
200 224 255
200 224 255
200 224 255
200 224 255
201 224 255
201 224 255
201 224 255
201 224 255
201 224 255
201 224 255
201 224 255
201 224 255
201 224 255
201 224 255
201 224 255
201 225 255
201 225 255
201 225 255
201 225 255
202 225 255
202 225 255
202 225 255
202 225 255
202 225 255
202 225 255
202 225 255
202 225 255
202 225 255
202 225 255
202 225 255
202 225 255
202 225 255
202 225 255
202 225 255
203 225 255
203 225 255
203 225 255
203 225 255
203 225 255
203 225 255
203 225 255
203 225 255
203 225 255
203 226 255
203 226 255
203 226 255
203 226 255
203 226 255
203 226 255
203 226 255
204 226 255
204 226 255
204 226 255
204 226 255
204 226 255
204 226 255
204 226 255
204 226 255
204 226 255
204 226 255
204 226 255
204 226 255
204 226 255
204 226 255
204 226 255
204 226 255
205 226 255
205 226 255
205 226 255
205 226 255
205 226 255
205 226 255
205 226 255
205 227 255
205 227 255
205 227 255
205 227 255
205 227 255
205 227 255
205 227 255
205 227 255
205 227 255
205 227 255
205 227 255
206 227 255
206 227 255
206 227 255
206 227 255
206 227 255
206 227 255
206 227 255
206 227 255
206 227 255
206 227 255
206 227 255
206 227 255
206 227 255
206 227 255
206 227 255
206 227 255
206 227 255
206 227 255
206 227 255
206 227 255
206 227 255
206 227 255
206 227 255
206 227 255
206 227 255
206 227 255
206 227 255
206 227 255
206 227 255
206 227 255
206 227 255
206 227 255
206 227 255
206 227 255
205 227 255
205 227 255
205 227 255
205 227 255
205 227 255
205 227 255
205 227 255
205 227 255
205 227 255
205 227 255
205 227 255
205 226 255
205 226 255
205 226 255
205 226 255
205 226 255
205 226 255
205 226 255
204 226 255
204 226 255
204 226 255
204 226 255
204 226 255
204 226 255
204 226 255
204 226 255
204 226 255
204 226 255
204 226 255
204 226 255
204 226 255
204 226 255
204 226 255
204 226 255
204 226 255
203 226 255
203 226 255
203 226 255
203 226 255
203 226 255
203 226 255
203 226 255
203 225 255
203 225 255
203 225 255
203 225 255
203 225 255
203 225 255
203 225 255
203 225 255
202 225 255
202 225 255
202 225 255
202 225 255
202 225 255
202 225 255
202 225 255
202 225 255
202 225 255
202 225 255
202 225 255
202 225 255
202 225 255
202 225 255
202 225 255
201 225 255
201 225 255
201 225 255
201 225 255
201 225 255
201 224 255
201 224 255
201 224 255
201 224 255
201 224 255
201 224 255
201 224 255
201 224 255
201 224 255
201 224 255
200 224 255
200 224 255
200 224 255
200 224 255
200 224 255
200 224 255
200 224 255
200 224 255
200 224 255
200 224 255
200 224 255
200 224 255
200 224 255
200 224 255
199 224 255
199 224 255
199 224 255
199 223 255
199 223 255
199 223 255
199 223 255
199 223 255
199 223 255
199 223 255
199 223 255
199 223 255
199 223 255
199 223 255
199 223 255
199 223 255
198 223 255
198 223 255
198 223 255
198 223 255
198 223 255
198 223 255
198 223 255
198 223 255
198 223 255
198 223 255
198 223 255
198 223 255
198 223 255
198 223 255
198 223 255
198 223 255
197 223 255
197 222 255
197 222 255
197 222 255
197 222 255
197 222 255
197 222 255
197 222 255
197 222 255
197 222 255
197 222 255
197 222 255
197 222 255
197 222 255
197 222 255
197 222 255
197 222 255
197 222 255
197 222 255
197 222 255
197 222 255
196 222 255
196 222 255
196 222 255
196 222 255
196 222 255
196 222 255
196 222 255
196 222 255
196 222 255
196 222 255
196 222 255
196 222 255
196 222 255
196 222 255
196 222 255
196 222 255
196 222 255
196 222 255
196 222 255
196 222 255
196 222 255
196 222 255
196 222 255
196 222 255
196 222 255
196 222 255
196 222 255
196 222 255
196 222 255
196 222 255
196 222 255
196 222 255
196 222 255
196 222 255
196 222 255
196 222 255
196 222 255
196 222 255
196 222 255
196 222 255
196 222 255
196 222 255
196 222 255
196 222 255
196 222 255
196 222 255
196 222 255
196 222 255
196 222 255
196 222 255
196 222 255
196 222 255
196 222 255
196 222 255
196 222 255
196 222 255
196 222 255
196 222 255
196 222 255
196 222 255
196 222 255
196 222 255
196 222 255
196 222 255
196 222 255
196 222 255
196 222 255
196 222 255
196 222 255
196 222 255
197 222 255
197 222 255
197 222 255
197 222 255
197 222 255
197 222 255
197 222 255
197 222 255
197 222 255
197 222 255
197 222 255
197 222 255
197 222 255
197 222 255
197 222 255
197 222 255
197 222 255
197 222 255
197 222 255
197 222 255
197 223 255
198 223 255
198 223 255
198 223 255
198 223 255
198 223 255
198 223 255
198 223 255
198 223 255
198 223 255
198 223 255
198 223 255
198 223 255
198 223 255
198 223 255
198 223 255
198 223 255
199 223 255
199 223 255
199 223 255
199 223 255
199 223 255
199 223 255
199 223 255
199 223 255
199 223 255
199 223 255
199 223 255
199 223 255
199 223 255
199 224 255
199 224 255
199 224 255
200 224 255
200 224 255
200 224 255
200 224 255
200 224 255
200 224 255
200 224 255
200 224 255
200 224 255
200 224 255
200 224 255
200 224 255
200 224 255
200 224 255
201 224 255
201 224 255
201 224 255
201 224 255
201 224 255
201 224 255
201 224 255
201 224 255
201 224 255
201 224 255
201 225 255
201 225 255
201 225 255
201 225 255
201 225 255
202 225 255
202 225 255
202 225 255
202 225 255
202 225 255
202 225 255
202 225 255
202 225 255
202 225 255
202 225 255
202 225 255
202 225 255
202 225 255
202 225 255
202 225 255
203 225 255
203 225 255
203 225 255
203 225 255
203 225 255
203 225 255
203 225 255
203 225 255
203 226 255
203 226 255
203 226 255
203 226 255
203 226 255
203 226 255
203 226 255
204 226 255
204 226 255
204 226 255
204 226 255
204 226 255
204 226 255
204 226 255
204 226 255
204 226 255
204 226 255
204 226 255
204 226 255
204 226 255
204 226 255
204 226 255
204 226 255
204 226 255
205 226 255
205 226 255
205 226 255
205 226 255
205 226 255
205 226 255
205 226 255
205 227 255
205 227 255
205 227 255
205 227 255
205 227 255
205 227 255
205 227 255
205 227 255
205 227 255
205 227 255
205 227 255
206 227 255
206 227 255
206 227 255
206 227 255
206 227 255
206 227 255
206 227 255
206 227 255
206 227 255
206 227 255
206 227 255
206 227 255
206 227 255
206 227 255
206 227 255
206 227 255
206 227 255
206 227 255
207 227 255
207 227 255
206 227 255
206 227 255
206 227 255
206 227 255
206 227 255
206 227 255
206 227 255
206 227 255
206 227 255
206 227 255
206 227 255
206 227 255
206 227 255
206 227 255
206 227 255
206 227 255
206 227 255
206 227 255
206 227 255
205 227 255
205 227 255
205 227 255
205 227 255
205 227 255
205 227 255
205 227 255
205 227 255
205 227 255
205 227 255
205 227 255
205 226 255
205 226 255
205 226 255
205 226 255
205 226 255
205 226 255
205 226 255
204 226 255
204 226 255
204 226 255
204 226 255
204 226 255
204 226 255
204 226 255
204 226 255
204 226 255
204 226 255
204 226 255
204 226 255
204 226 255
204 226 255
204 226 255
204 226 255
203 226 255
203 226 255
203 226 255
203 226 255
203 226 255
203 226 255
203 226 255
203 225 255
203 225 255
203 225 255
203 225 255
203 225 255
203 225 255
203 225 255
203 225 255
203 225 255
202 225 255
202 225 255
202 225 255
202 225 255
202 225 255
202 225 255
202 225 255
202 225 255
202 225 255
202 225 255
202 225 255
202 225 255
202 225 255
202 225 255
202 225 255
201 225 255
201 225 255
201 225 255
201 225 255
201 224 255
201 224 255
201 224 255
201 224 255
201 224 255
201 224 255
201 224 255
201 224 255
201 224 255
201 224 255
200 224 255
200 224 255
200 224 255
200 224 255
200 224 255
200 224 255
200 224 255
200 224 255
200 224 255
200 224 255
200 224 255
200 224 255
200 224 255
200 224 255
200 224 255
199 224 255
199 224 255
199 223 255
199 223 255
199 223 255
199 223 255
199 223 255
199 223 255
199 223 255
199 223 255
199 223 255
199 223 255
199 223 255
199 223 255
199 223 255
198 223 255
198 223 255
198 223 255
198 223 255
198 223 255
198 223 255
198 223 255
198 223 255
198 223 255
198 223 255
198 223 255
198 223 255
198 223 255
198 223 255
198 223 255
198 223 255
198 223 255
197 223 255
197 222 255
197 222 255
197 222 255
197 222 255
197 222 255
197 222 255
197 222 255
197 222 255
197 222 255
197 222 255
197 222 255
197 222 255
197 222 255
197 222 255
197 222 255
197 222 255
197 222 255
197 222 255
197 222 255
197 222 255
197 222 255
196 222 255
196 222 255
196 222 255
196 222 255
196 222 255
196 222 255
196 222 255
196 222 255
196 222 255
196 222 255
196 222 255
196 222 255
196 222 255
196 222 255
196 222 255
196 222 255
196 222 255
196 222 255
196 222 255
196 222 255
196 222 255
196 222 255
196 222 255
196 222 255
196 222 255
196 222 255
196 222 255
196 222 255
196 222 255
196 222 255
196 222 255
196 222 255
196 222 255
196 222 255
196 222 255
196 222 255
196 222 255
196 222 255
196 222 255
196 222 255
196 222 255
196 222 255
196 222 255
196 222 255
196 222 255
196 222 255
196 222 255
196 222 255
196 222 255
196 222 255
196 222 255
196 222 255
196 222 255
196 222 255
196 222 255
196 222 255
196 222 255
196 222 255
196 222 255
196 222 255
196 222 255
196 222 255
197 222 255
197 222 255
197 222 255
197 222 255
197 222 255
197 222 255
197 222 255
197 222 255
197 222 255
197 222 255
197 222 255
197 222 255
197 222 255
197 222 255
197 222 255
197 222 255
197 222 255
197 222 255
197 222 255
197 222 255
197 222 255
197 223 255
198 223 255
198 223 255
198 223 255
198 223 255
198 223 255
198 223 255
198 223 255
198 223 255
198 223 255
198 223 255
198 223 255
198 223 255
198 223 255
198 223 255
198 223 255
198 223 255
198 223 255
199 223 255
199 223 255
199 223 255
199 223 255
199 223 255
199 223 255
199 223 255
199 223 255
199 223 255
199 223 255
199 223 255
199 223 255
199 223 255
199 224 255
199 224 255
200 224 255
200 224 255
200 224 255
200 224 255
200 224 255
200 224 255
200 224 255
200 224 255
200 224 255
200 224 255
200 224 255
200 224 255
200 224 255
200 224 255
200 224 255
201 224 255
201 224 255
201 224 255
201 224 255
201 224 255
201 224 255
201 224 255
201 224 255
201 224 255
201 224 255
201 225 255
201 225 255
201 225 255
201 225 255
202 225 255
202 225 255
202 225 255
202 225 255
202 225 255
202 225 255
202 225 255
202 225 255
202 225 255
202 225 255
202 225 255
202 225 255
202 225 255
202 225 255
202 225 255
203 225 255
203 225 255
203 225 255
203 225 255
203 225 255
203 225 255
203 225 255
203 225 255
203 225 255
203 226 255
203 226 255
203 226 255
203 226 255
203 226 255
203 226 255
203 226 255
204 226 255
204 226 255
204 226 255
204 226 255
204 226 255
204 226 255
204 226 255
204 226 255
204 226 255
204 226 255
204 226 255
204 226 255
204 226 255
204 226 255
204 226 255
204 226 255
205 226 255
205 226 255
205 226 255
205 226 255
205 226 255
205 226 255
205 226 255
205 227 255
205 227 255
205 227 255
205 227 255
205 227 255
205 227 255
205 227 255
205 227 255
205 227 255
205 227 255
205 227 255
206 227 255
206 227 255
206 227 255
206 227 255
206 227 255
206 227 255
206 227 255
206 227 255
206 227 255
206 227 255
206 227 255
206 227 255
206 227 255
206 227 255
206 227 255
206 227 255
206 227 255
206 227 255
206 227 255
207 227 255
207 227 255
207 227 255
207 227 255
207 227 255
207 227 255
206 227 255
206 227 255
206 227 255
206 227 255
206 227 255
206 227 255
206 227 255
206 227 255
206 227 255
206 227 255
206 227 255
206 227 255
206 227 255
206 227 255
206 227 255
206 227 255
206 227 255
206 227 255
206 227 255
206 227 255
205 227 255
205 227 255
205 227 255
205 227 255
205 227 255
205 227 255
205 227 255
205 227 255
205 227 255
205 227 255
205 226 255
205 226 255
205 226 255
205 226 255
205 226 255
205 226 255
205 226 255
204 226 255
204 226 255
204 226 255
204 226 255
204 226 255
204 226 255
204 226 255
204 226 255
204 226 255
204 226 255
204 226 255
204 226 255
204 226 255
204 226 255
204 226 255
204 226 255
204 226 255
203 226 255
203 226 255
203 226 255
203 226 255
203 226 255
203 226 255
203 225 255
203 225 255
203 225 255
203 225 255
203 225 255
203 225 255
203 225 255
203 225 255
203 225 255
202 225 255
202 225 255
202 225 255
202 225 255
202 225 255
202 225 255
202 225 255
202 225 255
202 225 255
202 225 255
202 225 255
202 225 255
202 225 255
202 225 255
202 225 255
201 225 255
201 225 255
201 225 255
201 225 255
201 224 255
201 224 255
201 224 255
201 224 255
201 224 255
201 224 255
201 224 255
201 224 255
201 224 255
201 224 255
201 224 255
200 224 255
200 224 255
200 224 255
200 224 255
200 224 255
200 224 255
200 224 255
200 224 255
200 224 255
200 224 255
200 224 255
200 224 255
200 224 255
200 224 255
199 224 255
199 224 255
199 224 255
199 223 255
199 223 255
199 223 255
199 223 255
199 223 255
199 223 255
199 223 255
199 223 255
199 223 255
199 223 255
199 223 255
199 223 255
199 223 255
198 223 255
198 223 255
198 223 255
198 223 255
198 223 255
198 223 255
198 223 255
198 223 255
198 223 255
198 223 255
198 223 255
198 223 255
198 223 255
198 223 255
198 223 255
198 223 255
198 223 255
197 223 255
197 222 255
197 222 255
197 222 255
197 222 255
197 222 255
197 222 255
197 222 255
197 222 255
197 222 255
197 222 255
197 222 255
197 222 255
197 222 255
197 222 255
197 222 255
197 222 255
197 222 255
197 222 255
197 222 255
197 222 255
197 222 255
197 222 255
197 222 255
196 222 255
196 222 255
196 222 255
196 222 255
196 222 255
196 222 255
196 222 255
196 222 255
196 222 255
196 222 255
196 222 255
196 222 255
196 222 255
196 222 255
196 222 255
196 222 255
196 222 255
196 222 255
196 222 255
196 222 255
196 222 255
196 222 255
196 222 255
196 222 255
196 222 255
196 222 255
196 222 255
196 222 255
196 222 255
196 222 255
196 222 255
196 222 255
196 222 255
196 222 255
196 222 255
196 222 255
196 222 255
196 222 255
196 222 255
196 222 255
196 222 255
196 222 255
196 222 255
196 222 255
196 222 255
196 222 255
196 222 255
196 222 255
196 222 255
196 222 255
196 222 255
196 222 255
197 222 255
197 222 255
197 222 255
197 222 255
197 222 255
197 222 255
197 222 255
197 222 255
197 222 255
197 222 255
197 222 255
197 222 255
197 222 255
197 222 255
197 222 255
197 222 255
197 222 255
197 222 255
197 222 255
197 222 255
197 222 255
197 222 255
197 222 255
197 223 255
198 223 255
198 223 255
198 223 255
198 223 255
198 223 255
198 223 255
198 223 255
198 223 255
198 223 255
198 223 255
198 223 255
198 223 255
198 223 255
198 223 255
198 223 255
198 223 255
198 223 255
199 223 255
199 223 255
199 223 255
199 223 255
199 223 255
199 223 255
199 223 255
199 223 255
199 223 255
199 223 255
199 223 255
199 223 255
199 223 255
199 224 255
199 224 255
199 224 255
200 224 255
200 224 255
200 224 255
200 224 255
200 224 255
200 224 255
200 224 255
200 224 255
200 224 255
200 224 255
200 224 255
200 224 255
200 224 255
200 224 255
201 224 255
201 224 255
201 224 255
201 224 255
201 224 255
201 224 255
201 224 255
201 224 255
201 224 255
201 224 255
201 224 255
201 225 255
201 225 255
201 225 255
201 225 255
202 225 255
202 225 255
202 225 255
202 225 255
202 225 255
202 225 255
202 225 255
202 225 255
202 225 255
202 225 255
202 225 255
202 225 255
202 225 255
202 225 255
202 225 255
203 225 255
203 225 255
203 225 255
203 225 255
203 225 255
203 225 255
203 225 255
203 225 255
203 226 255
203 226 255
203 226 255
203 226 255
203 226 255
203 226 255
203 226 255
204 226 255
204 226 255
204 226 255
204 226 255
204 226 255
204 226 255
204 226 255
204 226 255
204 226 255
204 226 255
204 226 255
204 226 255
204 226 255
204 226 255
204 226 255
204 226 255
204 226 255
205 226 255
205 226 255
205 226 255
205 226 255
205 226 255
205 226 255
205 226 255
205 227 255
205 227 255
205 227 255
205 227 255
205 227 255
205 227 255
205 227 255
205 227 255
205 227 255
205 227 255
206 227 255
206 227 255
206 227 255
206 227 255
206 227 255
206 227 255
206 227 255
206 227 255
206 227 255
206 227 255
206 227 255
206 227 255
206 227 255
206 227 255
206 227 255
206 227 255
206 227 255
206 227 255
206 227 255
207 227 255
207 227 255
207 227 255
207 227 255
207 227 255
207 228 255
207 228 255
207 227 255
207 227 255
207 227 255
207 227 255
207 227 255
206 227 255
206 227 255
206 227 255
206 227 255
206 227 255
206 227 255
206 227 255
206 227 255
206 227 255
206 227 255
206 227 255
206 227 255
206 227 255
206 227 255
206 227 255
206 227 255
206 227 255
206 227 255
206 227 255
205 227 255
205 227 255
205 227 255
205 227 255
205 227 255
205 227 255
205 227 255
205 227 255
205 227 255
205 227 255
205 227 255
205 226 255
205 226 255
205 226 255
205 226 255
205 226 255
205 226 255
205 226 255
204 226 255
204 226 255
204 226 255
204 226 255
204 226 255
204 226 255
204 226 255
204 226 255
204 226 255
204 226 255
204 226 255
204 226 255
204 226 255
204 226 255
204 226 255
204 226 255
203 226 255
203 226 255
203 226 255
203 226 255
203 226 255
203 226 255
203 226 255
203 225 255
203 225 255
203 225 255
203 225 255
203 225 255
203 225 255
203 225 255
203 225 255
203 225 255
202 225 255
202 225 255
202 225 255
202 225 255
202 225 255
202 225 255
202 225 255
202 225 255
202 225 255
202 225 255
202 225 255
202 225 255
202 225 255
202 225 255
201 225 255
201 225 255
201 225 255
201 225 255
201 225 255
201 224 255
201 224 255
201 224 255
201 224 255
201 224 255
201 224 255
201 224 255
201 224 255
201 224 255
201 224 255
200 224 255
200 224 255
200 224 255
200 224 255
200 224 255
200 224 255
200 224 255
200 224 255
200 224 255
200 224 255
200 224 255
200 224 255
200 224 255
200 224 255
200 224 255
199 224 255
199 224 255
199 223 255
199 223 255
199 223 255
199 223 255
199 223 255
199 223 255
199 223 255
199 223 255
199 223 255
199 223 255
199 223 255
199 223 255
199 223 255
198 223 255
198 223 255
198 223 255
198 223 255
198 223 255
198 223 255
198 223 255
198 223 255
198 223 255
198 223 255
198 223 255
198 223 255
198 223 255
198 223 255
198 223 255
198 223 255
198 223 255
198 223 255
198 223 255
197 222 255
197 222 255
197 222 255
197 222 255
197 222 255
197 222 255
197 222 255
197 222 255
197 222 255
197 222 255
197 222 255
197 222 255
197 222 255
197 222 255
197 222 255
197 222 255
197 222 255
197 222 255
197 222 255
197 222 255
197 222 255
197 222 255
197 222 255
197 222 255
197 222 255
197 222 255
196 222 255
196 222 255
196 222 255
196 222 255
196 222 255
196 222 255
196 222 255
196 222 255
196 222 255
196 222 255
196 222 255
196 222 255
196 222 255
196 222 255
196 222 255
196 222 255
196 222 255
196 222 255
196 222 255
196 222 255
196 222 255
196 222 255
196 222 255
196 222 255
196 222 255
196 222 255
196 222 255
196 222 255
196 222 255
196 222 255
196 222 255
196 222 255
196 222 255
196 222 255
196 222 255
196 222 255
196 222 255
196 222 255
196 222 255
196 222 255
197 222 255
197 222 255
197 222 255
197 222 255
197 222 255
197 222 255
197 222 255
197 222 255
197 222 255
197 222 255
197 222 255
197 222 255
197 222 255
197 222 255
197 222 255
197 222 255
197 222 255
197 222 255
197 222 255
197 222 255
197 222 255
197 222 255
197 222 255
197 222 255
197 222 255
197 222 255
198 223 255
198 223 255
198 223 255
198 223 255
198 223 255
198 223 255
198 223 255
198 223 255
198 223 255
198 223 255
198 223 255
198 223 255
198 223 255
198 223 255
198 223 255
198 223 255
198 223 255
198 223 255
199 223 255
199 223 255
199 223 255
199 223 255
199 223 255
199 223 255
199 223 255
199 223 255
199 223 255
199 223 255
199 223 255
199 223 255
199 223 255
199 223 255
199 224 255
199 224 255
200 224 255
200 224 255
200 224 255
200 224 255
200 224 255
200 224 255
200 224 255
200 224 255
200 224 255
200 224 255
200 224 255
200 224 255
200 224 255
200 224 255
200 224 255
201 224 255
201 224 255
201 224 255
201 224 255
201 224 255
201 224 255
201 224 255
201 224 255
201 224 255
201 224 255
201 225 255
201 225 255
201 225 255
201 225 255
201 225 255
202 225 255
202 225 255
202 225 255
202 225 255
202 225 255
202 225 255
202 225 255
202 225 255
202 225 255
202 225 255
202 225 255
202 225 255
202 225 255
202 225 255
202 225 255
203 225 255
203 225 255
203 225 255
203 225 255
203 225 255
203 225 255
203 225 255
203 225 255
203 226 255
203 226 255
203 226 255
203 226 255
203 226 255
203 226 255
203 226 255
204 226 255
204 226 255
204 226 255
204 226 255
204 226 255
204 226 255
204 226 255
204 226 255
204 226 255
204 226 255
204 226 255
204 226 255
204 226 255
204 226 255
204 226 255
204 226 255
205 226 255
205 226 255
205 226 255
205 226 255
205 226 255
205 226 255
205 226 255
205 227 255
205 227 255
205 227 255
205 227 255
205 227 255
205 227 255
205 227 255
205 227 255
205 227 255
205 227 255
205 227 255
206 227 255
206 227 255
206 227 255
206 227 255
206 227 255
206 227 255
206 227 255
206 227 255
206 227 255
206 227 255
206 227 255
206 227 255
206 227 255
206 227 255
206 227 255
206 227 255
206 227 255
206 227 255
206 227 255
207 227 255
207 227 255
207 227 255
207 227 255
207 227 255
207 228 255
207 228 255
207 228 255
207 228 255
207 228 255
207 228 255
207 228 255
207 227 255
207 227 255
207 227 255
207 227 255
207 227 255
206 227 255
206 227 255
206 227 255
206 227 255
206 227 255
206 227 255
206 227 255
206 227 255
206 227 255
206 227 255
206 227 255
206 227 255
206 227 255
206 227 255
206 227 255
206 227 255
206 227 255
206 227 255
206 227 255
205 227 255
205 227 255
205 227 255
205 227 255
205 227 255
205 227 255
205 227 255
205 227 255
205 227 255
205 227 255
205 226 255
205 226 255
205 226 255
205 226 255
205 226 255
205 226 255
205 226 255
204 226 255
204 226 255
204 226 255
204 226 255
204 226 255
204 226 255
204 226 255
204 226 255
204 226 255
204 226 255
204 226 255
204 226 255
204 226 255
204 226 255
204 226 255
204 226 255
204 226 255
203 226 255
203 226 255
203 226 255
203 226 255
203 226 255
203 226 255
203 225 255
203 225 255
203 225 255
203 225 255
203 225 255
203 225 255
203 225 255
203 225 255
203 225 255
202 225 255
202 225 255
202 225 255
202 225 255
202 225 255
202 225 255
202 225 255
202 225 255
202 225 255
202 225 255
202 225 255
202 225 255
202 225 255
202 225 255
202 225 255
201 225 255
201 225 255
201 225 255
201 225 255
201 224 255
201 224 255
201 224 255
201 224 255
201 224 255
201 224 255
201 224 255
201 224 255
201 224 255
201 224 255
200 224 255
200 224 255
200 224 255
200 224 255
200 224 255
200 224 255
200 224 255
200 224 255
200 224 255
200 224 255
200 224 255
200 224 255
200 224 255
200 224 255
200 224 255
199 224 255
199 224 255
199 224 255
199 223 255
199 223 255
199 223 255
199 223 255
199 223 255
199 223 255
199 223 255
199 223 255
199 223 255
199 223 255
199 223 255
199 223 255
199 223 255
199 223 255
198 223 255
198 223 255
198 223 255
198 223 255
198 223 255
198 223 255
198 223 255
198 223 255
198 223 255
198 223 255
198 223 255
198 223 255
198 223 255
198 223 255
198 223 255
198 223 255
198 223 255
198 223 255
197 223 255
197 222 255
197 222 255
197 222 255
197 222 255
197 222 255
197 222 255
197 222 255
197 222 255
197 222 255
197 222 255
197 222 255
197 222 255
197 222 255
197 222 255
197 222 255
197 222 255
197 222 255
197 222 255
197 222 255
197 222 255
197 222 255
197 222 255
197 222 255
197 222 255
197 222 255
197 222 255
197 222 255
197 222 255
197 222 255
197 222 255
197 222 255
196 222 255
196 222 255
196 222 255
196 222 255
196 222 255
196 222 255
196 222 255
196 222 255
196 222 255
196 222 255
196 222 255
196 222 255
196 222 255
196 222 255
196 222 255
196 222 255
196 222 255
196 222 255
196 222 255
196 222 255
196 222 255
197 222 255
197 222 255
197 222 255
197 222 255
197 222 255
197 222 255
197 222 255
197 222 255
197 222 255
197 222 255
197 222 255
197 222 255
197 222 255
197 222 255
197 222 255
197 222 255
197 222 255
197 222 255
197 222 255
197 222 255
197 222 255
197 222 255
197 222 255
197 222 255
197 222 255
197 222 255
197 222 255
197 222 255
197 222 255
197 222 255
197 222 255
197 222 255
197 223 255
198 223 255
198 223 255
198 223 255
198 223 255
198 223 255
198 223 255
198 223 255
198 223 255
198 223 255
198 223 255
198 223 255
198 223 255
198 223 255
198 223 255
198 223 255
198 223 255
198 223 255
198 223 255
198 223 255
199 223 255
199 223 255
199 223 255
199 223 255
199 223 255
199 223 255
199 223 255
199 223 255
199 223 255
199 223 255
199 223 255
199 223 255
199 223 255
199 224 255
199 224 255
200 224 255
200 224 255
200 224 255
200 224 255
200 224 255
200 224 255
200 224 255
200 224 255
200 224 255
200 224 255
200 224 255
200 224 255
200 224 255
200 224 255
200 224 255
201 224 255
201 224 255
201 224 255
201 224 255
201 224 255
201 224 255
201 224 255
201 224 255
201 224 255
201 224 255
201 224 255
201 225 255
201 225 255
201 225 255
201 225 255
202 225 255
202 225 255
202 225 255
202 225 255
202 225 255
202 225 255
202 225 255
202 225 255
202 225 255
202 225 255
202 225 255
202 225 255
202 225 255
202 225 255
202 225 255
203 225 255
203 225 255
203 225 255
203 225 255
203 225 255
203 225 255
203 225 255
203 225 255
203 225 255
203 226 255
203 226 255
203 226 255
203 226 255
203 226 255
203 226 255
204 226 255
204 226 255
204 226 255
204 226 255
204 226 255
204 226 255
204 226 255
204 226 255
204 226 255
204 226 255
204 226 255
204 226 255
204 226 255
204 226 255
204 226 255
204 226 255
204 226 255
205 226 255
205 226 255
205 226 255
205 226 255
205 226 255
205 226 255
205 227 255
205 227 255
205 227 255
205 227 255
205 227 255
205 227 255
205 227 255
205 227 255
205 227 255
205 227 255
205 227 255
206 227 255
206 227 255
206 227 255
206 227 255
206 227 255
206 227 255
206 227 255
206 227 255
206 227 255
206 227 255
206 227 255
206 227 255
206 227 255
206 227 255
206 227 255
206 227 255
206 227 255
206 227 255
206 227 255
207 227 255
207 227 255
207 227 255
207 227 255
207 227 255
207 228 255
207 228 255
207 228 255
207 228 255
207 228 255
207 228 255
207 228 255
207 228 255
207 228 255
207 228 255
207 228 255
207 228 255
207 228 255
207 227 255
207 227 255
207 227 255
207 227 255
207 227 255
206 227 255
206 227 255
206 227 255
206 227 255
206 227 255
206 227 255
206 227 255
206 227 255
206 227 255
206 227 255
206 227 255
206 227 255
206 227 255
206 227 255
206 227 255
206 227 255
206 227 255
206 227 255
206 227 255
205 227 255
205 227 255
205 227 255
205 227 255
205 227 255
205 227 255
205 227 255
205 227 255
205 227 255
205 227 255
205 226 255
205 226 255
205 226 255
205 226 255
205 226 255
205 226 255
205 226 255
204 226 255
204 226 255
204 226 255
204 226 255
204 226 255
204 226 255
204 226 255
204 226 255
204 226 255
204 226 255
204 226 255
204 226 255
204 226 255
204 226 255
204 226 255
204 226 255
203 226 255
203 226 255
203 226 255
203 226 255
203 226 255
203 226 255
203 226 255
203 225 255
203 225 255
203 225 255
203 225 255
203 225 255
203 225 255
203 225 255
203 225 255
203 225 255
202 225 255
202 225 255
202 225 255
202 225 255
202 225 255
202 225 255
202 225 255
202 225 255
202 225 255
202 225 255
202 225 255
202 225 255
202 225 255
202 225 255
201 225 255
201 225 255
201 225 255
201 225 255
201 225 255
201 224 255
201 224 255
201 224 255
201 224 255
201 224 255
201 224 255
201 224 255
201 224 255
201 224 255
201 224 255
200 224 255
200 224 255
200 224 255
200 224 255
200 224 255
200 224 255
200 224 255
200 224 255
200 224 255
200 224 255
200 224 255
200 224 255
200 224 255
200 224 255
200 224 255
199 224 255
199 224 255
199 224 255
199 223 255
199 223 255
199 223 255
199 223 255
199 223 255
199 223 255
199 223 255
199 223 255
199 223 255
199 223 255
199 223 255
199 223 255
199 223 255
198 223 255
198 223 255
198 223 255
198 223 255
198 223 255
198 223 255
198 223 255
198 223 255
198 223 255
198 223 255
198 223 255
198 223 255
198 223 255
198 223 255
198 223 255
198 223 255
198 223 255
198 223 255
198 223 255
198 223 255
197 223 255
197 222 255
197 222 255
197 222 255
197 222 255
197 222 255
197 222 255
197 222 255
197 222 255
197 222 255
197 222 255
197 222 255
197 222 255
197 222 255
197 222 255
197 222 255
197 222 255
197 222 255
197 222 255
197 222 255
197 222 255
197 222 255
197 222 255
197 222 255
197 222 255
197 222 255
197 222 255
197 222 255
197 222 255
197 222 255
197 222 255
197 222 255
197 222 255
197 222 255
197 222 255
197 222 255
197 222 255
197 222 255
197 222 255
197 222 255
197 222 255
197 222 255
197 222 255
197 222 255
197 222 255
197 222 255
197 222 255
197 222 255
197 222 255
197 222 255
197 222 255
197 222 255
197 222 255
197 222 255
197 222 255
197 222 255
197 222 255
197 222 255
197 222 255
197 222 255
197 222 255
197 222 255
197 222 255
197 222 255
197 222 255
197 222 255
197 222 255
197 222 255
197 222 255
197 222 255
197 222 255
197 222 255
197 222 255
197 222 255
197 222 255
197 222 255
197 222 255
197 223 255
198 223 255
198 223 255
198 223 255
198 223 255
198 223 255
198 223 255
198 223 255
198 223 255
198 223 255
198 223 255
198 223 255
198 223 255
198 223 255
198 223 255
198 223 255
198 223 255
198 223 255
198 223 255
198 223 255
199 223 255
199 223 255
199 223 255
199 223 255
199 223 255
199 223 255
199 223 255
199 223 255
199 223 255
199 223 255
199 223 255
199 223 255
199 223 255
199 223 255
199 224 255
199 224 255
199 224 255
200 224 255
200 224 255
200 224 255
200 224 255
200 224 255
200 224 255
200 224 255
200 224 255
200 224 255
200 224 255
200 224 255
200 224 255
200 224 255
200 224 255
200 224 255
201 224 255
201 224 255
201 224 255
201 224 255
201 224 255
201 224 255
201 224 255
201 224 255
201 224 255
201 224 255
201 224 255
201 225 255
201 225 255
201 225 255
201 225 255
202 225 255
202 225 255
202 225 255
202 225 255
202 225 255
202 225 255
202 225 255
202 225 255
202 225 255
202 225 255
202 225 255
202 225 255
202 225 255
202 225 255
202 225 255
203 225 255
203 225 255
203 225 255
203 225 255
203 225 255
203 225 255
203 225 255
203 225 255
203 226 255
203 226 255
203 226 255
203 226 255
203 226 255
203 226 255
203 226 255
204 226 255
204 226 255
204 226 255
204 226 255
204 226 255
204 226 255
204 226 255
204 226 255
204 226 255
204 226 255
204 226 255
204 226 255
204 226 255
204 226 255
204 226 255
204 226 255
205 226 255
205 226 255
205 226 255
205 226 255
205 226 255
205 226 255
205 226 255
205 227 255
205 227 255
205 227 255
205 227 255
205 227 255
205 227 255
205 227 255
205 227 255
205 227 255
205 227 255
206 227 255
206 227 255
206 227 255
206 227 255
206 227 255
206 227 255
206 227 255
206 227 255
206 227 255
206 227 255
206 227 255
206 227 255
206 227 255
206 227 255
206 227 255
206 227 255
206 227 255
206 227 255
206 227 255
207 227 255
207 227 255
207 227 255
207 227 255
207 227 255
207 228 255
207 228 255
207 228 255
207 228 255
207 228 255
207 228 255
207 228 255
207 228 255
207 228 255
207 228 255
207 228 255
207 228 255
207 228 255
207 228 255
207 228 255
207 228 255
207 228 255
207 228 255
207 228 255
207 227 255
207 227 255
207 227 255
207 227 255
207 227 255
206 227 255
206 227 255
206 227 255
206 227 255
206 227 255
206 227 255
206 227 255
206 227 255
206 227 255
206 227 255
206 227 255
206 227 255
206 227 255
206 227 255
206 227 255
206 227 255
206 227 255
206 227 255
205 227 255
205 227 255
205 227 255
205 227 255
205 227 255
205 227 255
205 227 255
205 227 255
205 227 255
205 227 255
205 227 255
205 226 255
205 226 255
205 226 255
205 226 255
205 226 255
205 226 255
205 226 255
204 226 255
204 226 255
204 226 255
204 226 255
204 226 255
204 226 255
204 226 255
204 226 255
204 226 255
204 226 255
204 226 255
204 226 255
204 226 255
204 226 255
204 226 255
204 226 255
203 226 255
203 226 255
203 226 255
203 226 255
203 226 255
203 226 255
203 225 255
203 225 255
203 225 255
203 225 255
203 225 255
203 225 255
203 225 255
203 225 255
203 225 255
202 225 255
202 225 255
202 225 255
202 225 255
202 225 255
202 225 255
202 225 255
202 225 255
202 225 255
202 225 255
202 225 255
202 225 255
202 225 255
202 225 255
202 225 255
201 225 255
201 225 255
201 225 255
201 225 255
201 224 255
201 224 255
201 224 255
201 224 255
201 224 255
201 224 255
201 224 255
201 224 255
201 224 255
201 224 255
201 224 255
200 224 255
200 224 255
200 224 255
200 224 255
200 224 255
200 224 255
200 224 255
200 224 255
200 224 255
200 224 255
200 224 255
200 224 255
200 224 255
200 224 255
200 224 255
199 224 255
199 224 255
199 223 255
199 223 255
199 223 255
199 223 255
199 223 255
199 223 255
199 223 255
199 223 255
199 223 255
199 223 255
199 223 255
199 223 255
199 223 255
199 223 255
198 223 255
198 223 255
198 223 255
198 223 255
198 223 255
198 223 255
198 223 255
198 223 255
198 223 255
198 223 255
198 223 255
198 223 255
198 223 255
198 223 255
198 223 255
198 223 255
198 223 255
198 223 255
198 223 255
198 223 255
198 223 255
197 223 255
197 222 255
197 222 255
197 222 255
197 222 255
197 222 255
197 222 255
197 222 255
197 222 255
197 222 255
197 222 255
197 222 255
197 222 255
197 222 255
197 222 255
197 222 255
197 222 255
197 222 255
197 222 255
197 222 255
197 222 255
197 222 255
197 222 255
197 222 255
197 222 255
197 222 255
197 222 255
197 222 255
197 222 255
197 222 255
197 222 255
197 222 255
197 222 255
197 222 255
197 222 255
197 222 255
197 222 255
197 222 255
197 222 255
197 222 255
197 222 255
197 222 255
197 222 255
197 222 255
197 222 255
197 222 255
197 222 255
197 222 255
197 222 255
197 222 255
197 222 255
197 222 255
197 222 255
197 222 255
197 222 255
197 222 255
197 222 255
197 222 255
197 222 255
197 222 255
197 222 255
197 222 255
197 222 255
197 222 255
197 222 255
197 222 255
197 222 255
197 222 255
197 222 255
197 223 255
198 223 255
198 223 255
198 223 255
198 223 255
198 223 255
198 223 255
198 223 255
198 223 255
198 223 255
198 223 255
198 223 255
198 223 255
198 223 255
198 223 255
198 223 255
198 223 255
198 223 255
198 223 255
198 223 255
198 223 255
198 223 255
199 223 255
199 223 255
199 223 255
199 223 255
199 223 255
199 223 255
199 223 255
199 223 255
199 223 255
199 223 255
199 223 255
199 223 255
199 223 255
199 223 255
199 224 255
199 224 255
200 224 255
200 224 255
200 224 255
200 224 255
200 224 255
200 224 255
200 224 255
200 224 255
200 224 255
200 224 255
200 224 255
200 224 255
200 224 255
200 224 255
200 224 255
201 224 255
201 224 255
201 224 255
201 224 255
201 224 255
201 224 255
201 224 255
201 224 255
201 224 255
201 224 255
201 224 255
201 225 255
201 225 255
201 225 255
201 225 255
202 225 255
202 225 255
202 225 255
202 225 255
202 225 255
202 225 255
202 225 255
202 225 255
202 225 255
202 225 255
202 225 255
202 225 255
202 225 255
202 225 255
202 225 255
203 225 255
203 225 255
203 225 255
203 225 255
203 225 255
203 225 255
203 225 255
203 225 255
203 225 255
203 226 255
203 226 255
203 226 255
203 226 255
203 226 255
203 226 255
204 226 255
204 226 255
204 226 255
204 226 255
204 226 255
204 226 255
204 226 255
204 226 255
204 226 255
204 226 255
204 226 255
204 226 255
204 226 255
204 226 255
204 226 255
204 226 255
205 226 255
205 226 255
205 226 255
205 226 255
205 226 255
205 226 255
205 226 255
205 227 255
205 227 255
205 227 255
205 227 255
205 227 255
205 227 255
205 227 255
205 227 255
205 227 255
205 227 255
205 227 255
206 227 255
206 227 255
206 227 255
206 227 255
206 227 255
206 227 255
206 227 255
206 227 255
206 227 255
206 227 255
206 227 255
206 227 255
206 227 255
206 227 255
206 227 255
206 227 255
206 227 255
206 227 255
207 227 255
207 227 255
207 227 255
207 227 255
207 227 255
207 228 255
207 228 255
207 228 255
207 228 255
207 228 255
207 228 255
207 228 255
207 228 255
207 228 255
207 228 255
207 228 255
207 228 255
207 228 255
207 228 255
207 228 255
207 228 255
207 228 255
207 228 255
207 228 255
207 228 255
207 228 255
207 228 255
207 228 255
207 228 255
207 228 255
207 227 255
207 227 255
207 227 255
207 227 255
206 227 255
206 227 255
206 227 255
206 227 255
206 227 255
206 227 255
206 227 255
206 227 255
206 227 255
206 227 255
206 227 255
206 227 255
206 227 255
206 227 255
206 227 255
206 227 255
206 227 255
206 227 255
206 227 255
205 227 255
205 227 255
205 227 255
205 227 255
205 227 255
205 227 255
205 227 255
205 227 255
205 227 255
205 227 255
205 226 255
205 226 255
205 226 255
205 226 255
205 226 255
205 226 255
205 226 255
204 226 255
204 226 255
204 226 255
204 226 255
204 226 255
204 226 255
204 226 255
204 226 255
204 226 255
204 226 255
204 226 255
204 226 255
204 226 255
204 226 255
204 226 255
204 226 255
203 226 255
203 226 255
203 226 255
203 226 255
203 226 255
203 226 255
203 226 255
203 225 255
203 225 255
203 225 255
203 225 255
203 225 255
203 225 255
203 225 255
203 225 255
202 225 255
202 225 255
202 225 255
202 225 255
202 225 255
202 225 255
202 225 255
202 225 255
202 225 255
202 225 255
202 225 255
202 225 255
202 225 255
202 225 255
202 225 255
201 225 255
201 225 255
201 225 255
201 225 255
201 225 255
201 224 255
201 224 255
201 224 255
201 224 255
201 224 255
201 224 255
201 224 255
201 224 255
201 224 255
201 224 255
200 224 255
200 224 255
200 224 255
200 224 255
200 224 255
200 224 255
200 224 255
200 224 255
200 224 255
200 224 255
200 224 255
200 224 255
200 224 255
200 224 255
200 224 255
200 224 255
199 224 255
199 224 255
199 223 255
199 223 255
199 223 255
199 223 255
199 223 255
199 223 255
199 223 255
199 223 255
199 223 255
199 223 255
199 223 255
199 223 255
199 223 255
199 223 255
199 223 255
198 223 255
198 223 255
198 223 255
198 223 255
198 223 255
198 223 255
198 223 255
198 223 255
198 223 255
198 223 255
198 223 255
198 223 255
198 223 255
198 223 255
198 223 255
198 223 255
198 223 255
198 223 255
198 223 255
198 223 255
198 223 255
198 223 255
197 223 255
197 222 255
197 222 255
197 222 255
197 222 255
197 222 255
197 222 255
197 222 255
197 222 255
197 222 255
197 222 255
197 222 255
197 222 255
197 222 255
197 222 255
197 222 255
197 222 255
197 222 255
197 222 255
197 222 255
197 222 255
197 222 255
197 222 255
197 222 255
197 222 255
197 222 255
197 222 255
197 222 255
197 222 255
197 222 255
197 222 255
197 222 255
197 222 255
197 222 255
197 222 255
197 222 255
197 222 255
197 222 255
197 222 255
197 222 255
197 222 255
197 222 255
197 222 255
197 222 255
197 222 255
197 222 255
197 222 255
197 222 255
197 222 255
197 222 255
197 222 255
197 222 255
197 222 255
197 222 255
197 222 255
197 222 255
197 222 255
197 222 255
197 222 255
197 223 255
198 223 255
198 223 255
198 223 255
198 223 255
198 223 255
198 223 255
198 223 255
198 223 255
198 223 255
198 223 255
198 223 255
198 223 255
198 223 255
198 223 255
198 223 255
198 223 255
198 223 255
198 223 255
198 223 255
198 223 255
198 223 255
198 223 255
199 223 255
199 223 255
199 223 255
199 223 255
199 223 255
199 223 255
199 223 255
199 223 255
199 223 255
199 223 255
199 223 255
199 223 255
199 223 255
199 223 255
199 223 255
199 224 255
199 224 255
200 224 255
200 224 255
200 224 255
200 224 255
200 224 255
200 224 255
200 224 255
200 224 255
200 224 255
200 224 255
200 224 255
200 224 255
200 224 255
200 224 255
200 224 255
200 224 255
201 224 255
201 224 255
201 224 255
201 224 255
201 224 255
201 224 255
201 224 255
201 224 255
201 224 255
201 224 255
201 225 255
201 225 255
201 225 255
201 225 255
201 225 255
202 225 255
202 225 255
202 225 255
202 225 255
202 225 255
202 225 255
202 225 255
202 225 255
202 225 255
202 225 255
202 225 255
202 225 255
202 225 255
202 225 255
202 225 255
203 225 255
203 225 255
203 225 255
203 225 255
203 225 255
203 225 255
203 225 255
203 225 255
203 226 255
203 226 255
203 226 255
203 226 255
203 226 255
203 226 255
203 226 255
204 226 255
204 226 255
204 226 255
204 226 255
204 226 255
204 226 255
204 226 255
204 226 255
204 226 255
204 226 255
204 226 255
204 226 255
204 226 255
204 226 255
204 226 255
204 226 255
205 226 255
205 226 255
205 226 255
205 226 255
205 226 255
205 226 255
205 226 255
205 227 255
205 227 255
205 227 255
205 227 255
205 227 255
205 227 255
205 227 255
205 227 255
205 227 255
205 227 255
206 227 255
206 227 255
206 227 255
206 227 255
206 227 255
206 227 255
206 227 255
206 227 255
206 227 255
206 227 255
206 227 255
206 227 255
206 227 255
206 227 255
206 227 255
206 227 255
206 227 255
206 227 255
206 227 255
207 227 255
207 227 255
207 227 255
207 227 255
207 228 255
207 228 255
207 228 255
207 228 255
207 228 255
207 228 255
207 228 255
207 228 255
207 228 255
207 228 255
207 228 255
207 228 255
207 228 255
207 228 255
208 228 255
207 228 255
207 228 255
207 228 255
207 228 255
207 228 255
207 228 255
207 228 255
207 228 255
207 228 255
207 228 255
207 228 255
207 228 255
207 228 255
207 228 255
207 228 255
207 228 255
207 227 255
207 227 255
207 227 255
207 227 255
206 227 255
206 227 255
206 227 255
206 227 255
206 227 255
206 227 255
206 227 255
206 227 255
206 227 255
206 227 255
206 227 255
206 227 255
206 227 255
206 227 255
206 227 255
206 227 255
206 227 255
206 227 255
206 227 255
205 227 255
205 227 255
205 227 255
205 227 255
205 227 255
205 227 255
205 227 255
205 227 255
205 227 255
205 227 255
205 226 255
205 226 255
205 226 255
205 226 255
205 226 255
205 226 255
205 226 255
204 226 255
204 226 255
204 226 255
204 226 255
204 226 255
204 226 255
204 226 255
204 226 255
204 226 255
204 226 255
204 226 255
204 226 255
204 226 255
204 226 255
204 226 255
204 226 255
203 226 255
203 226 255
203 226 255
203 226 255
203 226 255
203 226 255
203 226 255
203 225 255
203 225 255
203 225 255
203 225 255
203 225 255
203 225 255
203 225 255
203 225 255
202 225 255
202 225 255
202 225 255
202 225 255
202 225 255
202 225 255
202 225 255
202 225 255
202 225 255
202 225 255
202 225 255
202 225 255
202 225 255
202 225 255
202 225 255
201 225 255
201 225 255
201 225 255
201 225 255
201 224 255
201 224 255
201 224 255
201 224 255
201 224 255
201 224 255
201 224 255
201 224 255
201 224 255
201 224 255
201 224 255
200 224 255
200 224 255
200 224 255
200 224 255
200 224 255
200 224 255
200 224 255
200 224 255
200 224 255
200 224 255
200 224 255
200 224 255
200 224 255
200 224 255
200 224 255
199 224 255
199 224 255
199 224 255
199 223 255
199 223 255
199 223 255
199 223 255
199 223 255
199 223 255
199 223 255
199 223 255
199 223 255
199 223 255
199 223 255
199 223 255
199 223 255
199 223 255
199 223 255
198 223 255
198 223 255
198 223 255
198 223 255
198 223 255
198 223 255
198 223 255
198 223 255
198 223 255
198 223 255
198 223 255
198 223 255
198 223 255
198 223 255
198 223 255
198 223 255
198 223 255
198 223 255
198 223 255
198 223 255
198 223 255
198 223 255
198 223 255
198 223 255
198 223 255
197 223 255
197 222 255
197 222 255
197 222 255
197 222 255
197 222 255
197 222 255
197 222 255
197 222 255
197 222 255
197 222 255
197 222 255
197 222 255
197 222 255
197 222 255
197 222 255
197 222 255
197 222 255
197 222 255
197 222 255
197 222 255
197 222 255
197 222 255
197 222 255
197 222 255
197 222 255
197 222 255
197 222 255
197 222 255
197 222 255
197 222 255
197 222 255
197 222 255
197 222 255
197 222 255
197 222 255
197 222 255
197 222 255
197 222 255
197 222 255
197 222 255
197 222 255
197 222 255
197 222 255
197 222 255
197 222 255
197 222 255
197 223 255
197 223 255
198 223 255
198 223 255
198 223 255
198 223 255
198 223 255
198 223 255
198 223 255
198 223 255
198 223 255
198 223 255
198 223 255
198 223 255
198 223 255
198 223 255
198 223 255
198 223 255
198 223 255
198 223 255
198 223 255
198 223 255
198 223 255
198 223 255
198 223 255
198 223 255
199 223 255
199 223 255
199 223 255
199 223 255
199 223 255
199 223 255
199 223 255
199 223 255
199 223 255
199 223 255
199 223 255
199 223 255
199 223 255
199 223 255
199 223 255
199 224 255
199 224 255
199 224 255
200 224 255
200 224 255
200 224 255
200 224 255
200 224 255
200 224 255
200 224 255
200 224 255
200 224 255
200 224 255
200 224 255
200 224 255
200 224 255
200 224 255
200 224 255
201 224 255
201 224 255
201 224 255
201 224 255
201 224 255
201 224 255
201 224 255
201 224 255
201 224 255
201 224 255
201 224 255
201 225 255
201 225 255
201 225 255
201 225 255
202 225 255
202 225 255
202 225 255
202 225 255
202 225 255
202 225 255
202 225 255
202 225 255
202 225 255
202 225 255
202 225 255
202 225 255
202 225 255
202 225 255
202 225 255
203 225 255
203 225 255
203 225 255
203 225 255
203 225 255
203 225 255
203 225 255
203 225 255
203 226 255
203 226 255
203 226 255
203 226 255
203 226 255
203 226 255
203 226 255
204 226 255
204 226 255
204 226 255
204 226 255
204 226 255
204 226 255
204 226 255
204 226 255
204 226 255
204 226 255
204 226 255
204 226 255
204 226 255
204 226 255
204 226 255
204 226 255
205 226 255
205 226 255
205 226 255
205 226 255
205 226 255
205 226 255
205 226 255
205 227 255
205 227 255
205 227 255
205 227 255
205 227 255
205 227 255
205 227 255
205 227 255
205 227 255
205 227 255
206 227 255
206 227 255
206 227 255
206 227 255
206 227 255
206 227 255
206 227 255
206 227 255
206 227 255
206 227 255
206 227 255
206 227 255
206 227 255
206 227 255
206 227 255
206 227 255
206 227 255
206 227 255
206 227 255
207 227 255
207 227 255
207 227 255
207 227 255
207 228 255
207 228 255
207 228 255
207 228 255
207 228 255
207 228 255
207 228 255
207 228 255
207 228 255
207 228 255
207 228 255
207 228 255
207 228 255
207 228 255
207 228 255
207 228 255
208 228 255
208 228 255
208 228 255
208 228 255
208 228 255
207 228 255
207 228 255
207 228 255
207 228 255
207 228 255
207 228 255
207 228 255
207 228 255
207 228 255
207 228 255
207 228 255
207 228 255
207 228 255
207 228 255
207 228 255
207 228 255
207 227 255
207 227 255
207 227 255
207 227 255
206 227 255
206 227 255
206 227 255
206 227 255
206 227 255
206 227 255
206 227 255
206 227 255
206 227 255
206 227 255
206 227 255
206 227 255
206 227 255
206 227 255
206 227 255
206 227 255
206 227 255
206 227 255
205 227 255
205 227 255
205 227 255
205 227 255
205 227 255
205 227 255
205 227 255
205 227 255
205 227 255
205 227 255
205 227 255
205 226 255
205 226 255
205 226 255
205 226 255
205 226 255
205 226 255
204 226 255
204 226 255
204 226 255
204 226 255
204 226 255
204 226 255
204 226 255
204 226 255
204 226 255
204 226 255
204 226 255
204 226 255
204 226 255
204 226 255
204 226 255
204 226 255
203 226 255
203 226 255
203 226 255
203 226 255
203 226 255
203 226 255
203 226 255
203 225 255
203 225 255
203 225 255
203 225 255
203 225 255
203 225 255
203 225 255
203 225 255
202 225 255
202 225 255
202 225 255
202 225 255
202 225 255
202 225 255
202 225 255
202 225 255
202 225 255
202 225 255
202 225 255
202 225 255
202 225 255
202 225 255
202 225 255
202 225 255
201 225 255
201 225 255
201 225 255
201 225 255
201 224 255
201 224 255
201 224 255
201 224 255
201 224 255
201 224 255
201 224 255
201 224 255
201 224 255
201 224 255
201 224 255
200 224 255
200 224 255
200 224 255
200 224 255
200 224 255
200 224 255
200 224 255
200 224 255
200 224 255
200 224 255
200 224 255
200 224 255
200 224 255
200 224 255
200 224 255
199 224 255
199 224 255
199 224 255
199 223 255
199 223 255
199 223 255
199 223 255
199 223 255
199 223 255
199 223 255
199 223 255
199 223 255
199 223 255
199 223 255
199 223 255
199 223 255
199 223 255
199 223 255
199 223 255
198 223 255
198 223 255
198 223 255
198 223 255
198 223 255
198 223 255
198 223 255
198 223 255
198 223 255
198 223 255
198 223 255
198 223 255
198 223 255
198 223 255
198 223 255
198 223 255
198 223 255
198 223 255
198 223 255
198 223 255
198 223 255
198 223 255
198 223 255
198 223 255
198 223 255
198 223 255
198 223 255
197 223 255
197 223 255
197 223 255
197 222 255
197 222 255
197 222 255
197 222 255
197 222 255
197 222 255
197 222 255
197 222 255
197 222 255
197 222 255
197 222 255
197 222 255
197 222 255
197 222 255
197 222 255
197 222 255
197 222 255
197 222 255
197 222 255
197 222 255
197 222 255
197 222 255
197 222 255
197 222 255
197 222 255
197 222 255
197 222 255
197 222 255
197 222 255
197 222 255
197 223 255
197 223 255
198 223 255
198 223 255
198 223 255
198 223 255
198 223 255
198 223 255
198 223 255
198 223 255
198 223 255
198 223 255
198 223 255
198 223 255
198 223 255
198 223 255
198 223 255
198 223 255
198 223 255
198 223 255
198 223 255
198 223 255
198 223 255
198 223 255
198 223 255
198 223 255
198 223 255
198 223 255
198 223 255
198 223 255
199 223 255
199 223 255
199 223 255
199 223 255
199 223 255
199 223 255
199 223 255
199 223 255
199 223 255
199 223 255
199 223 255
199 223 255
199 223 255
199 223 255
199 223 255
199 223 255
199 224 255
199 224 255
199 224 255
200 224 255
200 224 255
200 224 255
200 224 255
200 224 255
200 224 255
200 224 255
200 224 255
200 224 255
200 224 255
200 224 255
200 224 255
200 224 255
200 224 255
200 224 255
201 224 255
201 224 255
201 224 255
201 224 255
201 224 255
201 224 255
201 224 255
201 224 255
201 224 255
201 224 255
201 224 255
201 225 255
201 225 255
201 225 255
201 225 255
201 225 255
202 225 255
202 225 255
202 225 255
202 225 255
202 225 255
202 225 255
202 225 255
202 225 255
202 225 255
202 225 255
202 225 255
202 225 255
202 225 255
202 225 255
202 225 255
203 225 255
203 225 255
203 225 255
203 225 255
203 225 255
203 225 255
203 225 255
203 225 255
203 226 255
203 226 255
203 226 255
203 226 255
203 226 255
203 226 255
203 226 255
204 226 255
204 226 255
204 226 255
204 226 255
204 226 255
204 226 255
204 226 255
204 226 255
204 226 255
204 226 255
204 226 255
204 226 255
204 226 255
204 226 255
204 226 255
204 226 255
205 226 255
205 226 255
205 226 255
205 226 255
205 226 255
205 226 255
205 227 255
205 227 255
205 227 255
205 227 255
205 227 255
205 227 255
205 227 255
205 227 255
205 227 255
205 227 255
205 227 255
206 227 255
206 227 255
206 227 255
206 227 255
206 227 255
206 227 255
206 227 255
206 227 255
206 227 255
206 227 255
206 227 255
206 227 255
206 227 255
206 227 255
206 227 255
206 227 255
206 227 255
206 227 255
207 227 255
207 227 255
207 227 255
207 227 255
207 228 255
207 228 255
207 228 255
207 228 255
207 228 255
207 228 255
207 228 255
207 228 255
207 228 255
207 228 255
207 228 255
207 228 255
207 228 255
207 228 255
207 228 255
207 228 255
208 228 255
208 228 255
208 228 255
208 228 255
208 228 255
208 228 255
208 228 255
208 228 255
208 228 255
208 228 255
208 228 255
207 228 255
207 228 255
207 228 255
207 228 255
207 228 255
207 228 255
207 228 255
207 228 255
207 228 255
207 228 255
207 228 255
207 228 255
207 228 255
207 228 255
207 228 255
207 227 255
207 227 255
207 227 255
207 227 255
207 227 255
206 227 255
206 227 255
206 227 255
206 227 255
206 227 255
206 227 255
206 227 255
206 227 255
206 227 255
206 227 255
206 227 255
206 227 255
206 227 255
206 227 255
206 227 255
206 227 255
206 227 255
206 227 255
205 227 255
205 227 255
205 227 255
205 227 255
205 227 255
205 227 255
205 227 255
205 227 255
205 227 255
205 227 255
205 226 255
205 226 255
205 226 255
205 226 255
205 226 255
205 226 255
205 226 255
204 226 255
204 226 255
204 226 255
204 226 255
204 226 255
204 226 255
204 226 255
204 226 255
204 226 255
204 226 255
204 226 255
204 226 255
204 226 255
204 226 255
204 226 255
204 226 255
203 226 255
203 226 255
203 226 255
203 226 255
203 226 255
203 226 255
203 226 255
203 225 255
203 225 255
203 225 255
203 225 255
203 225 255
203 225 255
203 225 255
203 225 255
202 225 255
202 225 255
202 225 255
202 225 255
202 225 255
202 225 255
202 225 255
202 225 255
202 225 255
202 225 255
202 225 255
202 225 255
202 225 255
202 225 255
202 225 255
201 225 255
201 225 255
201 225 255
201 225 255
201 225 255
201 224 255
201 224 255
201 224 255
201 224 255
201 224 255
201 224 255
201 224 255
201 224 255
201 224 255
201 224 255
200 224 255
200 224 255
200 224 255
200 224 255
200 224 255
200 224 255
200 224 255
200 224 255
200 224 255
200 224 255
200 224 255
200 224 255
200 224 255
200 224 255
200 224 255
200 224 255
200 224 255
199 224 255
199 224 255
199 223 255
199 223 255
199 223 255
199 223 255
199 223 255
199 223 255
199 223 255
199 223 255
199 223 255
199 223 255
199 223 255
199 223 255
199 223 255
199 223 255
199 223 255
199 223 255
199 223 255
198 223 255
198 223 255
198 223 255
198 223 255
198 223 255
198 223 255
198 223 255
198 223 255
198 223 255
198 223 255
198 223 255
198 223 255
198 223 255
198 223 255
198 223 255
198 223 255
198 223 255
198 223 255
198 223 255
198 223 255
198 223 255
198 223 255
198 223 255
198 223 255
198 223 255
198 223 255
198 223 255
198 223 255
198 223 255
198 223 255
198 223 255
198 223 255
198 223 255
198 223 255
198 223 255
198 223 255
198 223 255
198 223 255
198 223 255
197 223 255
197 223 255
197 223 255
198 223 255
197 223 255
197 223 255
198 223 255
198 223 255
198 223 255
198 223 255
198 223 255
198 223 255
198 223 255
198 223 255
198 223 255
198 223 255
198 223 255
198 223 255
198 223 255
198 223 255
198 223 255
198 223 255
198 223 255
198 223 255
198 223 255
198 223 255
198 223 255
198 223 255
198 223 255
198 223 255
198 223 255
198 223 255
198 223 255
198 223 255
198 223 255
198 223 255
198 223 255
198 223 255
198 223 255
198 223 255
198 223 255
198 223 255
198 223 255
199 223 255
199 223 255
199 223 255
199 223 255
199 223 255
199 223 255
199 223 255
199 223 255
199 223 255
199 223 255
199 223 255
199 223 255
199 223 255
199 223 255
199 223 255
199 223 255
199 223 255
199 224 255
199 224 255
199 224 255
200 224 255
200 224 255
200 224 255
200 224 255
200 224 255
200 224 255
200 224 255
200 224 255
200 224 255
200 224 255
200 224 255
200 224 255
200 224 255
200 224 255
200 224 255
200 224 255
201 224 255
201 224 255
201 224 255
201 224 255
201 224 255
201 224 255
201 224 255
201 224 255
201 224 255
201 224 255
201 224 255
201 225 255
201 225 255
201 225 255
201 225 255
202 225 255
202 225 255
202 225 255
202 225 255
202 225 255
202 225 255
202 225 255
202 225 255
202 225 255
202 225 255
202 225 255
202 225 255
202 225 255
202 225 255
202 225 255
203 225 255
203 225 255
203 225 255
203 225 255
203 225 255
203 225 255
203 225 255
203 225 255
203 226 255
203 226 255
203 226 255
203 226 255
203 226 255
203 226 255
203 226 255
204 226 255
204 226 255
204 226 255
204 226 255
204 226 255
204 226 255
204 226 255
204 226 255
204 226 255
204 226 255
204 226 255
204 226 255
204 226 255
204 226 255
204 226 255
204 226 255
205 226 255
205 226 255
205 226 255
205 226 255
205 226 255
205 226 255
205 226 255
205 227 255
205 227 255
205 227 255
205 227 255
205 227 255
205 227 255
205 227 255
205 227 255
205 227 255
205 227 255
206 227 255
206 227 255
206 227 255
206 227 255
206 227 255
206 227 255
206 227 255
206 227 255
206 227 255
206 227 255
206 227 255
206 227 255
206 227 255
206 227 255
206 227 255
206 227 255
206 227 255
206 227 255
207 227 255
207 227 255
207 227 255
207 227 255
207 227 255
207 228 255
207 228 255
207 228 255
207 228 255
207 228 255
207 228 255
207 228 255
207 228 255
207 228 255
207 228 255
207 228 255
207 228 255
207 228 255
207 228 255
207 228 255
208 228 255
208 228 255
208 228 255
208 228 255
208 228 255
208 228 255
208 228 255
208 228 255
208 228 255
208 228 255
208 228 255
208 228 255
208 228 255
208 228 255
208 228 255
208 228 255
208 228 255
207 228 255
207 228 255
207 228 255
207 228 255
207 228 255
207 228 255
207 228 255
207 228 255
207 228 255
207 228 255
207 228 255
207 228 255
207 228 255
207 228 255
207 228 255
207 227 255
207 227 255
207 227 255
207 227 255
207 227 255
206 227 255
206 227 255
206 227 255
206 227 255
206 227 255
206 227 255
206 227 255
206 227 255
206 227 255
206 227 255
206 227 255
206 227 255
206 227 255
206 227 255
206 227 255
206 227 255
206 227 255
206 227 255
205 227 255
205 227 255
205 227 255
205 227 255
205 227 255
205 227 255
205 227 255
205 227 255
205 227 255
205 227 255
205 226 255
205 226 255
205 226 255
205 226 255
205 226 255
205 226 255
205 226 255
204 226 255
204 226 255
204 226 255
204 226 255
204 226 255
204 226 255
204 226 255
204 226 255
204 226 255
204 226 255
204 226 255
204 226 255
204 226 255
204 226 255
204 226 255
204 226 255
203 226 255
203 226 255
203 226 255
203 226 255
203 226 255
203 226 255
203 225 255
203 225 255
203 225 255
203 225 255
203 225 255
203 225 255
203 225 255
203 225 255
203 225 255
202 225 255
202 225 255
202 225 255
202 225 255
202 225 255
202 225 255
202 225 255
202 225 255
202 225 255
202 225 255
202 225 255
202 225 255
202 225 255
202 225 255
202 225 255
201 225 255
201 225 255
201 225 255
201 225 255
201 224 255
201 224 255
201 224 255
201 224 255
201 224 255
201 224 255
201 224 255
201 224 255
201 224 255
201 224 255
201 224 255
200 224 255
200 224 255
200 224 255
200 224 255
200 224 255
200 224 255
200 224 255
200 224 255
200 224 255
200 224 255
200 224 255
200 224 255
200 224 255
200 224 255
200 224 255
200 224 255
200 224 255
199 224 255
199 224 255
199 224 255
199 223 255
199 223 255
199 223 255
199 223 255
199 223 255
199 223 255
199 223 255
199 223 255
199 223 255
199 223 255
199 223 255
199 223 255
199 223 255
199 223 255
199 223 255
199 223 255
199 223 255
198 223 255
198 223 255
198 223 255
198 223 255
198 223 255
198 223 255
198 223 255
198 223 255
198 223 255
198 223 255
198 223 255
198 223 255
198 223 255
198 223 255
198 223 255
198 223 255
198 223 255
198 223 255
198 223 255
198 223 255
198 223 255
198 223 255
198 223 255
198 223 255
198 223 255
198 223 255
198 223 255
198 223 255
198 223 255
198 223 255
198 223 255
198 223 255
198 223 255
198 223 255
198 223 255
198 223 255
198 223 255
198 223 255
198 223 255
198 223 255
198 223 255
198 223 255
198 223 255
198 223 255
198 223 255
198 223 255
198 223 255
198 223 255
198 223 255
198 223 255
198 223 255
198 223 255
198 223 255
198 223 255
198 223 255
198 223 255
198 223 255
198 223 255
198 223 255
198 223 255
198 223 255
198 223 255
198 223 255
198 223 255
198 223 255
198 223 255
198 223 255
198 223 255
198 223 255
198 223 255
198 223 255
198 223 255
198 223 255
198 223 255
199 223 255
199 223 255
199 223 255
199 223 255
199 223 255
199 223 255
199 223 255
199 223 255
199 223 255
199 223 255
199 223 255
199 223 255
199 223 255
199 223 255
199 223 255
199 223 255
199 223 255
199 224 255
199 224 255
199 224 255
200 224 255
200 224 255
200 224 255
200 224 255
200 224 255
200 224 255
200 224 255
200 224 255
200 224 255
200 224 255
200 224 255
200 224 255
200 224 255
200 224 255
200 224 255
200 224 255
200 224 255
201 224 255
201 224 255
201 224 255
201 224 255
201 224 255
201 224 255
201 224 255
201 224 255
201 224 255
201 224 255
201 224 255
201 225 255
201 225 255
201 225 255
201 225 255
202 225 255
202 225 255
202 225 255
202 225 255
202 225 255
202 225 255
202 225 255
202 225 255
202 225 255
202 225 255
202 225 255
202 225 255
202 225 255
202 225 255
202 225 255
203 225 255
203 225 255
203 225 255
203 225 255
203 225 255
203 225 255
203 225 255
203 225 255
203 225 255
203 226 255
203 226 255
203 226 255
203 226 255
203 226 255
203 226 255
204 226 255
204 226 255
204 226 255
204 226 255
204 226 255
204 226 255
204 226 255
204 226 255
204 226 255
204 226 255
204 226 255
204 226 255
204 226 255
204 226 255
204 226 255
204 226 255
205 226 255
205 226 255
205 226 255
205 226 255
205 226 255
205 226 255
205 226 255
205 227 255
205 227 255
205 227 255
205 227 255
205 227 255
205 227 255
205 227 255
205 227 255
205 227 255
205 227 255
206 227 255
206 227 255
206 227 255
206 227 255
206 227 255
206 227 255
206 227 255
206 227 255
206 227 255
206 227 255
206 227 255
206 227 255
206 227 255
206 227 255
206 227 255
206 227 255
206 227 255
206 227 255
207 227 255
207 227 255
207 227 255
207 227 255
207 227 255
207 228 255
207 228 255
207 228 255
207 228 255
207 228 255
207 228 255
207 228 255
207 228 255
207 228 255
207 228 255
207 228 255
207 228 255
207 228 255
207 228 255
207 228 255
208 228 255
208 228 255
208 228 255
208 228 255
208 228 255
208 228 255
208 228 255
208 228 255
208 228 255
208 228 255
208 228 255
208 228 255
208 228 255
208 228 255
208 228 255
208 228 255
208 228 255
208 228 255
208 228 255
208 228 255
208 228 255
208 228 255
208 228 255
207 228 255
207 228 255
207 228 255
207 228 255
207 228 255
207 228 255
207 228 255
207 228 255
207 228 255
207 228 255
207 228 255
207 228 255
207 228 255
207 228 255
207 228 255
207 227 255
207 227 255
207 227 255
207 227 255
207 227 255
206 227 255
206 227 255
206 227 255
206 227 255
206 227 255
206 227 255
206 227 255
206 227 255
206 227 255
206 227 255
206 227 255
206 227 255
206 227 255
206 227 255
206 227 255
206 227 255
206 227 255
206 227 255
205 227 255
205 227 255
205 227 255
205 227 255
205 227 255
205 227 255
205 227 255
205 227 255
205 227 255
205 227 255
205 226 255
205 226 255
205 226 255
205 226 255
205 226 255
205 226 255
204 226 255
204 226 255
204 226 255
204 226 255
204 226 255
204 226 255
204 226 255
204 226 255
204 226 255
204 226 255
204 226 255
204 226 255
204 226 255
204 226 255
204 226 255
204 226 255
203 226 255
203 226 255
203 226 255
203 226 255
203 226 255
203 226 255
203 226 255
203 225 255
203 225 255
203 225 255
203 225 255
203 225 255
203 225 255
203 225 255
203 225 255
202 225 255
202 225 255
202 225 255
202 225 255
202 225 255
202 225 255
202 225 255
202 225 255
202 225 255
202 225 255
202 225 255
202 225 255
202 225 255
202 225 255
202 225 255
202 225 255
201 225 255
201 225 255
201 225 255
201 225 255
201 224 255
201 224 255
201 224 255
201 224 255
201 224 255
201 224 255
201 224 255
201 224 255
201 224 255
201 224 255
201 224 255
200 224 255
200 224 255
200 224 255
200 224 255
200 224 255
200 224 255
200 224 255
200 224 255
200 224 255
200 224 255
200 224 255
200 224 255
200 224 255
200 224 255
200 224 255
200 224 255
200 224 255
199 224 255
199 224 255
199 224 255
199 223 255
199 223 255
199 223 255
199 223 255
199 223 255
199 223 255
199 223 255
199 223 255
199 223 255
199 223 255
199 223 255
199 223 255
199 223 255
199 223 255
199 223 255
199 223 255
199 223 255
199 223 255
198 223 255
198 223 255
198 223 255
198 223 255
198 223 255
198 223 255
198 223 255
198 223 255
198 223 255
198 223 255
198 223 255
198 223 255
198 223 255
198 223 255
198 223 255
198 223 255
198 223 255
198 223 255
198 223 255
198 223 255
198 223 255
198 223 255
198 223 255
198 223 255
198 223 255
198 223 255
198 223 255
198 223 255
198 223 255
198 223 255
198 223 255
198 223 255
198 223 255
198 223 255
198 223 255
198 223 255
198 223 255
198 223 255
198 223 255
198 223 255
198 223 255
198 223 255
198 223 255
198 223 255
198 223 255
198 223 255
198 223 255
198 223 255
198 223 255
198 223 255
198 223 255
198 223 255
198 223 255
198 223 255
198 223 255
198 223 255
198 223 255
198 223 255
198 223 255
198 223 255
198 223 255
198 223 255
198 223 255
198 223 255
198 223 255
199 223 255
199 223 255
199 223 255
199 223 255
199 223 255
199 223 255
199 223 255
199 223 255
199 223 255
199 223 255
199 223 255
199 223 255
199 223 255
199 223 255
199 223 255
199 223 255
199 223 255
199 223 255
199 223 255
199 224 255
199 224 255
199 224 255
200 224 255
200 224 255
200 224 255
200 224 255
200 224 255
200 224 255
200 224 255
200 224 255
200 224 255
200 224 255
200 224 255
200 224 255
200 224 255
200 224 255
200 224 255
200 224 255
200 224 255
201 224 255
201 224 255
201 224 255
201 224 255
201 224 255
201 224 255
201 224 255
201 224 255
201 224 255
201 224 255
201 224 255
201 225 255
201 225 255
201 225 255
201 225 255
202 225 255
202 225 255
202 225 255
202 225 255
202 225 255
202 225 255
202 225 255
202 225 255
202 225 255
202 225 255
202 225 255
202 225 255
202 225 255
202 225 255
202 225 255
203 225 255
203 225 255
203 225 255
203 225 255
203 225 255
203 225 255
203 225 255
203 225 255
203 225 255
203 226 255
203 226 255
203 226 255
203 226 255
203 226 255
203 226 255
203 226 255
204 226 255
204 226 255
204 226 255
204 226 255
204 226 255
204 226 255
204 226 255
204 226 255
204 226 255
204 226 255
204 226 255
204 226 255
204 226 255
204 226 255
204 226 255
204 226 255
205 226 255
205 226 255
205 226 255
205 226 255
205 226 255
205 226 255
205 227 255
205 227 255
205 227 255
205 227 255
205 227 255
205 227 255
205 227 255
205 227 255
205 227 255
205 227 255
206 227 255
206 227 255
206 227 255
206 227 255
206 227 255
206 227 255
206 227 255
206 227 255
206 227 255
206 227 255
206 227 255
206 227 255
206 227 255
206 227 255
206 227 255
206 227 255
206 227 255
206 227 255
207 227 255
207 227 255
207 227 255
207 227 255
207 227 255
207 228 255
207 228 255
207 228 255
207 228 255
207 228 255
207 228 255
207 228 255
207 228 255
207 228 255
207 228 255
207 228 255
207 228 255
207 228 255
207 228 255
207 228 255
208 228 255
208 228 255
208 228 255
208 228 255
208 228 255
208 228 255
208 228 255
208 228 255
208 228 255
208 228 255
208 228 255
208 228 255
208 228 255
208 228 255
208 228 255
208 228 255
208 228 255
208 228 255
208 228 255
208 228 255
208 228 255
208 228 255
208 228 255
208 228 255
208 228 255
208 228 255
208 228 255
208 228 255
208 228 255
207 228 255
207 228 255
207 228 255
207 228 255
207 228 255
207 228 255
207 228 255
207 228 255
207 228 255
207 228 255
207 228 255
207 228 255
207 228 255
207 228 255
207 228 255
207 227 255
207 227 255
207 227 255
207 227 255
206 227 255
206 227 255
206 227 255
206 227 255
206 227 255
206 227 255
206 227 255
206 227 255
206 227 255
206 227 255
206 227 255
206 227 255
206 227 255
206 227 255
206 227 255
206 227 255
206 227 255
206 227 255
206 227 255
205 227 255
205 227 255
205 227 255
205 227 255
205 227 255
205 227 255
205 227 255
205 227 255
205 227 255
205 227 255
205 226 255
205 226 255
205 226 255
205 226 255
205 226 255
205 226 255
204 226 255
204 226 255
204 226 255
204 226 255
204 226 255
204 226 255
204 226 255
204 226 255
204 226 255
204 226 255
204 226 255
204 226 255
204 226 255
204 226 255
204 226 255
204 226 255
203 226 255
203 226 255
203 226 255
203 226 255
203 226 255
203 226 255
203 226 255
203 225 255
203 225 255
203 225 255
203 225 255
203 225 255
203 225 255
203 225 255
203 225 255
202 225 255
202 225 255
202 225 255
202 225 255
202 225 255
202 225 255
202 225 255
202 225 255
202 225 255
202 225 255
202 225 255
202 225 255
202 225 255
202 225 255
202 225 255
201 225 255
201 225 255
201 225 255
201 225 255
201 225 255
201 224 255
201 224 255
201 224 255
201 224 255
201 224 255
201 224 255
201 224 255
201 224 255
201 224 255
201 224 255
201 224 255
200 224 255
200 224 255
200 224 255
200 224 255
200 224 255
200 224 255
200 224 255
200 224 255
200 224 255
200 224 255
200 224 255
200 224 255
200 224 255
200 224 255
200 224 255
200 224 255
200 224 255
200 224 255
199 224 255
199 224 255
199 224 255
199 223 255
199 223 255
199 223 255
199 223 255
199 223 255
199 223 255
199 223 255
199 223 255
199 223 255
199 223 255
199 223 255
199 223 255
199 223 255
199 223 255
199 223 255
199 223 255
199 223 255
199 223 255
199 223 255
199 223 255
198 223 255
198 223 255
198 223 255
198 223 255
198 223 255
198 223 255
198 223 255
198 223 255
198 223 255
198 223 255
198 223 255
198 223 255
198 223 255
198 223 255
198 223 255
198 223 255
198 223 255
198 223 255
198 223 255
198 223 255
198 223 255
198 223 255
198 223 255
198 223 255
198 223 255
198 223 255
198 223 255
198 223 255
198 223 255
198 223 255
198 223 255
198 223 255
198 223 255
198 223 255
198 223 255
198 223 255
198 223 255
198 223 255
198 223 255
198 223 255
198 223 255
198 223 255
198 223 255
198 223 255
198 223 255
198 223 255
198 223 255
198 223 255
198 223 255
198 223 255
198 223 255
198 223 255
198 223 255
198 223 255
199 223 255
199 223 255
199 223 255
199 223 255
199 223 255
199 223 255
199 223 255
199 223 255
199 223 255
199 223 255
199 223 255
199 223 255
199 223 255
199 223 255
199 223 255
199 223 255
199 223 255
199 223 255
199 223 255
199 223 255
199 224 255
199 224 255
199 224 255
200 224 255
200 224 255
200 224 255
200 224 255
200 224 255
200 224 255
200 224 255
200 224 255
200 224 255
200 224 255
200 224 255
200 224 255
200 224 255
200 224 255
200 224 255
200 224 255
200 224 255
200 224 255
201 224 255
201 224 255
201 224 255
201 224 255
201 224 255
201 224 255
201 224 255
201 224 255
201 224 255
201 224 255
201 224 255
201 225 255
201 225 255
201 225 255
201 225 255
201 225 255
202 225 255
202 225 255
202 225 255
202 225 255
202 225 255
202 225 255
202 225 255
202 225 255
202 225 255
202 225 255
202 225 255
202 225 255
202 225 255
202 225 255
202 225 255
203 225 255
203 225 255
203 225 255
203 225 255
203 225 255
203 225 255
203 225 255
203 225 255
203 226 255
203 226 255
203 226 255
203 226 255
203 226 255
203 226 255
203 226 255
204 226 255
204 226 255
204 226 255
204 226 255
204 226 255
204 226 255
204 226 255
204 226 255
204 226 255
204 226 255
204 226 255
204 226 255
204 226 255
204 226 255
204 226 255
204 226 255
205 226 255
205 226 255
205 226 255
205 226 255
205 226 255
205 226 255
205 226 255
205 227 255
205 227 255
205 227 255
205 227 255
205 227 255
205 227 255
205 227 255
205 227 255
205 227 255
206 227 255
206 227 255
206 227 255
206 227 255
206 227 255
206 227 255
206 227 255
206 227 255
206 227 255
206 227 255
206 227 255
206 227 255
206 227 255
206 227 255
206 227 255
206 227 255
206 227 255
206 227 255
207 227 255
207 227 255
207 227 255
207 227 255
207 227 255
207 228 255
207 228 255
207 228 255
207 228 255
207 228 255
207 228 255
207 228 255
207 228 255
207 228 255
207 228 255
207 228 255
207 228 255
207 228 255
207 228 255
207 228 255
208 228 255
208 228 255
208 228 255
208 228 255
208 228 255
208 228 255
208 228 255
208 228 255
208 228 255
208 228 255
208 228 255
208 228 255
208 228 255
208 228 255
208 228 255
208 228 255
208 228 255
208 228 255
208 228 255
208 228 255
208 228 255
208 228 255
208 228 255
208 228 255
208 228 255
208 228 255
208 228 255
208 228 255
208 228 255
208 228 255
208 228 255
208 228 255
208 228 255
208 228 255
208 228 255
207 228 255
207 228 255
207 228 255
207 228 255
207 228 255
207 228 255
207 228 255
207 228 255
207 228 255
207 228 255
207 228 255
207 228 255
207 228 255
207 228 255
207 228 255
207 227 255
207 227 255
207 227 255
207 227 255
206 227 255
206 227 255
206 227 255
206 227 255
206 227 255
206 227 255
206 227 255
206 227 255
206 227 255
206 227 255
206 227 255
206 227 255
206 227 255
206 227 255
206 227 255
206 227 255
206 227 255
206 227 255
205 227 255
205 227 255
205 227 255
205 227 255
205 227 255
205 227 255
205 227 255
205 227 255
205 227 255
205 227 255
205 226 255
205 226 255
205 226 255
205 226 255
205 226 255
205 226 255
205 226 255
204 226 255
204 226 255
204 226 255
204 226 255
204 226 255
204 226 255
204 226 255
204 226 255
204 226 255
204 226 255
204 226 255
204 226 255
204 226 255
204 226 255
204 226 255
204 226 255
203 226 255
203 226 255
203 226 255
203 226 255
203 226 255
203 226 255
203 225 255
203 225 255
203 225 255
203 225 255
203 225 255
203 225 255
203 225 255
203 225 255
203 225 255
202 225 255
202 225 255
202 225 255
202 225 255
202 225 255
202 225 255
202 225 255
202 225 255
202 225 255
202 225 255
202 225 255
202 225 255
202 225 255
202 225 255
202 225 255
201 225 255
201 225 255
201 225 255
201 225 255
201 225 255
201 224 255
201 224 255
201 224 255
201 224 255
201 224 255
201 224 255
201 224 255
201 224 255
201 224 255
201 224 255
201 224 255
200 224 255
200 224 255
200 224 255
200 224 255
200 224 255
200 224 255
200 224 255
200 224 255
200 224 255
200 224 255
200 224 255
200 224 255
200 224 255
200 224 255
200 224 255
200 224 255
200 224 255
200 224 255
199 224 255
199 224 255
199 224 255
199 224 255
199 223 255
199 223 255
199 223 255
199 223 255
199 223 255
199 223 255
199 223 255
199 223 255
199 223 255
199 223 255
199 223 255
199 223 255
199 223 255
199 223 255
199 223 255
199 223 255
199 223 255
199 223 255
199 223 255
199 223 255
199 223 255
199 223 255
199 223 255
198 223 255
198 223 255
198 223 255
198 223 255
198 223 255
198 223 255
198 223 255
198 223 255
198 223 255
198 223 255
198 223 255
198 223 255
198 223 255
198 223 255
198 223 255
198 223 255
198 223 255
198 223 255
198 223 255
198 223 255
198 223 255
198 223 255
198 223 255
198 223 255
198 223 255
198 223 255
198 223 255
198 223 255
198 223 255
198 223 255
198 223 255
198 223 255
198 223 255
198 223 255
198 223 255
198 223 255
198 223 255
198 223 255
198 223 255
198 223 255
199 223 255
199 223 255
199 223 255
199 223 255
199 223 255
199 223 255
199 223 255
199 223 255
199 223 255
199 223 255
199 223 255
199 223 255
199 223 255
199 223 255
199 223 255
199 223 255
199 223 255
199 223 255
199 223 255
199 223 255
199 223 255
199 223 255
199 223 255
199 224 255
199 224 255
199 224 255
199 224 255
200 224 255
200 224 255
200 224 255
200 224 255
200 224 255
200 224 255
200 224 255
200 224 255
200 224 255
200 224 255
200 224 255
200 224 255
200 224 255
200 224 255
200 224 255
200 224 255
200 224 255
200 224 255
201 224 255
201 224 255
201 224 255
201 224 255
201 224 255
201 224 255
201 224 255
201 224 255
201 224 255
201 224 255
201 224 255
201 225 255
201 225 255
201 225 255
201 225 255
201 225 255
202 225 255
202 225 255
202 225 255
202 225 255
202 225 255
202 225 255
202 225 255
202 225 255
202 225 255
202 225 255
202 225 255
202 225 255
202 225 255
202 225 255
202 225 255
203 225 255
203 225 255
203 225 255
203 225 255
203 225 255
203 225 255
203 225 255
203 225 255
203 226 255
203 226 255
203 226 255
203 226 255
203 226 255
203 226 255
203 226 255
204 226 255
204 226 255
204 226 255
204 226 255
204 226 255
204 226 255
204 226 255
204 226 255
204 226 255
204 226 255
204 226 255
204 226 255
204 226 255
204 226 255
204 226 255
204 226 255
205 226 255
205 226 255
205 226 255
205 226 255
205 226 255
205 226 255
205 226 255
205 227 255
205 227 255
205 227 255
205 227 255
205 227 255
205 227 255
205 227 255
205 227 255
205 227 255
205 227 255
206 227 255
206 227 255
206 227 255
206 227 255
206 227 255
206 227 255
206 227 255
206 227 255
206 227 255
206 227 255
206 227 255
206 227 255
206 227 255
206 227 255
206 227 255
206 227 255
206 227 255
207 227 255
207 227 255
207 227 255
207 227 255
207 227 255
207 228 255
207 228 255
207 228 255
207 228 255
207 228 255
207 228 255
207 228 255
207 228 255
207 228 255
207 228 255
207 228 255
207 228 255
207 228 255
207 228 255
207 228 255
208 228 255
208 228 255
208 228 255
208 228 255
208 228 255
208 228 255
208 228 255
208 228 255
208 228 255
208 228 255
208 228 255
208 228 255
208 228 255
208 228 255
208 228 255
208 228 255
208 228 255
208 228 255
208 228 255
209 228 255
208 228 255
208 228 255
208 228 255
208 228 255
208 228 255
208 228 255
208 228 255
208 228 255
208 228 255
208 228 255
208 228 255
208 228 255
208 228 255
208 228 255
208 228 255
208 228 255
208 228 255
208 228 255
208 228 255
208 228 255
208 228 255
207 228 255
207 228 255
207 228 255
207 228 255
207 228 255
207 228 255
207 228 255
207 228 255
207 228 255
207 228 255
207 228 255
207 228 255
207 228 255
207 228 255
207 228 255
207 227 255
207 227 255
207 227 255
207 227 255
207 227 255
206 227 255
206 227 255
206 227 255
206 227 255
206 227 255
206 227 255
206 227 255
206 227 255
206 227 255
206 227 255
206 227 255
206 227 255
206 227 255
206 227 255
206 227 255
206 227 255
206 227 255
205 227 255
205 227 255
205 227 255
205 227 255
205 227 255
205 227 255
205 227 255
205 227 255
205 227 255
205 227 255
205 226 255
205 226 255
205 226 255
205 226 255
205 226 255
205 226 255
205 226 255
204 226 255
204 226 255
204 226 255
204 226 255
204 226 255
204 226 255
204 226 255
204 226 255
204 226 255
204 226 255
204 226 255
204 226 255
204 226 255
204 226 255
204 226 255
203 226 255
203 226 255
203 226 255
203 226 255
203 226 255
203 226 255
203 226 255
203 225 255
203 225 255
203 225 255
203 225 255
203 225 255
203 225 255
203 225 255
203 225 255
203 225 255
202 225 255
202 225 255
202 225 255
202 225 255
202 225 255
202 225 255
202 225 255
202 225 255
202 225 255
202 225 255
202 225 255
202 225 255
202 225 255
202 225 255
202 225 255
201 225 255
201 225 255
201 225 255
201 225 255
201 225 255
201 224 255
201 224 255
201 224 255
201 224 255
201 224 255
201 224 255
201 224 255
201 224 255
201 224 255
201 224 255
201 224 255
201 224 255
200 224 255
200 224 255
200 224 255
200 224 255
200 224 255
200 224 255
200 224 255
200 224 255
200 224 255
200 224 255
200 224 255
200 224 255
200 224 255
200 224 255
200 224 255
200 224 255
200 224 255
200 224 255
199 224 255
199 224 255
199 224 255
199 224 255
199 223 255
199 223 255
199 223 255
199 223 255
199 223 255
199 223 255
199 223 255
199 223 255
199 223 255
199 223 255
199 223 255
199 223 255
199 223 255
199 223 255
199 223 255
199 223 255
199 223 255
199 223 255
199 223 255
199 223 255
199 223 255
199 223 255
199 223 255
199 223 255
199 223 255
199 223 255
199 223 255
199 223 255
199 223 255
199 223 255
198 223 255
198 223 255
198 223 255
198 223 255
198 223 255
198 223 255
198 223 255
198 223 255
198 223 255
198 223 255
198 223 255
198 223 255
198 223 255
198 223 255
198 223 255
198 223 255
198 223 255
198 223 255
198 223 255
199 223 255
199 223 255
199 223 255
199 223 255
199 223 255
199 223 255
199 223 255
199 223 255
199 223 255
199 223 255
199 223 255
199 223 255
199 223 255
199 223 255
199 223 255
199 223 255
199 223 255
199 223 255
199 223 255
199 223 255
199 223 255
199 223 255
199 223 255
199 223 255
199 223 255
199 223 255
199 223 255
199 223 255
199 223 255
199 224 255
199 224 255
199 224 255
199 224 255
200 224 255
200 224 255
200 224 255
200 224 255
200 224 255
200 224 255
200 224 255
200 224 255
200 224 255
200 224 255
200 224 255
200 224 255
200 224 255
200 224 255
200 224 255
200 224 255
200 224 255
200 224 255
201 224 255
201 224 255
201 224 255
201 224 255
201 224 255
201 224 255
201 224 255
201 224 255
201 224 255
201 224 255
201 224 255
201 224 255
201 225 255
201 225 255
201 225 255
201 225 255
201 225 255
202 225 255
202 225 255
202 225 255
202 225 255
202 225 255
202 225 255
202 225 255
202 225 255
202 225 255
202 225 255
202 225 255
202 225 255
202 225 255
202 225 255
202 225 255
203 225 255
203 225 255
203 225 255
203 225 255
203 225 255
203 225 255
203 225 255
203 225 255
203 225 255
203 226 255
203 226 255
203 226 255
203 226 255
203 226 255
203 226 255
203 226 255
204 226 255
204 226 255
204 226 255
204 226 255
204 226 255
204 226 255
204 226 255
204 226 255
204 226 255
204 226 255
204 226 255
204 226 255
204 226 255
204 226 255
204 226 255
205 226 255
205 226 255
205 226 255
205 226 255
205 226 255
205 226 255
205 226 255
205 227 255
205 227 255
205 227 255
205 227 255
205 227 255
205 227 255
205 227 255
205 227 255
205 227 255
205 227 255
206 227 255
206 227 255
206 227 255
206 227 255
206 227 255
206 227 255
206 227 255
206 227 255
206 227 255
206 227 255
206 227 255
206 227 255
206 227 255
206 227 255
206 227 255
206 227 255
206 227 255
207 227 255
207 227 255
207 227 255
207 227 255
207 227 255
207 228 255
207 228 255
207 228 255
207 228 255
207 228 255
207 228 255
207 228 255
207 228 255
207 228 255
207 228 255
207 228 255
207 228 255
207 228 255
207 228 255
207 228 255
208 228 255
208 228 255
208 228 255
208 228 255
208 228 255
208 228 255
208 228 255
208 228 255
208 228 255
208 228 255
208 228 255
208 228 255
208 228 255
208 228 255
208 228 255
208 228 255
208 228 255
208 228 255
208 228 255
208 228 255
208 228 255
209 228 255
209 229 255
209 229 255
209 228 255
209 228 255
208 228 255
208 228 255
208 228 255
208 228 255
208 228 255
208 228 255
208 228 255
208 228 255
208 228 255
208 228 255
208 228 255
208 228 255
208 228 255
208 228 255
208 228 255
208 228 255
208 228 255
208 228 255
208 228 255
208 228 255
208 228 255
208 228 255
207 228 255
207 228 255
207 228 255
207 228 255
207 228 255
207 228 255
207 228 255
207 228 255
207 228 255
207 228 255
207 228 255
207 228 255
207 228 255
207 228 255
207 227 255
207 227 255
207 227 255
207 227 255
207 227 255
206 227 255
206 227 255
206 227 255
206 227 255
206 227 255
206 227 255
206 227 255
206 227 255
206 227 255
206 227 255
206 227 255
206 227 255
206 227 255
206 227 255
206 227 255
206 227 255
206 227 255
205 227 255
205 227 255
205 227 255
205 227 255
205 227 255
205 227 255
205 227 255
205 227 255
205 227 255
205 227 255
205 226 255
205 226 255
205 226 255
205 226 255
205 226 255
205 226 255
205 226 255
204 226 255
204 226 255
204 226 255
204 226 255
204 226 255
204 226 255
204 226 255
204 226 255
204 226 255
204 226 255
204 226 255
204 226 255
204 226 255
204 226 255
204 226 255
203 226 255
203 226 255
203 226 255
203 226 255
203 226 255
203 226 255
203 226 255
203 225 255
203 225 255
203 225 255
203 225 255
203 225 255
203 225 255
203 225 255
203 225 255
203 225 255
202 225 255
202 225 255
202 225 255
202 225 255
202 225 255
202 225 255
202 225 255
202 225 255
202 225 255
202 225 255
202 225 255
202 225 255
202 225 255
202 225 255
202 225 255
201 225 255
201 225 255
201 225 255
201 225 255
201 225 255
201 224 255
201 224 255
201 224 255
201 224 255
201 224 255
201 224 255
201 224 255
201 224 255
201 224 255
201 224 255
201 224 255
201 224 255
200 224 255
200 224 255
200 224 255
200 224 255
200 224 255
200 224 255
200 224 255
200 224 255
200 224 255
200 224 255
200 224 255
200 224 255
200 224 255
200 224 255
200 224 255
200 224 255
200 224 255
200 224 255
200 224 255
200 224 255
199 224 255
199 224 255
199 224 255
199 224 255
199 223 255
199 223 255
199 223 255
199 223 255
199 223 255
199 223 255
199 223 255
199 223 255
199 223 255
199 223 255
199 223 255
199 223 255
199 223 255
199 223 255
199 223 255
199 223 255
199 223 255
199 223 255
199 223 255
199 223 255
199 223 255
199 223 255
199 223 255
199 223 255
199 223 255
199 223 255
199 223 255
199 223 255
199 223 255
199 223 255
199 223 255
199 223 255
199 223 255
199 223 255
199 223 255
199 223 255
199 223 255
199 223 255
199 223 255
199 223 255
199 223 255
199 223 255
199 223 255
199 223 255
199 223 255
199 223 255
199 223 255
199 223 255
199 223 255
199 223 255
199 223 255
199 223 255
199 223 255
199 223 255
199 223 255
199 223 255
199 223 255
199 223 255
199 223 255
199 223 255
199 223 255
199 223 255
199 223 255
199 223 255
199 223 255
199 223 255
199 223 255
199 223 255
199 224 255
199 224 255
199 224 255
199 224 255
200 224 255
200 224 255
200 224 255
200 224 255
200 224 255
200 224 255
200 224 255
200 224 255
200 224 255
200 224 255
200 224 255
200 224 255
200 224 255
200 224 255
200 224 255
200 224 255
200 224 255
200 224 255
200 224 255
200 224 255
201 224 255
201 224 255
201 224 255
201 224 255
201 224 255
201 224 255
201 224 255
201 224 255
201 224 255
201 224 255
201 224 255
201 224 255
201 225 255
201 225 255
201 225 255
201 225 255
201 225 255
202 225 255
202 225 255
202 225 255
202 225 255
202 225 255
202 225 255
202 225 255
202 225 255
202 225 255
202 225 255
202 225 255
202 225 255
202 225 255
202 225 255
202 225 255
203 225 255
203 225 255
203 225 255
203 225 255
203 225 255
203 225 255
203 225 255
203 225 255
203 225 255
203 226 255
203 226 255
203 226 255
203 226 255
203 226 255
203 226 255
203 226 255
204 226 255
204 226 255
204 226 255
204 226 255
204 226 255
204 226 255
204 226 255
204 226 255
204 226 255
204 226 255
204 226 255
204 226 255
204 226 255
204 226 255
204 226 255
205 226 255
205 226 255
205 226 255
205 226 255
205 226 255
205 226 255
205 226 255
205 227 255
205 227 255
205 227 255
205 227 255
205 227 255
205 227 255
205 227 255
205 227 255
205 227 255
205 227 255
206 227 255
206 227 255
206 227 255
206 227 255
206 227 255
206 227 255
206 227 255
206 227 255
206 227 255
206 227 255
206 227 255
206 227 255
206 227 255
206 227 255
206 227 255
206 227 255
206 227 255
207 227 255
207 227 255
207 227 255
207 227 255
207 227 255
207 228 255
207 228 255
207 228 255
207 228 255
207 228 255
207 228 255
207 228 255
207 228 255
207 228 255
207 228 255
207 228 255
207 228 255
207 228 255
207 228 255
207 228 255
208 228 255
208 228 255
208 228 255
208 228 255
208 228 255
208 228 255
208 228 255
208 228 255
208 228 255
208 228 255
208 228 255
208 228 255
208 228 255
208 228 255
208 228 255
208 228 255
208 228 255
208 228 255
208 228 255
208 228 255
208 228 255
209 228 255
209 229 255
209 229 255
209 229 255
209 229 255
209 229 255
209 229 255
209 229 255
209 229 255
209 229 255
209 228 255
208 228 255
208 228 255
208 228 255
208 228 255
208 228 255
208 228 255
208 228 255
208 228 255
208 228 255
208 228 255
208 228 255
208 228 255
208 228 255
208 228 255
208 228 255
208 228 255
208 228 255
208 228 255
208 228 255
208 228 255
208 228 255
207 228 255
207 228 255
207 228 255
207 228 255
207 228 255
207 228 255
207 228 255
207 228 255
207 228 255
207 228 255
207 228 255
207 228 255
207 228 255
207 228 255
207 228 255
207 227 255
207 227 255
207 227 255
207 227 255
206 227 255
206 227 255
206 227 255
206 227 255
206 227 255
206 227 255
206 227 255
206 227 255
206 227 255
206 227 255
206 227 255
206 227 255
206 227 255
206 227 255
206 227 255
206 227 255
206 227 255
206 227 255
205 227 255
205 227 255
205 227 255
205 227 255
205 227 255
205 227 255
205 227 255
205 227 255
205 227 255
205 227 255
205 226 255
205 226 255
205 226 255
205 226 255
205 226 255
205 226 255
204 226 255
204 226 255
204 226 255
204 226 255
204 226 255
204 226 255
204 226 255
204 226 255
204 226 255
204 226 255
204 226 255
204 226 255
204 226 255
204 226 255
204 226 255
204 226 255
203 226 255
203 226 255
203 226 255
203 226 255
203 226 255
203 226 255
203 226 255
203 225 255
203 225 255
203 225 255
203 225 255
203 225 255
203 225 255
203 225 255
203 225 255
203 225 255
202 225 255
202 225 255
202 225 255
202 225 255
202 225 255
202 225 255
202 225 255
202 225 255
202 225 255
202 225 255
202 225 255
202 225 255
202 225 255
202 225 255
202 225 255
201 225 255
201 225 255
201 225 255
201 225 255
201 225 255
201 224 255
201 224 255
201 224 255
201 224 255
201 224 255
201 224 255
201 224 255
201 224 255
201 224 255
201 224 255
201 224 255
201 224 255
201 224 255
200 224 255
200 224 255
200 224 255
200 224 255
200 224 255
200 224 255
200 224 255
200 224 255
200 224 255
200 224 255
200 224 255
200 224 255
200 224 255
200 224 255
200 224 255
200 224 255
200 224 255
200 224 255
200 224 255
200 224 255
200 224 255
199 224 255
199 224 255
199 224 255
199 224 255
199 223 255
199 223 255
199 223 255
199 223 255
199 223 255
199 223 255
199 223 255
199 223 255
199 223 255
199 223 255
199 223 255
199 223 255
199 223 255
199 223 255
199 223 255
199 223 255
199 223 255
199 223 255
199 223 255
199 223 255
199 223 255
199 223 255
199 223 255
199 223 255
199 223 255
199 223 255
199 223 255
199 223 255
199 223 255
199 223 255
199 223 255
199 223 255
199 223 255
199 223 255
199 223 255
199 223 255
199 223 255
199 223 255
199 223 255
199 223 255
199 223 255
199 223 255
199 223 255
199 223 255
199 223 255
199 223 255
199 223 255
199 223 255
199 223 255
199 223 255
199 223 255
199 223 255
199 223 255
199 223 255
199 223 255
199 223 255
199 223 255
199 223 255
199 224 255
199 224 255
199 224 255
199 224 255
200 224 255
200 224 255
200 224 255
200 224 255
200 224 255
200 224 255
200 224 255
200 224 255
200 224 255
200 224 255
200 224 255
200 224 255
200 224 255
200 224 255
200 224 255
200 224 255
200 224 255
200 224 255
200 224 255
200 224 255
200 224 255
200 224 255
201 224 255
201 224 255
201 224 255
201 224 255
201 224 255
201 224 255
201 224 255
201 224 255
201 224 255
201 224 255
201 224 255
201 224 255
201 225 255
201 225 255
201 225 255
201 225 255
201 225 255
202 225 255
202 225 255
202 225 255
202 225 255
202 225 255
202 225 255
202 225 255
202 225 255
202 225 255
202 225 255
202 225 255
202 225 255
202 225 255
202 225 255
202 225 255
203 225 255
203 225 255
203 225 255
203 225 255
203 225 255
203 225 255
203 225 255
203 225 255
203 225 255
203 226 255
203 226 255
203 226 255
203 226 255
203 226 255
203 226 255
203 226 255
204 226 255
204 226 255
204 226 255
204 226 255
204 226 255
204 226 255
204 226 255
204 226 255
204 226 255
204 226 255
204 226 255
204 226 255
204 226 255
204 226 255
204 226 255
204 226 255
205 226 255
205 226 255
205 226 255
205 226 255
205 226 255
205 226 255
205 227 255
205 227 255
205 227 255
205 227 255
205 227 255
205 227 255
205 227 255
205 227 255
205 227 255
205 227 255
206 227 255
206 227 255
206 227 255
206 227 255
206 227 255
206 227 255
206 227 255
206 227 255
206 227 255
206 227 255
206 227 255
206 227 255
206 227 255
206 227 255
206 227 255
206 227 255
206 227 255
207 227 255
207 227 255
207 227 255
207 227 255
207 227 255
207 228 255
207 228 255
207 228 255
207 228 255
207 228 255
207 228 255
207 228 255
207 228 255
207 228 255
207 228 255
207 228 255
207 228 255
207 228 255
207 228 255
208 228 255
208 228 255
208 228 255
208 228 255
208 228 255
208 228 255
208 228 255
208 228 255
208 228 255
208 228 255
208 228 255
208 228 255
208 228 255
208 228 255
208 228 255
208 228 255
208 228 255
208 228 255
208 228 255
208 228 255
208 228 255
208 228 255
209 228 255
209 229 255
209 229 255
209 229 255
209 229 255
209 229 255
209 229 255
209 229 255
209 229 255
209 229 255
209 229 255
209 229 255
209 229 255
209 229 255
209 229 255
209 229 255
209 228 255
209 228 255
208 228 255
208 228 255
208 228 255
208 228 255
208 228 255
208 228 255
208 228 255
208 228 255
208 228 255
208 228 255
208 228 255
208 228 255
208 228 255
208 228 255
208 228 255
208 228 255
208 228 255
208 228 255
208 228 255
208 228 255
208 228 255
207 228 255
207 228 255
207 228 255
207 228 255
207 228 255
207 228 255
207 228 255
207 228 255
207 228 255
207 228 255
207 228 255
207 228 255
207 228 255
207 228 255
207 227 255
207 227 255
207 227 255
207 227 255
206 227 255
206 227 255
206 227 255
206 227 255
206 227 255
206 227 255
206 227 255
206 227 255
206 227 255
206 227 255
206 227 255
206 227 255
206 227 255
206 227 255
206 227 255
206 227 255
206 227 255
206 227 255
205 227 255
205 227 255
205 227 255
205 227 255
205 227 255
205 227 255
205 227 255
205 227 255
205 227 255
205 227 255
205 226 255
205 226 255
205 226 255
205 226 255
205 226 255
205 226 255
204 226 255
204 226 255
204 226 255
204 226 255
204 226 255
204 226 255
204 226 255
204 226 255
204 226 255
204 226 255
204 226 255
204 226 255
204 226 255
204 226 255
204 226 255
204 226 255
203 226 255
203 226 255
203 226 255
203 226 255
203 226 255
203 226 255
203 226 255
203 225 255
203 225 255
203 225 255
203 225 255
203 225 255
203 225 255
203 225 255
203 225 255
203 225 255
202 225 255
202 225 255
202 225 255
202 225 255
202 225 255
202 225 255
202 225 255
202 225 255
202 225 255
202 225 255
202 225 255
202 225 255
202 225 255
202 225 255
202 225 255
201 225 255
201 225 255
201 225 255
201 225 255
201 225 255
201 224 255
201 224 255
201 224 255
201 224 255
201 224 255
201 224 255
201 224 255
201 224 255
201 224 255
201 224 255
201 224 255
201 224 255
201 224 255
200 224 255
200 224 255
200 224 255
200 224 255
200 224 255
200 224 255
200 224 255
200 224 255
200 224 255
200 224 255
200 224 255
200 224 255
200 224 255
200 224 255
200 224 255
200 224 255
200 224 255
200 224 255
200 224 255
200 224 255
200 224 255
200 224 255
200 224 255
200 224 255
199 224 255
199 224 255
199 224 255
199 224 255
199 224 255
199 223 255
199 223 255
199 223 255
199 223 255
199 223 255
199 223 255
199 223 255
199 223 255
199 223 255
199 223 255
199 223 255
199 223 255
199 223 255
199 223 255
199 223 255
199 223 255
199 223 255
199 223 255
199 223 255
199 223 255
199 223 255
199 223 255
199 223 255
199 223 255
199 223 255
199 223 255
199 223 255
199 223 255
199 223 255
199 223 255
199 223 255
199 223 255
199 223 255
199 223 255
199 223 255
199 223 255
199 223 255
199 223 255
199 223 255
199 223 255
199 223 255
199 223 255
199 223 255
199 223 255
199 224 255
199 224 255
199 224 255
199 224 255
199 224 255
200 224 255
200 224 255
200 224 255
200 224 255
200 224 255
200 224 255
200 224 255
200 224 255
200 224 255
200 224 255
200 224 255
200 224 255
200 224 255
200 224 255
200 224 255
200 224 255
200 224 255
200 224 255
200 224 255
200 224 255
200 224 255
200 224 255
200 224 255
200 224 255
201 224 255
201 224 255
201 224 255
201 224 255
201 224 255
201 224 255
201 224 255
201 224 255
201 224 255
201 224 255
201 224 255
201 224 255
201 224 255
201 225 255
201 225 255
201 225 255
201 225 255
201 225 255
202 225 255
202 225 255
202 225 255
202 225 255
202 225 255
202 225 255
202 225 255
202 225 255
202 225 255
202 225 255
202 225 255
202 225 255
202 225 255
202 225 255
202 225 255
202 225 255
203 225 255
203 225 255
203 225 255
203 225 255
203 225 255
203 225 255
203 225 255
203 225 255
203 226 255
203 226 255
203 226 255
203 226 255
203 226 255
203 226 255
203 226 255
204 226 255
204 226 255
204 226 255
204 226 255
204 226 255
204 226 255
204 226 255
204 226 255
204 226 255
204 226 255
204 226 255
204 226 255
204 226 255
204 226 255
204 226 255
204 226 255
205 226 255
205 226 255
205 226 255
205 226 255
205 226 255
205 226 255
205 227 255
205 227 255
205 227 255
205 227 255
205 227 255
205 227 255
205 227 255
205 227 255
205 227 255
205 227 255
206 227 255
206 227 255
206 227 255
206 227 255
206 227 255
206 227 255
206 227 255
206 227 255
206 227 255
206 227 255
206 227 255
206 227 255
206 227 255
206 227 255
206 227 255
206 227 255
206 227 255
206 227 255
207 227 255
207 227 255
207 227 255
207 227 255
207 228 255
207 228 255
207 228 255
207 228 255
207 228 255
207 228 255
207 228 255
207 228 255
207 228 255
207 228 255
207 228 255
207 228 255
207 228 255
207 228 255
208 228 255
208 228 255
208 228 255
208 228 255
208 228 255
208 228 255
208 228 255
208 228 255
208 228 255
208 228 255
208 228 255
208 228 255
208 228 255
208 228 255
208 228 255
208 228 255
208 228 255
208 228 255
208 228 255
208 228 255
208 228 255
209 228 255
209 228 255
209 229 255
209 229 255
209 229 255
209 229 255
209 229 255
209 229 255
209 229 255
209 229 255
209 229 255
209 229 255
209 229 255
209 229 255
209 229 255
209 229 255
209 229 255
209 229 255
209 229 255
209 229 255
209 229 255
209 229 255
209 229 255
209 228 255
209 228 255
208 228 255
208 228 255
208 228 255
208 228 255
208 228 255
208 228 255
208 228 255
208 228 255
208 228 255
208 228 255
208 228 255
208 228 255
208 228 255
208 228 255
208 228 255
208 228 255
208 228 255
208 228 255
208 228 255
208 228 255
208 228 255
207 228 255
207 228 255
207 228 255
207 228 255
207 228 255
207 228 255
207 228 255
207 228 255
207 228 255
207 228 255
207 228 255
207 228 255
207 228 255
207 228 255
207 227 255
207 227 255
207 227 255
207 227 255
206 227 255
206 227 255
206 227 255
206 227 255
206 227 255
206 227 255
206 227 255
206 227 255
206 227 255
206 227 255
206 227 255
206 227 255
206 227 255
206 227 255
206 227 255
206 227 255
206 227 255
206 227 255
205 227 255
205 227 255
205 227 255
205 227 255
205 227 255
205 227 255
205 227 255
205 227 255
205 227 255
205 227 255
205 226 255
205 226 255
205 226 255
205 226 255
205 226 255
205 226 255
204 226 255
204 226 255
204 226 255
204 226 255
204 226 255
204 226 255
204 226 255
204 226 255
204 226 255
204 226 255
204 226 255
204 226 255
204 226 255
204 226 255
204 226 255
204 226 255
203 226 255
203 226 255
203 226 255
203 226 255
203 226 255
203 226 255
203 226 255
203 225 255
203 225 255
203 225 255
203 225 255
203 225 255
203 225 255
203 225 255
203 225 255
203 225 255
202 225 255
202 225 255
202 225 255
202 225 255
202 225 255
202 225 255
202 225 255
202 225 255
202 225 255
202 225 255
202 225 255
202 225 255
202 225 255
202 225 255
202 225 255
202 225 255
201 225 255
201 225 255
201 225 255
201 225 255
201 225 255
201 224 255
201 224 255
201 224 255
201 224 255
201 224 255
201 224 255
201 224 255
201 224 255
201 224 255
201 224 255
201 224 255
201 224 255
201 224 255
200 224 255
200 224 255
200 224 255
200 224 255
200 224 255
200 224 255
200 224 255
200 224 255
200 224 255
200 224 255
200 224 255
200 224 255
200 224 255
200 224 255
200 224 255
200 224 255
200 224 255
200 224 255
200 224 255
200 224 255
200 224 255
200 224 255
200 224 255
200 224 255
200 224 255
200 224 255
200 224 255
199 224 255
199 224 255
199 224 255
199 224 255
199 224 255
199 224 255
199 224 255
199 223 255
199 223 255
199 223 255
199 223 255
199 223 255
199 223 255
199 223 255
199 223 255
199 223 255
199 223 255
199 223 255
199 223 255
199 223 255
199 223 255
199 223 255
199 223 255
199 223 255
199 223 255
199 223 255
199 223 255
199 223 255
199 223 255
199 223 255
199 223 255
199 223 255
199 224 255
199 224 255
199 224 255
199 224 255
199 224 255
199 224 255
199 224 255
199 224 255
199 224 255
200 224 255
200 224 255
200 224 255
200 224 255
200 224 255
200 224 255
200 224 255
200 224 255
200 224 255
200 224 255
200 224 255
200 224 255
200 224 255
200 224 255
200 224 255
200 224 255
200 224 255
200 224 255
200 224 255
200 224 255
200 224 255
200 224 255
200 224 255
200 224 255
200 224 255
200 224 255
201 224 255
201 224 255
201 224 255
201 224 255
201 224 255
201 224 255
201 224 255
201 224 255
201 224 255
201 224 255
201 224 255
201 224 255
201 224 255
201 225 255
201 225 255
201 225 255
201 225 255
201 225 255
202 225 255
202 225 255
202 225 255
202 225 255
202 225 255
202 225 255
202 225 255
202 225 255
202 225 255
202 225 255
202 225 255
202 225 255
202 225 255
202 225 255
202 225 255
202 225 255
202 225 255
203 225 255
203 225 255
203 225 255
203 225 255
203 225 255
203 225 255
203 225 255
203 225 255
203 226 255
203 226 255
203 226 255
203 226 255
203 226 255
203 226 255
203 226 255
204 226 255
204 226 255
204 226 255
204 226 255
204 226 255
204 226 255
204 226 255
204 226 255
204 226 255
204 226 255
204 226 255
204 226 255
204 226 255
204 226 255
204 226 255
204 226 255
205 226 255
205 226 255
205 226 255
205 226 255
205 226 255
205 226 255
205 227 255
205 227 255
205 227 255
205 227 255
205 227 255
205 227 255
205 227 255
205 227 255
205 227 255
205 227 255
206 227 255
206 227 255
206 227 255
206 227 255
206 227 255
206 227 255
206 227 255
206 227 255
206 227 255
206 227 255
206 227 255
206 227 255
206 227 255
206 227 255
206 227 255
206 227 255
206 227 255
207 227 255
207 227 255
207 227 255
207 227 255
207 227 255
207 228 255
207 228 255
207 228 255
207 228 255
207 228 255
207 228 255
207 228 255
207 228 255
207 228 255
207 228 255
207 228 255
207 228 255
207 228 255
207 228 255
208 228 255
208 228 255
208 228 255
208 228 255
208 228 255
208 228 255
208 228 255
208 228 255
208 228 255
208 228 255
208 228 255
208 228 255
208 228 255
208 228 255
208 228 255
208 228 255
208 228 255
208 228 255
208 228 255
208 228 255
208 228 255
209 228 255
209 229 255
209 229 255
209 229 255
209 229 255
209 229 255
209 229 255
209 229 255
209 229 255
209 229 255
209 229 255
209 229 255
209 229 255
209 229 255
209 229 255
209 229 255
209 229 255
209 229 255
209 229 255
209 229 255
209 229 255
209 229 255
209 229 255
209 229 255
209 229 255
209 229 255
209 229 255
209 229 255
209 229 255
209 229 255
209 228 255
208 228 255
208 228 255
208 228 255
208 228 255
208 228 255
208 228 255
208 228 255
208 228 255
208 228 255
208 228 255
208 228 255
208 228 255
208 228 255
208 228 255
208 228 255
208 228 255
208 228 255
208 228 255
208 228 255
208 228 255
208 228 255
207 228 255
207 228 255
207 228 255
207 228 255
207 228 255
207 228 255
207 228 255
207 228 255
207 228 255
207 228 255
207 228 255
207 228 255
207 228 255
207 228 255
207 227 255
207 227 255
207 227 255
207 227 255
207 227 255
206 227 255
206 227 255
206 227 255
206 227 255
206 227 255
206 227 255
206 227 255
206 227 255
206 227 255
206 227 255
206 227 255
206 227 255
206 227 255
206 227 255
206 227 255
206 227 255
206 227 255
205 227 255
205 227 255
205 227 255
205 227 255
205 227 255
205 227 255
205 227 255
205 227 255
205 227 255
205 227 255
205 226 255
205 226 255
205 226 255
205 226 255
205 226 255
205 226 255
204 226 255
204 226 255
204 226 255
204 226 255
204 226 255
204 226 255
204 226 255
204 226 255
204 226 255
204 226 255
204 226 255
204 226 255
204 226 255
204 226 255
204 226 255
204 226 255
203 226 255
203 226 255
203 226 255
203 226 255
203 226 255
203 226 255
203 226 255
203 225 255
203 225 255
203 225 255
203 225 255
203 225 255
203 225 255
203 225 255
203 225 255
203 225 255
202 225 255
202 225 255
202 225 255
202 225 255
202 225 255
202 225 255
202 225 255
202 225 255
202 225 255
202 225 255
202 225 255
202 225 255
202 225 255
202 225 255
202 225 255
202 225 255
201 225 255
201 225 255
201 225 255
201 225 255
201 225 255
201 225 255
201 224 255
201 224 255
201 224 255
201 224 255
201 224 255
201 224 255
201 224 255
201 224 255
201 224 255
201 224 255
201 224 255
201 224 255
201 224 255
200 224 255
200 224 255
200 224 255
200 224 255
200 224 255
200 224 255
200 224 255
200 224 255
200 224 255
200 224 255
200 224 255
200 224 255
200 224 255
200 224 255
200 224 255
200 224 255
200 224 255
200 224 255
200 224 255
200 224 255
200 224 255
200 224 255
200 224 255
200 224 255
200 224 255
200 224 255
200 224 255
200 224 255
200 224 255
200 224 255
200 224 255
200 224 255
200 224 255
200 224 255
199 224 255
199 224 255
199 224 255
199 224 255
199 224 255
199 224 255
199 224 255
199 224 255
199 224 255
199 224 255
199 224 255
199 224 255
199 224 255
199 224 255
199 224 255
199 224 255
199 224 255
199 224 255
199 224 255
200 224 255
200 224 255
200 224 255
200 224 255
200 224 255
200 224 255
200 224 255
200 224 255
200 224 255
200 224 255
200 224 255
200 224 255
200 224 255
200 224 255
200 224 255
200 224 255
200 224 255
200 224 255
200 224 255
200 224 255
200 224 255
200 224 255
200 224 255
200 224 255
200 224 255
200 224 255
200 224 255
200 224 255
200 224 255
200 224 255
200 224 255
200 224 255
200 224 255
201 224 255
201 224 255
201 224 255
201 224 255
201 224 255
201 224 255
201 224 255
201 224 255
201 224 255
201 224 255
201 224 255
201 224 255
201 224 255
201 224 255
201 225 255
201 225 255
201 225 255
201 225 255
201 225 255
202 225 255
202 225 255
202 225 255
202 225 255
202 225 255
202 225 255
202 225 255
202 225 255
202 225 255
202 225 255
202 225 255
202 225 255
202 225 255
202 225 255
202 225 255
202 225 255
203 225 255
203 225 255
203 225 255
203 225 255
203 225 255
203 225 255
203 225 255
203 225 255
203 225 255
203 226 255
203 226 255
203 226 255
203 226 255
203 226 255
203 226 255
203 226 255
204 226 255
204 226 255
204 226 255
204 226 255
204 226 255
204 226 255
204 226 255
204 226 255
204 226 255
204 226 255
204 226 255
204 226 255
204 226 255
204 226 255
204 226 255
204 226 255
205 226 255
205 226 255
205 226 255
205 226 255
205 226 255
205 226 255
205 227 255
205 227 255
205 227 255
205 227 255
205 227 255
205 227 255
205 227 255
205 227 255
205 227 255
205 227 255
206 227 255
206 227 255
206 227 255
206 227 255
206 227 255
206 227 255
206 227 255
206 227 255
206 227 255
206 227 255
206 227 255
206 227 255
206 227 255
206 227 255
206 227 255
206 227 255
206 227 255
206 227 255
207 227 255
207 227 255
207 227 255
207 227 255
207 228 255
207 228 255
207 228 255
207 228 255
207 228 255
207 228 255
207 228 255
207 228 255
207 228 255
207 228 255
207 228 255
207 228 255
207 228 255
207 228 255
208 228 255
208 228 255
208 228 255
208 228 255
208 228 255
208 228 255
208 228 255
208 228 255
208 228 255
208 228 255
208 228 255
208 228 255
208 228 255
208 228 255
208 228 255
208 228 255
208 228 255
208 228 255
208 228 255
208 228 255
208 228 255
209 228 255
209 229 255
209 229 255
209 229 255
209 229 255
209 229 255
209 229 255
209 229 255
209 229 255
209 229 255
209 229 255
209 229 255
209 229 255
209 229 255
209 229 255
209 229 255
209 229 255
209 229 255
209 229 255
209 229 255
209 229 255
209 229 255
209 229 255
209 229 255
209 229 255
209 229 255
209 229 255
209 229 255
209 229 255
209 229 255
209 229 255
209 229 255
209 229 255
209 229 255
209 229 255
209 229 255
209 228 255
208 228 255
208 228 255
208 228 255
208 228 255
208 228 255
208 228 255
208 228 255
208 228 255
208 228 255
208 228 255
208 228 255
208 228 255
208 228 255
208 228 255
208 228 255
208 228 255
208 228 255
208 228 255
208 228 255
208 228 255
208 228 255
207 228 255
207 228 255
207 228 255
207 228 255
207 228 255
207 228 255
207 228 255
207 228 255
207 228 255
207 228 255
207 228 255
207 228 255
207 228 255
207 228 255
207 227 255
207 227 255
207 227 255
207 227 255
206 227 255
206 227 255
206 227 255
206 227 255
206 227 255
206 227 255
206 227 255
206 227 255
206 227 255
206 227 255
206 227 255
206 227 255
206 227 255
206 227 255
206 227 255
206 227 255
206 227 255
206 227 255
205 227 255
205 227 255
205 227 255
205 227 255
205 227 255
205 227 255
205 227 255
205 227 255
205 227 255
205 227 255
205 226 255
205 226 255
205 226 255
205 226 255
205 226 255
205 226 255
204 226 255
204 226 255
204 226 255
204 226 255
204 226 255
204 226 255
204 226 255
204 226 255
204 226 255
204 226 255
204 226 255
204 226 255
204 226 255
204 226 255
204 226 255
204 226 255
203 226 255
203 226 255
203 226 255
203 226 255
203 226 255
203 226 255
203 226 255
203 225 255
203 225 255
203 225 255
203 225 255
203 225 255
203 225 255
203 225 255
203 225 255
203 225 255
202 225 255
202 225 255
202 225 255
202 225 255
202 225 255
202 225 255
202 225 255
202 225 255
202 225 255
202 225 255
202 225 255
202 225 255
202 225 255
202 225 255
202 225 255
202 225 255
202 225 255
201 225 255
201 225 255
201 225 255
201 225 255
201 225 255
201 224 255
201 224 255
201 224 255
201 224 255
201 224 255
201 224 255
201 224 255
201 224 255
201 224 255
201 224 255
201 224 255
201 224 255
201 224 255
201 224 255
201 224 255
200 224 255
200 224 255
200 224 255
200 224 255
200 224 255
200 224 255
200 224 255
200 224 255
200 224 255
200 224 255
200 224 255
200 224 255
200 224 255
200 224 255
200 224 255
200 224 255
200 224 255
200 224 255
200 224 255
200 224 255
200 224 255
200 224 255
200 224 255
200 224 255
200 224 255
200 224 255
200 224 255
200 224 255
200 224 255
200 224 255
200 224 255
200 224 255
200 224 255
200 224 255
200 224 255
200 224 255
200 224 255
200 224 255
200 224 255
200 224 255
200 224 255
200 224 255
200 224 255
200 224 255
200 224 255
200 224 255
200 224 255
200 224 255
200 224 255
200 224 255
200 224 255
200 224 255
200 224 255
200 224 255
200 224 255
200 224 255
200 224 255
200 224 255
200 224 255
200 224 255
200 224 255
200 224 255
200 224 255
200 224 255
200 224 255
200 224 255
200 224 255
200 224 255
200 224 255
200 224 255
200 224 255
200 224 255
200 224 255
200 224 255
200 224 255
200 224 255
201 224 255
201 224 255
201 224 255
201 224 255
201 224 255
201 224 255
201 224 255
201 224 255
201 224 255
201 224 255
201 224 255
201 224 255
201 224 255
201 224 255
201 224 255
201 225 255
201 225 255
201 225 255
201 225 255
201 225 255
202 225 255
202 225 255
202 225 255
202 225 255
202 225 255
202 225 255
202 225 255
202 225 255
202 225 255
202 225 255
202 225 255
202 225 255
202 225 255
202 225 255
202 225 255
202 225 255
202 225 255
203 225 255
203 225 255
203 225 255
203 225 255
203 225 255
203 225 255
203 225 255
203 225 255
203 225 255
203 226 255
203 226 255
203 226 255
203 226 255
203 226 255
203 226 255
203 226 255
204 226 255
204 226 255
204 226 255
204 226 255
204 226 255
204 226 255
204 226 255
204 226 255
204 226 255
204 226 255
204 226 255
204 226 255
204 226 255
204 226 255
204 226 255
204 226 255
205 226 255
205 226 255
205 226 255
205 226 255
205 226 255
205 226 255
205 226 255
205 227 255
205 227 255
205 227 255
205 227 255
205 227 255
205 227 255
205 227 255
205 227 255
205 227 255
206 227 255
206 227 255
206 227 255
206 227 255
206 227 255
206 227 255
206 227 255
206 227 255
206 227 255
206 227 255
206 227 255
206 227 255
206 227 255
206 227 255
206 227 255
206 227 255
206 227 255
207 227 255
207 227 255
207 227 255
207 227 255
207 227 255
207 228 255
207 228 255
207 228 255
207 228 255
207 228 255
207 228 255
207 228 255
207 228 255
207 228 255
207 228 255
207 228 255
207 228 255
207 228 255
207 228 255
208 228 255
208 228 255
208 228 255
208 228 255
208 228 255
208 228 255
208 228 255
208 228 255
208 228 255
208 228 255
208 228 255
208 228 255
208 228 255
208 228 255
208 228 255
208 228 255
208 228 255
208 228 255
208 228 255
208 228 255
209 228 255
209 228 255
209 229 255
209 229 255
209 229 255
209 229 255
209 229 255
209 229 255
209 229 255
209 229 255
209 229 255
209 229 255
209 229 255
209 229 255
209 229 255
209 229 255
209 229 255
209 229 255
209 229 255
209 229 255
209 229 255
210 229 255
209 229 255
209 229 255
209 229 255
209 229 255
209 229 255
209 229 255
209 229 255
209 229 255
209 229 255
209 229 255
209 229 255
209 229 255
209 229 255
209 229 255
209 229 255
209 229 255
209 229 255
209 229 255
209 229 255
209 229 255
209 229 255
209 228 255
209 228 255
208 228 255
208 228 255
208 228 255
208 228 255
208 228 255
208 228 255
208 228 255
208 228 255
208 228 255
208 228 255
208 228 255
208 228 255
208 228 255
208 228 255
208 228 255
208 228 255
208 228 255
208 228 255
208 228 255
208 228 255
207 228 255
207 228 255
207 228 255
207 228 255
207 228 255
207 228 255
207 228 255
207 228 255
207 228 255
207 228 255
207 228 255
207 228 255
207 228 255
207 228 255
207 227 255
207 227 255
207 227 255
207 227 255
207 227 255
206 227 255
206 227 255
206 227 255
206 227 255
206 227 255
206 227 255
206 227 255
206 227 255
206 227 255
206 227 255
206 227 255
206 227 255
206 227 255
206 227 255
206 227 255
206 227 255
206 227 255
205 227 255
205 227 255
205 227 255
205 227 255
205 227 255
205 227 255
205 227 255
205 227 255
205 227 255
205 227 255
205 226 255
205 226 255
205 226 255
205 226 255
205 226 255
205 226 255
204 226 255
204 226 255
204 226 255
204 226 255
204 226 255
204 226 255
204 226 255
204 226 255
204 226 255
204 226 255
204 226 255
204 226 255
204 226 255
204 226 255
204 226 255
204 226 255
203 226 255
203 226 255
203 226 255
203 226 255
203 226 255
203 226 255
203 226 255
203 225 255
203 225 255
203 225 255
203 225 255
203 225 255
203 225 255
203 225 255
203 225 255
203 225 255
202 225 255
202 225 255
202 225 255
202 225 255
202 225 255
202 225 255
202 225 255
202 225 255
202 225 255
202 225 255
202 225 255
202 225 255
202 225 255
202 225 255
202 225 255
202 225 255
202 225 255
202 225 255
201 225 255
201 225 255
201 225 255
201 225 255
201 225 255
201 224 255
201 224 255
201 224 255
201 224 255
201 224 255
201 224 255
201 224 255
201 224 255
201 224 255
201 224 255
201 224 255
201 224 255
201 224 255
201 224 255
201 224 255
201 224 255
200 224 255
200 224 255
200 224 255
200 224 255
200 224 255
200 224 255
200 224 255
200 224 255
200 224 255
200 224 255
200 224 255
200 224 255
200 224 255
200 224 255
200 224 255
200 224 255
200 224 255
200 224 255
200 224 255
200 224 255
200 224 255
200 224 255
200 224 255
200 224 255
200 224 255
200 224 255
200 224 255
200 224 255
200 224 255
200 224 255
200 224 255
200 224 255
200 224 255
200 224 255
200 224 255
200 224 255
200 224 255
200 224 255
200 224 255
200 224 255
200 224 255
200 224 255
200 224 255
200 224 255
200 224 255
200 224 255
200 224 255
200 224 255
200 224 255
200 224 255
200 224 255
200 224 255
200 224 255
200 224 255
200 224 255
200 224 255
200 224 255
200 224 255
200 224 255
200 224 255
200 224 255
200 224 255
200 224 255
200 224 255
200 224 255
200 224 255
201 224 255
201 224 255
201 224 255
201 224 255
201 224 255
201 224 255
201 224 255
201 224 255
201 224 255
201 224 255
201 224 255
201 224 255
201 224 255
201 224 255
201 224 255
201 224 255
201 225 255
201 225 255
201 225 255
201 225 255
201 225 255
201 225 255
202 225 255
202 225 255
202 225 255
202 225 255
202 225 255
202 225 255
202 225 255
202 225 255
202 225 255
202 225 255
202 225 255
202 225 255
202 225 255
202 225 255
202 225 255
202 225 255
202 225 255
203 225 255
203 225 255
203 225 255
203 225 255
203 225 255
203 225 255
203 225 255
203 225 255
203 225 255
203 226 255
203 226 255
203 226 255
203 226 255
203 226 255
203 226 255
203 226 255
204 226 255
204 226 255
204 226 255
204 226 255
204 226 255
204 226 255
204 226 255
204 226 255
204 226 255
204 226 255
204 226 255
204 226 255
204 226 255
204 226 255
204 226 255
204 226 255
205 226 255
205 226 255
205 226 255
205 226 255
205 226 255
205 226 255
205 227 255
205 227 255
205 227 255
205 227 255
205 227 255
205 227 255
205 227 255
205 227 255
205 227 255
205 227 255
206 227 255
206 227 255
206 227 255
206 227 255
206 227 255
206 227 255
206 227 255
206 227 255
206 227 255
206 227 255
206 227 255
206 227 255
206 227 255
206 227 255
206 227 255
206 227 255
206 227 255
207 227 255
207 227 255
207 227 255
207 227 255
207 227 255
207 228 255
207 228 255
207 228 255
207 228 255
207 228 255
207 228 255
207 228 255
207 228 255
207 228 255
207 228 255
207 228 255
207 228 255
207 228 255
207 228 255
208 228 255
208 228 255
208 228 255
208 228 255
208 228 255
208 228 255
208 228 255
208 228 255
208 228 255
208 228 255
208 228 255
208 228 255
208 228 255
208 228 255
208 228 255
208 228 255
208 228 255
208 228 255
208 228 255
208 228 255
209 228 255
209 228 255
209 229 255
209 229 255
209 229 255
209 229 255
209 229 255
209 229 255
209 229 255
209 229 255
209 229 255
209 229 255
209 229 255
209 229 255
209 229 255
209 229 255
209 229 255
209 229 255
209 229 255
209 229 255
209 229 255
209 229 255
209 229 255
210 229 255
210 229 255
210 229 255
210 229 255
210 229 255
210 229 255
209 229 255
209 229 255
209 229 255
209 229 255
209 229 255
209 229 255
209 229 255
209 229 255
209 229 255
209 229 255
209 229 255
209 229 255
209 229 255
209 229 255
209 229 255
209 229 255
209 229 255
209 229 255
209 229 255
209 229 255
209 229 255
209 228 255
209 228 255
208 228 255
208 228 255
208 228 255
208 228 255
208 228 255
208 228 255
208 228 255
208 228 255
208 228 255
208 228 255
208 228 255
208 228 255
208 228 255
208 228 255
208 228 255
208 228 255
208 228 255
208 228 255
208 228 255
207 228 255
207 228 255
207 228 255
207 228 255
207 228 255
207 228 255
207 228 255
207 228 255
207 228 255
207 228 255
207 228 255
207 228 255
207 228 255
207 228 255
207 228 255
207 227 255
207 227 255
207 227 255
207 227 255
206 227 255
206 227 255
206 227 255
206 227 255
206 227 255
206 227 255
206 227 255
206 227 255
206 227 255
206 227 255
206 227 255
206 227 255
206 227 255
206 227 255
206 227 255
206 227 255
206 227 255
205 227 255
205 227 255
205 227 255
205 227 255
205 227 255
205 227 255
205 227 255
205 227 255
205 227 255
205 227 255
205 226 255
205 226 255
205 226 255
205 226 255
205 226 255
205 226 255
204 226 255
204 226 255
204 226 255
204 226 255
204 226 255
204 226 255
204 226 255
204 226 255
204 226 255
204 226 255
204 226 255
204 226 255
204 226 255
204 226 255
204 226 255
204 226 255
203 226 255
203 226 255
203 226 255
203 226 255
203 226 255
203 226 255
203 226 255
203 225 255
203 225 255
203 225 255
203 225 255
203 225 255
203 225 255
203 225 255
203 225 255
203 225 255
203 225 255
202 225 255
202 225 255
202 225 255
202 225 255
202 225 255
202 225 255
202 225 255
202 225 255
202 225 255
202 225 255
202 225 255
202 225 255
202 225 255
202 225 255
202 225 255
202 225 255
202 225 255
202 225 255
201 225 255
201 225 255
201 225 255
201 225 255
201 225 255
201 225 255
201 224 255
201 224 255
201 224 255
201 224 255
201 224 255
201 224 255
201 224 255
201 224 255
201 224 255
201 224 255
201 224 255
201 224 255
201 224 255
201 224 255
201 224 255
201 224 255
201 224 255
201 224 255
200 224 255
200 224 255
200 224 255
200 224 255
200 224 255
200 224 255
200 224 255
200 224 255
200 224 255
200 224 255
200 224 255
200 224 255
200 224 255
200 224 255
200 224 255
200 224 255
200 224 255
200 224 255
200 224 255
200 224 255
200 224 255
200 224 255
200 224 255
200 224 255
200 224 255
200 224 255
200 224 255
200 224 255
200 224 255
200 224 255
200 224 255
200 224 255
200 224 255
200 224 255
200 224 255
200 224 255
200 224 255
200 224 255
200 224 255
200 224 255
200 224 255
200 224 255
200 224 255
200 224 255
200 224 255
200 224 255
200 224 255
200 224 255
200 224 255
200 224 255
200 224 255
200 224 255
200 224 255
201 224 255
201 224 255
201 224 255
201 224 255
201 224 255
201 224 255
201 224 255
201 224 255
201 224 255
201 224 255
201 224 255
201 224 255
201 224 255
201 224 255
201 224 255
201 224 255
201 224 255
201 225 255
201 225 255
201 225 255
201 225 255
201 225 255
201 225 255
202 225 255
202 225 255
202 225 255
202 225 255
202 225 255
202 225 255
202 225 255
202 225 255
202 225 255
202 225 255
202 225 255
202 225 255
202 225 255
202 225 255
202 225 255
202 225 255
202 225 255
202 225 255
203 225 255
203 225 255
203 225 255
203 225 255
203 225 255
203 225 255
203 225 255
203 225 255
203 225 255
203 225 255
203 226 255
203 226 255
203 226 255
203 226 255
203 226 255
203 226 255
203 226 255
204 226 255
204 226 255
204 226 255
204 226 255
204 226 255
204 226 255
204 226 255
204 226 255
204 226 255
204 226 255
204 226 255
204 226 255
204 226 255
204 226 255
204 226 255
204 226 255
205 226 255
205 226 255
205 226 255
205 226 255
205 226 255
205 226 255
205 226 255
205 227 255
205 227 255
205 227 255
205 227 255
205 227 255
205 227 255
205 227 255
205 227 255
205 227 255
206 227 255
206 227 255
206 227 255
206 227 255
206 227 255
206 227 255
206 227 255
206 227 255
206 227 255
206 227 255
206 227 255
206 227 255
206 227 255
206 227 255
206 227 255
206 227 255
206 227 255
207 227 255
207 227 255
207 227 255
207 227 255
207 227 255
207 228 255
207 228 255
207 228 255
207 228 255
207 228 255
207 228 255
207 228 255
207 228 255
207 228 255
207 228 255
207 228 255
207 228 255
207 228 255
207 228 255
208 228 255
208 228 255
208 228 255
208 228 255
208 228 255
208 228 255
208 228 255
208 228 255
208 228 255
208 228 255
208 228 255
208 228 255
208 228 255
208 228 255
208 228 255
208 228 255
208 228 255
208 228 255
208 228 255
208 228 255
209 228 255
209 229 255
209 229 255
209 229 255
209 229 255
209 229 255
209 229 255
209 229 255
209 229 255
209 229 255
209 229 255
209 229 255
209 229 255
209 229 255
209 229 255
209 229 255
209 229 255
209 229 255
209 229 255
209 229 255
209 229 255
209 229 255
210 229 255
210 229 255
210 229 255
210 229 255
210 229 255
210 229 255
210 229 255
210 229 255
210 229 255
210 229 255
210 229 255
210 229 255
210 229 255
209 229 255
209 229 255
209 229 255
209 229 255
209 229 255
209 229 255
209 229 255
209 229 255
209 229 255
209 229 255
209 229 255
209 229 255
209 229 255
209 229 255
209 229 255
209 229 255
209 229 255
209 229 255
209 229 255
209 229 255
209 229 255
209 228 255
209 228 255
208 228 255
208 228 255
208 228 255
208 228 255
208 228 255
208 228 255
208 228 255
208 228 255
208 228 255
208 228 255
208 228 255
208 228 255
208 228 255
208 228 255
208 228 255
208 228 255
208 228 255
208 228 255
208 228 255
208 228 255
207 228 255
207 228 255
207 228 255
207 228 255
207 228 255
207 228 255
207 228 255
207 228 255
207 228 255
207 228 255
207 228 255
207 228 255
207 228 255
207 228 255
207 227 255
207 227 255
207 227 255
207 227 255
206 227 255
206 227 255
206 227 255
206 227 255
206 227 255
206 227 255
206 227 255
206 227 255
206 227 255
206 227 255
206 227 255
206 227 255
206 227 255
206 227 255
206 227 255
206 227 255
206 227 255
205 227 255
205 227 255
205 227 255
205 227 255
205 227 255
205 227 255
205 227 255
205 227 255
205 227 255
205 227 255
205 226 255
205 226 255
205 226 255
205 226 255
205 226 255
205 226 255
204 226 255
204 226 255
204 226 255
204 226 255
204 226 255
204 226 255
204 226 255
204 226 255
204 226 255
204 226 255
204 226 255
204 226 255
204 226 255
204 226 255
204 226 255
204 226 255
203 226 255
203 226 255
203 226 255
203 226 255
203 226 255
203 226 255
203 226 255
203 226 255
203 225 255
203 225 255
203 225 255
203 225 255
203 225 255
203 225 255
203 225 255
203 225 255
203 225 255
202 225 255
202 225 255
202 225 255
202 225 255
202 225 255
202 225 255
202 225 255
202 225 255
202 225 255
202 225 255
202 225 255
202 225 255
202 225 255
202 225 255
202 225 255
202 225 255
202 225 255
202 225 255
202 225 255
201 225 255
201 225 255
201 225 255
201 225 255
201 225 255
201 225 255
201 224 255
201 224 255
201 224 255
201 224 255
201 224 255
201 224 255
201 224 255
201 224 255
201 224 255
201 224 255
201 224 255
201 224 255
201 224 255
201 224 255
201 224 255
201 224 255
201 224 255
201 224 255
201 224 255
201 224 255
201 224 255
200 224 255
200 224 255
200 224 255
200 224 255
200 224 255
200 224 255
200 224 255
200 224 255
200 224 255
200 224 255
200 224 255
200 224 255
200 224 255
200 224 255
200 224 255
200 224 255
200 224 255
200 224 255
200 224 255
200 224 255
200 224 255
200 224 255
200 224 255
200 224 255
200 224 255
200 224 255
200 224 255
200 224 255
200 224 255
200 224 255
200 224 255
200 224 255
200 224 255
200 224 255
200 224 255
200 224 255
200 224 255
201 224 255
201 224 255
201 224 255
201 224 255
201 224 255
201 224 255
201 224 255
201 224 255
201 224 255
201 224 255
201 224 255
201 224 255
201 224 255
201 224 255
201 224 255
201 224 255
201 224 255
201 224 255
201 224 255
201 224 255
201 224 255
201 224 255
201 225 255
201 225 255
201 225 255
201 225 255
201 225 255
201 225 255
202 225 255
202 225 255
202 225 255
202 225 255
202 225 255
202 225 255
202 225 255
202 225 255
202 225 255
202 225 255
202 225 255
202 225 255
202 225 255
202 225 255
202 225 255
202 225 255
202 225 255
202 225 255
202 225 255
203 225 255
203 225 255
203 225 255
203 225 255
203 225 255
203 225 255
203 225 255
203 225 255
203 225 255
203 226 255
203 226 255
203 226 255
203 226 255
203 226 255
203 226 255
203 226 255
203 226 255
204 226 255
204 226 255
204 226 255
204 226 255
204 226 255
204 226 255
204 226 255
204 226 255
204 226 255
204 226 255
204 226 255
204 226 255
204 226 255
204 226 255
204 226 255
204 226 255
205 226 255
205 226 255
205 226 255
205 226 255
205 226 255
205 226 255
205 227 255
205 227 255
205 227 255
205 227 255
205 227 255
205 227 255
205 227 255
205 227 255
205 227 255
205 227 255
206 227 255
206 227 255
206 227 255
206 227 255
206 227 255
206 227 255
206 227 255
206 227 255
206 227 255
206 227 255
206 227 255
206 227 255
206 227 255
206 227 255
206 227 255
206 227 255
206 227 255
207 227 255
207 227 255
207 227 255
207 227 255
207 228 255
207 228 255
207 228 255
207 228 255
207 228 255
207 228 255
207 228 255
207 228 255
207 228 255
207 228 255
207 228 255
207 228 255
207 228 255
207 228 255
207 228 255
208 228 255
208 228 255
208 228 255
208 228 255
208 228 255
208 228 255
208 228 255
208 228 255
208 228 255
208 228 255
208 228 255
208 228 255
208 228 255
208 228 255
208 228 255
208 228 255
208 228 255
208 228 255
208 228 255
209 228 255
209 228 255
209 229 255
209 229 255
209 229 255
209 229 255
209 229 255
209 229 255
209 229 255
209 229 255
209 229 255
209 229 255
209 229 255
209 229 255
209 229 255
209 229 255
209 229 255
209 229 255
209 229 255
209 229 255
209 229 255
209 229 255
209 229 255
210 229 255
210 229 255
210 229 255
210 229 255
210 229 255
210 229 255
210 229 255
210 229 255
210 229 255
210 229 255
210 229 255
210 229 255
210 229 255
210 229 255
210 229 255
210 229 255
210 229 255
210 229 255
210 229 255
210 229 255
209 229 255
209 229 255
209 229 255
209 229 255
209 229 255
209 229 255
209 229 255
209 229 255
209 229 255
209 229 255
209 229 255
209 229 255
209 229 255
209 229 255
209 229 255
209 229 255
209 229 255
209 229 255
209 229 255
209 229 255
209 229 255
209 228 255
208 228 255
208 228 255
208 228 255
208 228 255
208 228 255
208 228 255
208 228 255
208 228 255
208 228 255
208 228 255
208 228 255
208 228 255
208 228 255
208 228 255
208 228 255
208 228 255
208 228 255
208 228 255
208 228 255
208 228 255
207 228 255
207 228 255
207 228 255
207 228 255
207 228 255
207 228 255
207 228 255
207 228 255
207 228 255
207 228 255
207 228 255
207 228 255
207 228 255
207 228 255
207 227 255
207 227 255
207 227 255
207 227 255
206 227 255
206 227 255
206 227 255
206 227 255
206 227 255
206 227 255
206 227 255
206 227 255
206 227 255
206 227 255
206 227 255
206 227 255
206 227 255
206 227 255
206 227 255
206 227 255
206 227 255
205 227 255
205 227 255
205 227 255
205 227 255
205 227 255
205 227 255
205 227 255
205 227 255
205 227 255
205 227 255
205 226 255
205 226 255
205 226 255
205 226 255
205 226 255
205 226 255
204 226 255
204 226 255
204 226 255
204 226 255
204 226 255
204 226 255
204 226 255
204 226 255
204 226 255
204 226 255
204 226 255
204 226 255
204 226 255
204 226 255
204 226 255
204 226 255
204 226 255
203 226 255
203 226 255
203 226 255
203 226 255
203 226 255
203 226 255
203 226 255
203 225 255
203 225 255
203 225 255
203 225 255
203 225 255
203 225 255
203 225 255
203 225 255
203 225 255
203 225 255
202 225 255
202 225 255
202 225 255
202 225 255
202 225 255
202 225 255
202 225 255
202 225 255
202 225 255
202 225 255
202 225 255
202 225 255
202 225 255
202 225 255
202 225 255
202 225 255
202 225 255
202 225 255
202 225 255
202 225 255
201 225 255
201 225 255
201 225 255
201 225 255
201 225 255
201 225 255
201 224 255
201 224 255
201 224 255
201 224 255
201 224 255
201 224 255
201 224 255
201 224 255
201 224 255
201 224 255
201 224 255
201 224 255
201 224 255
201 224 255
201 224 255
201 224 255
201 224 255
201 224 255
201 224 255
201 224 255
201 224 255
201 224 255
201 224 255
201 224 255
201 224 255
201 224 255
201 224 255
201 224 255
201 224 255
201 224 255
201 224 255
201 224 255
201 224 255
201 224 255
201 224 255
201 224 255
201 224 255
201 224 255
201 224 255
201 224 255
201 224 255
201 224 255
201 224 255
201 224 255
201 224 255
201 224 255
201 224 255
201 224 255
201 224 255
201 224 255
201 224 255
201 224 255
201 224 255
201 224 255
201 224 255
201 224 255
201 224 255
201 224 255
201 224 255
201 224 255
201 224 255
201 224 255
201 224 255
201 224 255
201 224 255
201 224 255
201 224 255
201 224 255
201 224 255
201 225 255
201 225 255
201 225 255
201 225 255
201 225 255
201 225 255
201 225 255
202 225 255
202 225 255
202 225 255
202 225 255
202 225 255
202 225 255
202 225 255
202 225 255
202 225 255
202 225 255
202 225 255
202 225 255
202 225 255
202 225 255
202 225 255
202 225 255
202 225 255
202 225 255
202 225 255
202 225 255
203 225 255
203 225 255
203 225 255
203 225 255
203 225 255
203 225 255
203 225 255
203 225 255
203 225 255
203 225 255
203 226 255
203 226 255
203 226 255
203 226 255
203 226 255
203 226 255
203 226 255
204 226 255
204 226 255
204 226 255
204 226 255
204 226 255
204 226 255
204 226 255
204 226 255
204 226 255
204 226 255
204 226 255
204 226 255
204 226 255
204 226 255
204 226 255
204 226 255
204 226 255
205 226 255
205 226 255
205 226 255
205 226 255
205 226 255
205 226 255
205 227 255
205 227 255
205 227 255
205 227 255
205 227 255
205 227 255
205 227 255
205 227 255
205 227 255
205 227 255
206 227 255
206 227 255
206 227 255
206 227 255
206 227 255
206 227 255
206 227 255
206 227 255
206 227 255
206 227 255
206 227 255
206 227 255
206 227 255
206 227 255
206 227 255
206 227 255
206 227 255
207 227 255
207 227 255
207 227 255
207 227 255
207 228 255
207 228 255
207 228 255
207 228 255
207 228 255
207 228 255
207 228 255
207 228 255
207 228 255
207 228 255
207 228 255
207 228 255
207 228 255
207 228 255
208 228 255
208 228 255
208 228 255
208 228 255
208 228 255
208 228 255
208 228 255
208 228 255
208 228 255
208 228 255
208 228 255
208 228 255
208 228 255
208 228 255
208 228 255
208 228 255
208 228 255
208 228 255
208 228 255
208 228 255
209 228 255
209 229 255
209 229 255
209 229 255
209 229 255
209 229 255
209 229 255
209 229 255
209 229 255
209 229 255
209 229 255
209 229 255
209 229 255
209 229 255
209 229 255
209 229 255
209 229 255
209 229 255
209 229 255
209 229 255
209 229 255
209 229 255
210 229 255
210 229 255
210 229 255
210 229 255
210 229 255
210 229 255
210 229 255
210 229 255
210 229 255
210 229 255
210 229 255
210 229 255
210 229 255
210 229 255
210 229 255
210 229 255
210 229 255
210 229 255
210 229 255
210 229 255
210 229 255
210 229 255
210 229 255
210 229 255
210 229 255
210 229 255
210 229 255
210 229 255
209 229 255
209 229 255
209 229 255
209 229 255
209 229 255
209 229 255
209 229 255
209 229 255
209 229 255
209 229 255
209 229 255
209 229 255
209 229 255
209 229 255
209 229 255
209 229 255
209 229 255
209 229 255
209 229 255
209 229 255
209 228 255
209 228 255
208 228 255
208 228 255
208 228 255
208 228 255
208 228 255
208 228 255
208 228 255
208 228 255
208 228 255
208 228 255
208 228 255
208 228 255
208 228 255
208 228 255
208 228 255
208 228 255
208 228 255
208 228 255
208 228 255
207 228 255
207 228 255
207 228 255
207 228 255
207 228 255
207 228 255
207 228 255
207 228 255
207 228 255
207 228 255
207 228 255
207 228 255
207 228 255
207 228 255
207 227 255
207 227 255
207 227 255
207 227 255
206 227 255
206 227 255
206 227 255
206 227 255
206 227 255
206 227 255
206 227 255
206 227 255
206 227 255
206 227 255
206 227 255
206 227 255
206 227 255
206 227 255
206 227 255
206 227 255
206 227 255
205 227 255
205 227 255
205 227 255
205 227 255
205 227 255
205 227 255
205 227 255
205 227 255
205 227 255
205 227 255
205 226 255
205 226 255
205 226 255
205 226 255
205 226 255
205 226 255
204 226 255
204 226 255
204 226 255
204 226 255
204 226 255
204 226 255
204 226 255
204 226 255
204 226 255
204 226 255
204 226 255
204 226 255
204 226 255
204 226 255
204 226 255
204 226 255
204 226 255
203 226 255
203 226 255
203 226 255
203 226 255
203 226 255
203 226 255
203 226 255
203 226 255
203 225 255
203 225 255
203 225 255
203 225 255
203 225 255
203 225 255
203 225 255
203 225 255
203 225 255
202 225 255
202 225 255
202 225 255
202 225 255
202 225 255
202 225 255
202 225 255
202 225 255
202 225 255
202 225 255
202 225 255
202 225 255
202 225 255
202 225 255
202 225 255
202 225 255
202 225 255
202 225 255
202 225 255
202 225 255
202 225 255
202 225 255
201 225 255
201 225 255
201 225 255
201 225 255
201 225 255
201 225 255
201 225 255
201 225 255
201 224 255
201 224 255
201 224 255
201 224 255
201 224 255
201 224 255
201 224 255
201 224 255
201 224 255
201 224 255
201 224 255
201 224 255
201 224 255
201 224 255
201 224 255
201 224 255
201 224 255
201 224 255
201 224 255
201 224 255
201 224 255
201 224 255
201 224 255
201 224 255
201 224 255
201 224 255
201 224 255
201 224 255
201 224 255
201 224 255
201 224 255
201 224 255
201 224 255
201 224 255
201 224 255
201 224 255
201 224 255
201 224 255
201 224 255
201 224 255
201 224 255
201 224 255
201 224 255
201 224 255
201 224 255
201 224 255
201 224 255
201 224 255
201 224 255
201 224 255
201 224 255
201 224 255
201 224 255
201 224 255
201 224 255
201 224 255
201 225 255
201 225 255
201 225 255
201 225 255
201 225 255
201 225 255
201 225 255
201 225 255
202 225 255
202 225 255
202 225 255
202 225 255
202 225 255
202 225 255
202 225 255
202 225 255
202 225 255
202 225 255
202 225 255
202 225 255
202 225 255
202 225 255
202 225 255
202 225 255
202 225 255
202 225 255
202 225 255
202 225 255
202 225 255
203 225 255
203 225 255
203 225 255
203 225 255
203 225 255
203 225 255
203 225 255
203 225 255
203 225 255
203 225 255
203 226 255
203 226 255
203 226 255
203 226 255
203 226 255
203 226 255
203 226 255
203 226 255
204 226 255
204 226 255
204 226 255
204 226 255
204 226 255
204 226 255
204 226 255
204 226 255
204 226 255
204 226 255
204 226 255
204 226 255
204 226 255
204 226 255
204 226 255
204 226 255
205 226 255
205 226 255
205 226 255
205 226 255
205 226 255
205 226 255
205 226 255
205 227 255
205 227 255
205 227 255
205 227 255
205 227 255
205 227 255
205 227 255
205 227 255
205 227 255
205 227 255
206 227 255
206 227 255
206 227 255
206 227 255
206 227 255
206 227 255
206 227 255
206 227 255
206 227 255
206 227 255
206 227 255
206 227 255
206 227 255
206 227 255
206 227 255
206 227 255
206 227 255
207 227 255
207 227 255
207 227 255
207 227 255
207 228 255
207 228 255
207 228 255
207 228 255
207 228 255
207 228 255
207 228 255
207 228 255
207 228 255
207 228 255
207 228 255
207 228 255
207 228 255
207 228 255
208 228 255
208 228 255
208 228 255
208 228 255
208 228 255
208 228 255
208 228 255
208 228 255
208 228 255
208 228 255
208 228 255
208 228 255
208 228 255
208 228 255
208 228 255
208 228 255
208 228 255
208 228 255
208 228 255
208 228 255
209 228 255
209 229 255
209 229 255
209 229 255
209 229 255
209 229 255
209 229 255
209 229 255
209 229 255
209 229 255
209 229 255
209 229 255
209 229 255
209 229 255
209 229 255
209 229 255
209 229 255
209 229 255
209 229 255
209 229 255
209 229 255
210 229 255
210 229 255
210 229 255
210 229 255
210 229 255
210 229 255
210 229 255
210 229 255
210 229 255
210 229 255
210 229 255
210 229 255
210 229 255
210 229 255
210 229 255
210 229 255
210 229 255
210 229 255
210 229 255
210 229 255
210 229 255
210 229 255
210 229 255
210 229 255
210 229 255
210 229 255
210 229 255
210 229 255
210 229 255
210 229 255
210 229 255
210 229 255
210 229 255
210 229 255
210 229 255
210 229 255
209 229 255
209 229 255
209 229 255
209 229 255
209 229 255
209 229 255
209 229 255
209 229 255
209 229 255
209 229 255
209 229 255
209 229 255
209 229 255
209 229 255
209 229 255
209 229 255
209 229 255
209 229 255
209 229 255
209 228 255
209 228 255
208 228 255
208 228 255
208 228 255
208 228 255
208 228 255
208 228 255
208 228 255
208 228 255
208 228 255
208 228 255
208 228 255
208 228 255
208 228 255
208 228 255
208 228 255
208 228 255
208 228 255
208 228 255
208 228 255
208 228 255
207 228 255
207 228 255
207 228 255
207 228 255
207 228 255
207 228 255
207 228 255
207 228 255
207 228 255
207 228 255
207 228 255
207 228 255
207 228 255
207 227 255
207 227 255
207 227 255
207 227 255
207 227 255
206 227 255
206 227 255
206 227 255
206 227 255
206 227 255
206 227 255
206 227 255
206 227 255
206 227 255
206 227 255
206 227 255
206 227 255
206 227 255
206 227 255
206 227 255
206 227 255
205 227 255
205 227 255
205 227 255
205 227 255
205 227 255
205 227 255
205 227 255
205 227 255
205 227 255
205 227 255
205 227 255
205 226 255
205 226 255
205 226 255
205 226 255
205 226 255
205 226 255
204 226 255
204 226 255
204 226 255
204 226 255
204 226 255
204 226 255
204 226 255
204 226 255
204 226 255
204 226 255
204 226 255
204 226 255
204 226 255
204 226 255
204 226 255
204 226 255
204 226 255
203 226 255
203 226 255
203 226 255
203 226 255
203 226 255
203 226 255
203 226 255
203 225 255
203 225 255
203 225 255
203 225 255
203 225 255
203 225 255
203 225 255
203 225 255
203 225 255
203 225 255
203 225 255
202 225 255
202 225 255
202 225 255
202 225 255
202 225 255
202 225 255
202 225 255
202 225 255
202 225 255
202 225 255
202 225 255
202 225 255
202 225 255
202 225 255
202 225 255
202 225 255
202 225 255
202 225 255
202 225 255
202 225 255
202 225 255
202 225 255
202 225 255
201 225 255
201 225 255
201 225 255
201 225 255
201 225 255
201 225 255
201 225 255
201 225 255
201 225 255
201 225 255
201 224 255
201 224 255
201 224 255
201 224 255
201 224 255
201 224 255
201 224 255
201 224 255
201 224 255
201 224 255
201 224 255
201 224 255
201 224 255
201 224 255
201 224 255
201 224 255
201 224 255
201 224 255
201 224 255
201 224 255
201 224 255
201 224 255
201 224 255
201 224 255
201 224 255
201 224 255
201 224 255
201 224 255
201 224 255
201 224 255
201 224 255
201 224 255
201 224 255
201 224 255
201 224 255
201 224 255
201 224 255
201 224 255
201 224 255
201 224 255
201 225 255
201 225 255
201 225 255
201 225 255
201 225 255
201 225 255
201 225 255
201 225 255
201 225 255
201 225 255
202 225 255
202 225 255
202 225 255
202 225 255
202 225 255
202 225 255
202 225 255
202 225 255
202 225 255
202 225 255
202 225 255
202 225 255
202 225 255
202 225 255
202 225 255
202 225 255
202 225 255
202 225 255
202 225 255
202 225 255
202 225 255
202 225 255
202 225 255
203 225 255
203 225 255
203 225 255
203 225 255
203 225 255
203 225 255
203 225 255
203 225 255
203 225 255
203 225 255
203 225 255
203 226 255
203 226 255
203 226 255
203 226 255
203 226 255
203 226 255
203 226 255
204 226 255
204 226 255
204 226 255
204 226 255
204 226 255
204 226 255
204 226 255
204 226 255
204 226 255
204 226 255
204 226 255
204 226 255
204 226 255
204 226 255
204 226 255
204 226 255
204 226 255
205 226 255
205 226 255
205 226 255
205 226 255
205 226 255
205 226 255
205 226 255
205 227 255
205 227 255
205 227 255
205 227 255
205 227 255
205 227 255
205 227 255
205 227 255
205 227 255
206 227 255
206 227 255
206 227 255
206 227 255
206 227 255
206 227 255
206 227 255
206 227 255
206 227 255
206 227 255
206 227 255
206 227 255
206 227 255
206 227 255
206 227 255
206 227 255
206 227 255
207 227 255
207 227 255
207 227 255
207 227 255
207 227 255
207 228 255
207 228 255
207 228 255
207 228 255
207 228 255
207 228 255
207 228 255
207 228 255
207 228 255
207 228 255
207 228 255
207 228 255
207 228 255
208 228 255
208 228 255
208 228 255
208 228 255
208 228 255
208 228 255
208 228 255
208 228 255
208 228 255
208 228 255
208 228 255
208 228 255
208 228 255
208 228 255
208 228 255
208 228 255
208 228 255
208 228 255
208 228 255
208 228 255
209 228 255
209 229 255
209 229 255
209 229 255
209 229 255
209 229 255
209 229 255
209 229 255
209 229 255
209 229 255
209 229 255
209 229 255
209 229 255
209 229 255
209 229 255
209 229 255
209 229 255
209 229 255
209 229 255
209 229 255
209 229 255
209 229 255
210 229 255
210 229 255
210 229 255
210 229 255
210 229 255
210 229 255
210 229 255
210 229 255
210 229 255
210 229 255
210 229 255
210 229 255
210 229 255
210 229 255
210 229 255
210 229 255
210 229 255
210 229 255
210 229 255
210 230 255
210 229 255
210 229 255
210 229 255
210 229 255
210 229 255
210 229 255
210 229 255
210 229 255
210 229 255
210 229 255
210 229 255
210 229 255
210 229 255
210 229 255
210 229 255
210 229 255
210 229 255
210 229 255
210 229 255
210 229 255
210 229 255
210 229 255
209 229 255
209 229 255
209 229 255
209 229 255
209 229 255
209 229 255
209 229 255
209 229 255
209 229 255
209 229 255
209 229 255
209 229 255
209 229 255
209 229 255
209 229 255
209 229 255
209 229 255
209 229 255
209 229 255
209 229 255
209 228 255
208 228 255
208 228 255
208 228 255
208 228 255
208 228 255
208 228 255
208 228 255
208 228 255
208 228 255
208 228 255
208 228 255
208 228 255
208 228 255
208 228 255
208 228 255
208 228 255
208 228 255
208 228 255
208 228 255
208 228 255
207 228 255
207 228 255
207 228 255
207 228 255
207 228 255
207 228 255
207 228 255
207 228 255
207 228 255
207 228 255
207 228 255
207 228 255
207 228 255
207 228 255
207 227 255
207 227 255
207 227 255
207 227 255
206 227 255
206 227 255
206 227 255
206 227 255
206 227 255
206 227 255
206 227 255
206 227 255
206 227 255
206 227 255
206 227 255
206 227 255
206 227 255
206 227 255
206 227 255
206 227 255
206 227 255
205 227 255
205 227 255
205 227 255
205 227 255
205 227 255
205 227 255
205 227 255
205 227 255
205 227 255
205 227 255
205 226 255
205 226 255
205 226 255
205 226 255
205 226 255
205 226 255
205 226 255
204 226 255
204 226 255
204 226 255
204 226 255
204 226 255
204 226 255
204 226 255
204 226 255
204 226 255
204 226 255
204 226 255
204 226 255
204 226 255
204 226 255
204 226 255
204 226 255
203 226 255
203 226 255
203 226 255
203 226 255
203 226 255
203 226 255
203 226 255
203 226 255
203 226 255
203 225 255
203 225 255
203 225 255
203 225 255
203 225 255
203 225 255
203 225 255
203 225 255
203 225 255
203 225 255
202 225 255
202 225 255
202 225 255
202 225 255
202 225 255
202 225 255
202 225 255
202 225 255
202 225 255
202 225 255
202 225 255
202 225 255
202 225 255
202 225 255
202 225 255
202 225 255
202 225 255
202 225 255
202 225 255
202 225 255
202 225 255
202 225 255
202 225 255
202 225 255
202 225 255
202 225 255
201 225 255
201 225 255
201 225 255
201 225 255
201 225 255
201 225 255
201 225 255
201 225 255
201 225 255
201 225 255
201 225 255
201 225 255
201 225 255
201 225 255
201 225 255
201 225 255
201 225 255
201 225 255
201 224 255
201 225 255
201 224 255
201 224 255
201 224 255
201 224 255
201 224 255
201 224 255
201 224 255
201 224 255
201 224 255
201 225 255
201 225 255
201 225 255
201 225 255
201 225 255
201 225 255
201 225 255
201 225 255
201 225 255
201 225 255
201 225 255
201 225 255
201 225 255
201 225 255
201 225 255
201 225 255
201 225 255
202 225 255
202 225 255
202 225 255
202 225 255
202 225 255
202 225 255
202 225 255
202 225 255
202 225 255
202 225 255
202 225 255
202 225 255
202 225 255
202 225 255
202 225 255
202 225 255
202 225 255
202 225 255
202 225 255
202 225 255
202 225 255
202 225 255
202 225 255
202 225 255
202 225 255
202 225 255
203 225 255
203 225 255
203 225 255
203 225 255
203 225 255
203 225 255
203 225 255
203 225 255
203 225 255
203 225 255
203 225 255
203 226 255
203 226 255
203 226 255
203 226 255
203 226 255
203 226 255
203 226 255
203 226 255
204 226 255
204 226 255
204 226 255
204 226 255
204 226 255
204 226 255
204 226 255
204 226 255
204 226 255
204 226 255
204 226 255
204 226 255
204 226 255
204 226 255
204 226 255
204 226 255
205 226 255
205 226 255
205 226 255
205 226 255
205 226 255
205 226 255
205 226 255
205 227 255
205 227 255
205 227 255
205 227 255
205 227 255
205 227 255
205 227 255
205 227 255
205 227 255
205 227 255
206 227 255
206 227 255
206 227 255
206 227 255
206 227 255
206 227 255
206 227 255
206 227 255
206 227 255
206 227 255
206 227 255
206 227 255
206 227 255
206 227 255
206 227 255
206 227 255
206 227 255
207 227 255
207 227 255
207 227 255
207 227 255
207 228 255
207 228 255
207 228 255
207 228 255
207 228 255
207 228 255
207 228 255
207 228 255
207 228 255
207 228 255
207 228 255
207 228 255
207 228 255
207 228 255
208 228 255
208 228 255
208 228 255
208 228 255
208 228 255
208 228 255
208 228 255
208 228 255
208 228 255
208 228 255
208 228 255
208 228 255
208 228 255
208 228 255
208 228 255
208 228 255
208 228 255
208 228 255
208 228 255
208 228 255
209 228 255
209 229 255
209 229 255
209 229 255
209 229 255
209 229 255
209 229 255
209 229 255
209 229 255
209 229 255
209 229 255
209 229 255
209 229 255
209 229 255
209 229 255
209 229 255
209 229 255
209 229 255
209 229 255
209 229 255
209 229 255
210 229 255
210 229 255
210 229 255
210 229 255
210 229 255
210 229 255
210 229 255
210 229 255
210 229 255
210 229 255
210 229 255
210 229 255
210 229 255
210 229 255
210 229 255
210 229 255
210 229 255
210 229 255
210 229 255
210 229 255
210 229 255
210 229 255
210 230 255
211 230 255
211 230 255
210 230 255
210 230 255
210 230 255
210 229 255
210 229 255
210 229 255
210 229 255
210 229 255
210 229 255
210 229 255
210 229 255
210 229 255
210 229 255
210 229 255
210 229 255
210 229 255
210 229 255
210 229 255
210 229 255
210 229 255
210 229 255
210 229 255
210 229 255
210 229 255
210 229 255
209 229 255
209 229 255
209 229 255
209 229 255
209 229 255
209 229 255
209 229 255
209 229 255
209 229 255
209 229 255
209 229 255
209 229 255
209 229 255
209 229 255
209 229 255
209 229 255
209 229 255
209 229 255
209 229 255
209 228 255
209 228 255
208 228 255
208 228 255
208 228 255
208 228 255
208 228 255
208 228 255
208 228 255
208 228 255
208 228 255
208 228 255
208 228 255
208 228 255
208 228 255
208 228 255
208 228 255
208 228 255
208 228 255
208 228 255
208 228 255
207 228 255
207 228 255
207 228 255
207 228 255
207 228 255
207 228 255
207 228 255
207 228 255
207 228 255
207 228 255
207 228 255
207 228 255
207 228 255
207 228 255
207 227 255
207 227 255
207 227 255
207 227 255
206 227 255
206 227 255
206 227 255
206 227 255
206 227 255
206 227 255
206 227 255
206 227 255
206 227 255
206 227 255
206 227 255
206 227 255
206 227 255
206 227 255
206 227 255
206 227 255
206 227 255
205 227 255
205 227 255
205 227 255
205 227 255
205 227 255
205 227 255
205 227 255
205 227 255
205 227 255
205 227 255
205 226 255
205 226 255
205 226 255
205 226 255
205 226 255
205 226 255
205 226 255
204 226 255
204 226 255
204 226 255
204 226 255
204 226 255
204 226 255
204 226 255
204 226 255
204 226 255
204 226 255
204 226 255
204 226 255
204 226 255
204 226 255
204 226 255
204 226 255
204 226 255
203 226 255
203 226 255
203 226 255
203 226 255
203 226 255
203 226 255
203 226 255
203 226 255
203 225 255
203 225 255
203 225 255
203 225 255
203 225 255
203 225 255
203 225 255
203 225 255
203 225 255
203 225 255
203 225 255
203 225 255
202 225 255
202 225 255
202 225 255
202 225 255
202 225 255
202 225 255
202 225 255
202 225 255
202 225 255
202 225 255
202 225 255
202 225 255
202 225 255
202 225 255
202 225 255
202 225 255
202 225 255
202 225 255
202 225 255
202 225 255
202 225 255
202 225 255
202 225 255
202 225 255
202 225 255
202 225 255
202 225 255
202 225 255
202 225 255
202 225 255
202 225 255
202 225 255
201 225 255
201 225 255
201 225 255
201 225 255
201 225 255
201 225 255
201 225 255
201 225 255
201 225 255
201 225 255
201 225 255
201 225 255
201 225 255
201 225 255
201 225 255
201 225 255
201 225 255
201 225 255
201 225 255
201 225 255
201 225 255
201 225 255
201 225 255
201 225 255
202 225 255
202 225 255
202 225 255
202 225 255
202 225 255
202 225 255
202 225 255
202 225 255
202 225 255
202 225 255
202 225 255
202 225 255
202 225 255
202 225 255
202 225 255
202 225 255
202 225 255
202 225 255
202 225 255
202 225 255
202 225 255
202 225 255
202 225 255
202 225 255
202 225 255
202 225 255
202 225 255
202 225 255
202 225 255
202 225 255
202 225 255
202 225 255
203 225 255
203 225 255
203 225 255
203 225 255
203 225 255
203 225 255
203 225 255
203 225 255
203 225 255
203 225 255
203 225 255
203 225 255
203 226 255
203 226 255
203 226 255
203 226 255
203 226 255
203 226 255
203 226 255
203 226 255
204 226 255
204 226 255
204 226 255
204 226 255
204 226 255
204 226 255
204 226 255
204 226 255
204 226 255
204 226 255
204 226 255
204 226 255
204 226 255
204 226 255
204 226 255
204 226 255
204 226 255
205 226 255
205 226 255
205 226 255
205 226 255
205 226 255
205 226 255
205 226 255
205 227 255
205 227 255
205 227 255
205 227 255
205 227 255
205 227 255
205 227 255
205 227 255
205 227 255
205 227 255
206 227 255
206 227 255
206 227 255
206 227 255
206 227 255
206 227 255
206 227 255
206 227 255
206 227 255
206 227 255
206 227 255
206 227 255
206 227 255
206 227 255
206 227 255
206 227 255
206 227 255
207 227 255
207 227 255
207 227 255
207 227 255
207 228 255
207 228 255
207 228 255
207 228 255
207 228 255
207 228 255
207 228 255
207 228 255
207 228 255
207 228 255
207 228 255
207 228 255
207 228 255
207 228 255
208 228 255
208 228 255
208 228 255
208 228 255
208 228 255
208 228 255
208 228 255
208 228 255
208 228 255
208 228 255
208 228 255
208 228 255
208 228 255
208 228 255
208 228 255
208 228 255
208 228 255
208 228 255
208 228 255
209 228 255
209 228 255
209 229 255
209 229 255
209 229 255
209 229 255
209 229 255
209 229 255
209 229 255
209 229 255
209 229 255
209 229 255
209 229 255
209 229 255
209 229 255
209 229 255
209 229 255
209 229 255
209 229 255
209 229 255
209 229 255
210 229 255
210 229 255
210 229 255
210 229 255
210 229 255
210 229 255
210 229 255
210 229 255
210 229 255
210 229 255
210 229 255
210 229 255
210 229 255
210 229 255
210 229 255
210 229 255
210 229 255
210 229 255
210 229 255
210 229 255
210 229 255
210 229 255
210 230 255
210 230 255
210 230 255
211 230 255
211 230 255
211 230 255
211 230 255
211 230 255
211 230 255
211 230 255
211 230 255
210 230 255
210 230 255
210 230 255
210 229 255
210 229 255
210 229 255
210 229 255
210 229 255
210 229 255
210 229 255
210 229 255
210 229 255
210 229 255
210 229 255
210 229 255
210 229 255
210 229 255
210 229 255
210 229 255
210 229 255
210 229 255
210 229 255
210 229 255
210 229 255
209 229 255
209 229 255
209 229 255
209 229 255
209 229 255
209 229 255
209 229 255
209 229 255
209 229 255
209 229 255
209 229 255
209 229 255
209 229 255
209 229 255
209 229 255
209 229 255
209 229 255
209 229 255
209 229 255
209 229 255
209 228 255
208 228 255
208 228 255
208 228 255
208 228 255
208 228 255
208 228 255
208 228 255
208 228 255
208 228 255
208 228 255
208 228 255
208 228 255
208 228 255
208 228 255
208 228 255
208 228 255
208 228 255
208 228 255
208 228 255
208 228 255
207 228 255
207 228 255
207 228 255
207 228 255
207 228 255
207 228 255
207 228 255
207 228 255
207 228 255
207 228 255
207 228 255
207 228 255
207 228 255
207 227 255
207 227 255
207 227 255
207 227 255
207 227 255
206 227 255
206 227 255
206 227 255
206 227 255
206 227 255
206 227 255
206 227 255
206 227 255
206 227 255
206 227 255
206 227 255
206 227 255
206 227 255
206 227 255
206 227 255
206 227 255
206 227 255
205 227 255
205 227 255
205 227 255
205 227 255
205 227 255
205 227 255
205 227 255
205 227 255
205 227 255
205 226 255
205 226 255
205 226 255
205 226 255
205 226 255
205 226 255
205 226 255
205 226 255
204 226 255
204 226 255
204 226 255
204 226 255
204 226 255
204 226 255
204 226 255
204 226 255
204 226 255
204 226 255
204 226 255
204 226 255
204 226 255
204 226 255
204 226 255
204 226 255
204 226 255
203 226 255
203 226 255
203 226 255
203 226 255
203 226 255
203 226 255
203 226 255
203 226 255
203 226 255
203 225 255
203 225 255
203 225 255
203 225 255
203 225 255
203 225 255
203 225 255
203 225 255
203 225 255
203 225 255
203 225 255
203 225 255
202 225 255
202 225 255
202 225 255
202 225 255
202 225 255
202 225 255
202 225 255
202 225 255
202 225 255
202 225 255
202 225 255
202 225 255
202 225 255
202 225 255
202 225 255
202 225 255
202 225 255
202 225 255
202 225 255
202 225 255
202 225 255
202 225 255
202 225 255
202 225 255
202 225 255
202 225 255
202 225 255
202 225 255
202 225 255
202 225 255
202 225 255
202 225 255
202 225 255
202 225 255
202 225 255
202 225 255
202 225 255
202 225 255
202 225 255
202 225 255
202 225 255
202 225 255
202 225 255
202 225 255
202 225 255
202 225 255
202 225 255
202 225 255
202 225 255
202 225 255
202 225 255
202 225 255
202 225 255
202 225 255
202 225 255
202 225 255
202 225 255
202 225 255
202 225 255
202 225 255
202 225 255
202 225 255
202 225 255
202 225 255
202 225 255
202 225 255
202 225 255
202 225 255
202 225 255
202 225 255
202 225 255
202 225 255
202 225 255
202 225 255
202 225 255
202 225 255
202 225 255
202 225 255
203 225 255
203 225 255
203 225 255
203 225 255
203 225 255
203 225 255
203 225 255
203 225 255
203 225 255
203 225 255
203 225 255
203 225 255
203 226 255
203 226 255
203 226 255
203 226 255
203 226 255
203 226 255
203 226 255
203 226 255
203 226 255
204 226 255
204 226 255
204 226 255
204 226 255
204 226 255
204 226 255
204 226 255
204 226 255
204 226 255
204 226 255
204 226 255
204 226 255
204 226 255
204 226 255
204 226 255
204 226 255
204 226 255
205 226 255
205 226 255
205 226 255
205 226 255
205 226 255
205 226 255
205 226 255
205 227 255
205 227 255
205 227 255
205 227 255
205 227 255
205 227 255
205 227 255
205 227 255
205 227 255
205 227 255
205 227 255
206 227 255
206 227 255
206 227 255
206 227 255
206 227 255
206 227 255
206 227 255
206 227 255
206 227 255
206 227 255
206 227 255
206 227 255
206 227 255
206 227 255
206 227 255
206 227 255
207 227 255
207 227 255
207 227 255
207 227 255
207 227 255
207 228 255
207 228 255
207 228 255
207 228 255
207 228 255
207 228 255
207 228 255
207 228 255
207 228 255
207 228 255
207 228 255
207 228 255
207 228 255
208 228 255
208 228 255
208 228 255
208 228 255
208 228 255
208 228 255
208 228 255
208 228 255
208 228 255
208 228 255
208 228 255
208 228 255
208 228 255
208 228 255
208 228 255
208 228 255
208 228 255
208 228 255
208 228 255
209 228 255
209 228 255
209 229 255
209 229 255
209 229 255
209 229 255
209 229 255
209 229 255
209 229 255
209 229 255
209 229 255
209 229 255
209 229 255
209 229 255
209 229 255
209 229 255
209 229 255
209 229 255
209 229 255
209 229 255
209 229 255
209 229 255
210 229 255
210 229 255
210 229 255
210 229 255
210 229 255
210 229 255
210 229 255
210 229 255
210 229 255
210 229 255
210 229 255
210 229 255
210 229 255
210 229 255
210 229 255
210 229 255
210 229 255
210 229 255
210 229 255
210 229 255
210 229 255
210 230 255
210 230 255
210 230 255
211 230 255
211 230 255
211 230 255
211 230 255
211 230 255
211 230 255
211 230 255
211 230 255
211 230 255
211 230 255
211 230 255
211 230 255
211 230 255
211 230 255
211 230 255
211 230 255
210 230 255
210 230 255
210 230 255
210 229 255
210 229 255
210 229 255
210 229 255
210 229 255
210 229 255
210 229 255
210 229 255
210 229 255
210 229 255
210 229 255
210 229 255
210 229 255
210 229 255
210 229 255
210 229 255
210 229 255
210 229 255
210 229 255
210 229 255
210 229 255
209 229 255
209 229 255
209 229 255
209 229 255
209 229 255
209 229 255
209 229 255
209 228 255
208 228 255
208 228 255
207 228 255
208 228 255
207 228 255
207 228 255
207 228 255
207 228 255
207 228 255
206 227 255
207 227 255
206 227 255
207 228 255
207 228 255
207 228 255
207 228 255
207 228 255
208 228 255
208 228 255
208 228 255
208 228 255
208 228 255
208 228 255
208 228 255
208 228 255
208 228 255
208 228 255
208 228 255
208 228 255
208 228 255
208 228 255
208 228 255
207 228 255
207 228 255
207 228 255
207 228 255
207 228 255
207 228 255
207 228 255
207 228 255
207 228 255
207 228 255
207 228 255
207 228 255
207 228 255
207 228 255
207 227 255
207 227 255
207 227 255
207 227 255
206 227 255
206 227 255
206 227 255
206 227 255
206 227 255
206 227 255
206 227 255
206 227 255
206 227 255
206 227 255
206 227 255
206 227 255
206 227 255
206 227 255
206 227 255
206 227 255
206 227 255
205 227 255
205 227 255
205 227 255
205 227 255
205 227 255
205 227 255
205 227 255
205 227 255
205 227 255
205 227 255
205 226 255
205 226 255
205 226 255
205 226 255
205 226 255
205 226 255
205 226 255
204 226 255
204 226 255
204 226 255
204 226 255
204 226 255
204 226 255
204 226 255
204 226 255
204 226 255
204 226 255
204 226 255
204 226 255
204 226 255
204 226 255
204 226 255
204 226 255
204 226 255
204 226 255
203 226 255
203 226 255
203 226 255
203 226 255
203 226 255
203 226 255
203 226 255
203 226 255
203 226 255
203 225 255
203 225 255
203 225 255
203 225 255
203 225 255
203 225 255
203 225 255
203 225 255
203 225 255
203 225 255
203 225 255
203 225 255
203 225 255
203 225 255
202 225 255
202 225 255
202 225 255
202 225 255
202 225 255
202 225 255
202 225 255
202 225 255
202 225 255
202 225 255
202 225 255
202 225 255
202 225 255
202 225 255
202 225 255
202 225 255
202 225 255
202 225 255
202 225 255
202 225 255
202 225 255
202 225 255
202 225 255
202 225 255
202 225 255
202 225 255
202 225 255
202 225 255
202 225 255
202 225 255
202 225 255
202 225 255
202 225 255
202 225 255
202 225 255
202 225 255
202 225 255
202 225 255
202 225 255
202 225 255
202 225 255
202 225 255
202 225 255
202 225 255
202 225 255
202 225 255
202 225 255
202 225 255
202 225 255
202 225 255
202 225 255
202 225 255
202 225 255
202 225 255
202 225 255
202 225 255
202 225 255
202 225 255
202 225 255
202 225 255
202 225 255
202 225 255
202 225 255
202 225 255
202 225 255
202 225 255
203 225 255
203 225 255
203 225 255
203 225 255
203 225 255
203 225 255
203 225 255
203 225 255
203 225 255
203 225 255
203 225 255
203 225 255
203 225 255
203 226 255
203 226 255
203 226 255
203 226 255
203 226 255
203 226 255
203 226 255
203 226 255
203 226 255
203 226 255
204 226 255
204 226 255
204 226 255
204 226 255
204 226 255
204 226 255
204 226 255
204 226 255
204 226 255
204 226 255
204 226 255
204 226 255
204 226 255
204 226 255
204 226 255
204 226 255
204 226 255
204 226 255
205 226 255
205 226 255
205 226 255
205 226 255
205 226 255
205 226 255
205 226 255
205 227 255
205 227 255
205 227 255
205 227 255
205 227 255
205 227 255
205 227 255
205 227 255
205 227 255
205 227 255
206 227 255
206 227 255
206 227 255
206 227 255
206 227 255
206 227 255
206 227 255
206 227 255
206 227 255
206 227 255
206 227 255
206 227 255
206 227 255
206 227 255
206 227 255
206 227 255
206 227 255
207 227 255
207 227 255
207 227 255
207 227 255
207 228 255
207 228 255
207 228 255
207 228 255
207 228 255
207 228 255
207 228 255
207 228 255
207 228 255
207 228 255
207 228 255
207 228 255
207 228 255
207 228 255
208 228 255
208 228 255
208 228 255
208 228 255
208 228 255
208 228 255
208 228 255
208 228 255
208 228 255
208 228 255
208 228 255
208 228 255
208 228 254
207 225 249
205 223 245
204 221 240
204 221 241
203 219 235
203 219 235
204 221 240
203 219 236
200 214 225
203 219 234
203 219 235
201 214 225
200 214 224
201 216 228
204 221 239
202 218 232
204 221 240
203 220 237
205 223 243
207 226 249
208 226 249
208 227 252
209 228 253
209 229 255
209 229 255
209 229 255
209 229 255
210 229 255
210 229 255
210 229 255
210 229 255
210 229 255
210 229 255
210 229 255
210 229 255
210 229 255
210 229 255
210 229 255
210 229 255
210 229 255
210 229 255
210 229 255
210 229 255
210 229 255
210 229 255
210 229 255
210 229 255
210 229 255
210 230 255
210 230 255
210 230 255
211 230 255
211 230 255
211 230 255
211 230 255
211 230 255
211 230 255
211 230 255
211 230 255
211 230 255
211 230 255
211 230 255
211 230 255
211 230 255
211 230 255
211 230 255
211 230 255
211 230 255
211 230 255
211 230 255
211 230 255
211 230 255
211 230 255
211 230 255
211 230 255
210 230 255
210 230 255
210 230 255
210 229 255
210 229 255
210 229 255
210 229 255
210 229 255
210 229 255
210 229 255
210 229 255
210 229 255
210 229 255
210 229 255
210 229 255
210 229 255
209 229 255
209 229 255
208 228 255
207 228 255
207 227 255
206 227 255
205 227 255
204 226 255
203 226 255
203 225 255
202 225 255
202 225 255
201 225 255
201 224 255
201 224 255
200 224 255
200 224 255
200 224 255
200 224 255
200 224 255
200 224 255
199 224 255
199 224 255
199 223 255
199 223 255
199 224 255
199 224 255
200 224 255
199 224 255
200 224 255
200 224 255
201 224 255
202 225 255
203 225 255
203 226 255
205 227 255
205 227 255
206 227 255
207 228 255
207 228 255
208 228 255
208 228 255
208 228 255
208 228 255
208 228 255
208 228 255
208 228 255
207 228 255
207 228 255
207 228 255
207 228 255
207 228 255
207 228 255
207 228 255
207 228 255
207 228 255
207 228 255
207 228 255
207 228 255
207 228 255
207 228 255
207 227 255
207 227 255
207 227 255
207 227 255
207 227 255
206 227 255
206 227 255
206 227 255
206 227 255
206 227 255
206 227 255
206 227 255
206 227 255
206 227 255
206 227 255
206 227 255
206 227 255
206 227 255
206 227 255
206 227 255
206 227 255
206 227 255
205 227 255
205 227 255
205 227 255
205 227 255
205 227 255
205 227 255
205 227 255
205 227 255
205 227 255
205 227 255
205 226 255
205 226 255
205 226 255
205 226 255
205 226 255
205 226 255
205 226 255
204 226 255
204 226 255
204 226 255
204 226 255
204 226 255
204 226 255
204 226 255
204 226 255
204 226 255
204 226 255
204 226 255
204 226 255
204 226 255
204 226 255
204 226 255
204 226 255
204 226 255
204 226 255
204 226 255
203 226 255
203 226 255
203 226 255
203 226 255
203 226 255
203 226 255
203 226 255
203 226 255
203 226 255
203 226 255
203 225 255
203 225 255
203 225 255
203 225 255
203 225 255
203 225 255
203 225 255
203 225 255
203 225 255
203 225 255
203 225 255
203 225 255
203 225 255
203 225 255
203 225 255
202 225 255
202 225 255
202 225 255
202 225 255
202 225 255
202 225 255
202 225 255
202 225 255
202 225 255
202 225 255
202 225 255
202 225 255
202 225 255
202 225 255
202 225 255
202 225 255
202 225 255
202 225 255
202 225 255
202 225 255
202 225 255
202 225 255
202 225 255
202 225 255
202 225 255
202 225 255
202 225 255
202 225 255
202 225 255
202 225 255
202 225 255
202 225 255
202 225 255
202 225 255
202 225 255
202 225 255
202 225 255
202 225 255
202 225 255
202 225 255
202 225 255
202 225 255
202 225 255
202 225 255
202 225 255
202 225 255
202 225 255
202 225 255
202 225 255
202 225 255
202 225 255
202 225 255
203 225 255
203 225 255
203 225 255
203 225 255
203 225 255
203 225 255
203 225 255
203 225 255
203 225 255
203 225 255
203 225 255
203 225 255
203 225 255
203 225 255
203 225 255
203 225 255
203 226 255
203 226 255
203 226 255
203 226 255
203 226 255
203 226 255
203 226 255
203 226 255
203 226 255
204 226 255
204 226 255
204 226 255
204 226 255
204 226 255
204 226 255
204 226 255
204 226 255
204 226 255
204 226 255
204 226 255
204 226 255
204 226 255
204 226 255
204 226 255
204 226 255
204 226 255
204 226 255
204 226 255
205 226 255
205 226 255
205 226 255
205 226 255
205 226 255
205 226 255
205 226 255
205 227 255
205 227 255
205 227 255
205 227 255
205 227 255
205 227 255
205 227 255
205 227 255
205 227 255
205 227 255
206 227 255
206 227 255
206 227 255
206 227 255
206 227 255
206 227 255
206 227 255
206 227 255
206 227 255
206 227 255
206 227 255
206 227 255
206 227 255
206 227 255
206 227 255
206 227 255
206 227 255
207 227 255
207 227 255
207 227 255
207 227 255
207 227 255
207 228 255
207 228 255
207 228 255
207 228 255
207 228 255
207 228 255
207 228 255
207 228 255
207 228 255
207 228 255
207 228 255
207 228 255
207 228 255
208 228 255
208 228 255
208 228 255
208 228 255
208 228 255
208 228 255
208 228 255
208 228 254
206 225 248
204 222 242
202 218 234
198 212 221
196 209 214
196 207 209
194 204 202
191 201 195
190 200 194
191 201 198
190 199 191
191 199 190
188 196 184
189 196 184
190 198 187
188 197 187
191 200 194
190 199 192
187 193 177
189 197 186
189 198 190
188 195 181
189 198 188
192 200 193
188 195 182
192 199 189
190 197 184
194 203 200
190 198 187
191 199 190
191 199 189
189 196 184
193 201 194
194 203 198
197 209 213
200 213 221
198 210 216
204 220 236
204 219 234
205 222 240
209 228 252
210 229 255
210 229 255
210 229 255
210 229 255
210 229 255
210 229 255
210 229 255
210 229 255
210 229 255
210 229 255
210 229 255
210 229 255
210 230 255
210 230 255
210 230 255
211 230 255
211 230 255
211 230 255
211 230 255
211 230 255
211 230 255
211 230 255
211 230 255
211 230 255
211 230 255
211 230 255
211 230 255
211 230 255
211 230 255
211 230 255
211 230 255
211 230 255
211 230 255
211 230 255
211 230 255
211 230 255
211 230 255
211 230 255
211 230 255
211 230 255
211 230 255
211 230 255
211 230 255
211 230 255
211 230 255
211 230 255
211 230 255
210 230 255
210 230 255
210 230 255
210 229 255
210 229 255
210 229 255
209 229 255
209 229 255
208 228 255
207 227 255
205 227 255
204 226 255
203 226 255
202 225 255
202 225 255
201 225 255
201 224 255
200 224 255
200 224 255
199 223 255
199 223 255
199 223 255
198 223 255
198 223 255
198 223 255
197 222 255
197 222 255
197 222 255
197 222 255
196 222 255
196 222 255
196 222 255
196 222 255
196 221 255
195 221 255
195 221 255
195 221 255
195 221 255
195 221 255
195 221 255
195 221 255
195 221 255
196 221 255
196 222 255
196 222 255
196 222 255
197 222 255
197 222 255
197 222 255
198 223 255
198 223 255
199 223 255
200 224 255
201 225 255
203 225 255
205 226 255
205 227 255
206 227 255
207 228 255
208 228 255
208 228 255
208 228 255
208 228 255
207 228 255
207 228 255
207 228 255
207 228 255
207 228 255
207 228 255
207 228 255
207 228 255
207 228 255
207 228 255
207 228 255
207 228 255
207 228 255
207 228 255
207 227 255
207 227 255
207 227 255
207 227 255
206 227 255
206 227 255
206 227 255
206 227 255
206 227 255
206 227 255
206 227 255
206 227 255
206 227 255
206 227 255
206 227 255
206 227 255
206 227 255
206 227 255
206 227 255
206 227 255
206 227 255
205 227 255
205 227 255
205 227 255
205 227 255
205 227 255
205 227 255
205 227 255
205 227 255
205 227 255
205 227 255
205 227 255
205 226 255
205 226 255
205 226 255
205 226 255
205 226 255
205 226 255
205 226 255
204 226 255
204 226 255
204 226 255
204 226 255
204 226 255
204 226 255
204 226 255
204 226 255
204 226 255
204 226 255
204 226 255
204 226 255
204 226 255
204 226 255
204 226 255
204 226 255
204 226 255
204 226 255
204 226 255
204 226 255
203 226 255
203 226 255
203 226 255
203 226 255
203 226 255
203 226 255
203 226 255
203 226 255
203 226 255
203 226 255
203 226 255
203 225 255
203 225 255
203 225 255
203 225 255
203 225 255
203 225 255
203 225 255
203 225 255
203 225 255
203 225 255
203 225 255
203 225 255
203 225 255
203 225 255
203 225 255
203 225 255
203 225 255
203 225 255
203 225 255
202 225 255
202 225 255
202 225 255
202 225 255
202 225 255
202 225 255
202 225 255
202 225 255
202 225 255
202 225 255
202 225 255
202 225 255
202 225 255
202 225 255
202 225 255
202 225 255
202 225 255
202 225 255
202 225 255
202 225 255
202 225 255
202 225 255
202 225 255
202 225 255
202 225 255
202 225 255
202 225 255
202 225 255
202 225 255
202 225 255
202 225 255
202 225 255
202 225 255
203 225 255
203 225 255
203 225 255
203 225 255
203 225 255
203 225 255
203 225 255
203 225 255
203 225 255
203 225 255
203 225 255
203 225 255
203 225 255
203 225 255
203 225 255
203 225 255
203 225 255
203 225 255
203 225 255
203 226 255
203 226 255
203 226 255
203 226 255
203 226 255
203 226 255
203 226 255
203 226 255
203 226 255
203 226 255
204 226 255
204 226 255
204 226 255
204 226 255
204 226 255
204 226 255
204 226 255
204 226 255
204 226 255
204 226 255
204 226 255
204 226 255
204 226 255
204 226 255
204 226 255
204 226 255
204 226 255
204 226 255
204 226 255
204 226 255
205 226 255
205 226 255
205 226 255
205 226 255
205 226 255
205 226 255
205 226 255
205 227 255
205 227 255
205 227 255
205 227 255
205 227 255
205 227 255
205 227 255
205 227 255
205 227 255
205 227 255
205 227 255
206 227 255
206 227 255
206 227 255
206 227 255
206 227 255
206 227 255
206 227 255
206 227 255
206 227 255
206 227 255
206 227 255
206 227 255
206 227 255
206 227 255
206 227 255
206 227 255
206 227 255
207 227 255
207 227 255
207 227 255
207 227 255
207 228 255
207 228 255
207 228 255
207 228 255
207 228 255
207 228 255
207 228 255
207 228 255
207 228 255
207 228 255
207 228 255
207 228 255
207 228 255
207 228 255
208 228 255
208 228 255
208 228 255
208 228 255
206 226 250
205 224 247
201 218 234
200 215 228
197 210 217
188 195 183
190 199 192
188 196 183
191 200 194
191 202 198
189 197 188
189 197 187
190 198 188
188 195 181
191 200 195
187 194 178
191 200 192
189 197 187
189 196 183
189 197 187
193 202 199
185 193 178
188 195 183
186 192 172
188 195 181
188 196 185
191 198 187
191 198 187
187 192 172
191 199 191
190 197 187
190 197 187
189 196 183
190 199 190
193 201 193
191 199 188
190 197 184
191 198 187
187 193 176
191 199 190
186 190 167
193 203 198
192 201 193
195 204 200
191 198 187
192 200 192
192 200 192
192 198 186
195 205 203
195 205 202
197 208 208
204 220 235
204 219 234
209 227 250
210 229 255
210 229 255
210 230 255
210 230 255
210 230 255
211 230 255
211 230 255
211 230 255
211 230 255
211 230 255
211 230 255
211 230 255
211 230 255
211 230 255
211 230 255
211 230 255
211 230 255
211 230 255
211 230 255
211 230 255
211 230 255
211 230 255
211 230 255
211 230 255
211 230 255
211 230 255
211 230 255
211 230 255
211 230 255
211 230 255
211 230 255
211 230 255
211 230 255
211 230 255
211 230 255
211 230 255
211 230 255
211 230 255
211 230 255
211 230 255
211 230 255
211 230 255
210 229 255
208 228 255
208 228 255
206 227 255
205 226 255
204 226 255
203 225 255
202 225 255
202 225 255
201 224 255
200 224 255
200 224 255
199 224 255
199 223 255
198 223 255
198 223 255
197 223 255
197 222 255
197 222 255
196 222 255
196 222 255
196 222 255
195 221 255
195 221 255
195 221 255
195 221 255
194 221 255
194 221 255
194 221 255
194 221 255
194 220 255
193 220 255
193 220 255
193 220 255
193 220 255
193 220 255
193 220 255
193 220 255
193 220 255
193 220 255
193 220 255
193 220 255
193 220 255
193 220 255
193 220 255
193 220 255
193 220 255
193 220 255
194 221 255
194 221 255
194 221 255
194 221 255
195 221 255
196 222 255
197 222 255
197 222 255
198 223 255
199 223 255
201 224 255
203 226 255
205 227 255
206 227 255
207 228 255
208 228 255
208 228 255
208 228 255
207 228 255
207 228 255
207 228 255
207 228 255
207 228 255
207 228 255
207 228 255
207 228 255
207 228 255
207 228 255
207 228 255
207 228 255
207 228 255
207 227 255
207 227 255
207 227 255
207 227 255
207 227 255
206 227 255
206 227 255
206 227 255
206 227 255
206 227 255
206 227 255
206 227 255
206 227 255
206 227 255
206 227 255
206 227 255
206 227 255
206 227 255
206 227 255
206 227 255
206 227 255
206 227 255
205 227 255
205 227 255
205 227 255
205 227 255
205 227 255
205 227 255
205 227 255
205 227 255
205 227 255
205 227 255
205 227 255
205 226 255
205 226 255
205 226 255
205 226 255
205 226 255
205 226 255
205 226 255
204 226 255
204 226 255
204 226 255
204 226 255
204 226 255
204 226 255
204 226 255
204 226 255
204 226 255
204 226 255
204 226 255
204 226 255
204 226 255
204 226 255
204 226 255
204 226 255
204 226 255
204 226 255
204 226 255
204 226 255
204 226 255
203 226 255
203 226 255
203 226 255
203 226 255
203 226 255
203 226 255
203 226 255
203 226 255
203 226 255
203 226 255
203 226 255
203 226 255
203 225 255
203 225 255
203 225 255
203 225 255
203 225 255
203 225 255
203 225 255
203 225 255
203 225 255
203 225 255
203 225 255
203 225 255
203 225 255
203 225 255
203 225 255
203 225 255
203 225 255
203 225 255
203 225 255
203 225 255
203 225 255
203 225 255
203 225 255
203 225 255
203 225 255
203 225 255
203 225 255
203 225 255
203 225 255
203 225 255
203 225 255
203 225 255
203 225 255
203 225 255
203 225 255
203 225 255
203 225 255
203 225 255
203 225 255
203 225 255
203 225 255
203 225 255
203 225 255
203 225 255
203 225 255
203 225 255
203 225 255
203 225 255
203 225 255
203 225 255
203 225 255
203 225 255
203 225 255
203 225 255
203 225 255
203 225 255
203 225 255
203 226 255
203 226 255
203 226 255
203 226 255
203 226 255
203 226 255
203 226 255
203 226 255
203 226 255
203 226 255
203 226 255
203 226 255
203 226 255
204 226 255
204 226 255
204 226 255
204 226 255
204 226 255
204 226 255
204 226 255
204 226 255
204 226 255
204 226 255
204 226 255
204 226 255
204 226 255
204 226 255
204 226 255
204 226 255
204 226 255
204 226 255
204 226 255
204 226 255
204 226 255
205 226 255
205 226 255
205 226 255
205 226 255
205 226 255
205 226 255
205 226 255
205 227 255
205 227 255
205 227 255
205 227 255
205 227 255
205 227 255
205 227 255
205 227 255
205 227 255
205 227 255
205 227 255
206 227 255
206 227 255
206 227 255
206 227 255
206 227 255
206 227 255
206 227 255
206 227 255
206 227 255
206 227 255
206 227 255
206 227 255
206 227 255
206 227 255
206 227 255
206 227 255
206 227 255
207 227 255
207 227 255
207 227 255
207 227 255
207 227 255
207 228 255
207 228 255
207 228 255
207 228 255
207 228 255
207 228 255
207 228 255
207 228 255
207 228 255
207 228 255
207 228 255
207 228 255
207 228 255
208 228 255
208 228 255
208 228 255
206 225 248
199 215 227
199 213 223
195 207 209
191 199 192
189 197 188
186 194 181
189 197 187
188 196 186
184 191 172
189 199 192
189 197 186
188 196 187
189 197 186
192 202 199
186 192 175
187 194 181
186 192 175
185 191 172
189 197 186
186 192 175
184 190 169
188 195 183
191 200 194
186 192 175
190 199 191
185 191 172
186 192 174
188 196 184
188 194 178
190 198 188
188 196 186
189 197 187
188 195 181
187 191 169
189 197 187
190 198 187
189 197 185
191 198 187
188 194 179
192 201 195
189 197 186
189 195 180
190 197 185
187 192 174
191 198 188
187 192 172
193 201 192
190 198 189
189 196 184
190 197 184
192 199 188
190 196 181
191 199 190
189 195 180
191 198 187
194 202 196
193 198 185
191 197 185
197 207 207
200 211 214
201 213 218
207 223 242
209 227 250
211 230 255
211 230 255
211 230 255
211 230 255
211 230 255
211 230 255
211 230 255
211 230 255
211 230 255
211 230 255
211 230 255
211 230 255
211 230 255
211 230 255
211 230 255
211 230 255
211 230 255
211 230 255
211 230 255
211 230 255
211 230 255
211 230 255
211 230 255
211 230 255
211 230 255
211 230 255
211 230 255
211 230 255
211 230 255
211 230 255
211 230 255
211 230 255
211 230 255
210 229 255
209 229 255
207 228 255
206 227 255
204 226 255
203 226 255
203 225 255
202 225 255
201 225 255
201 224 255
200 224 255
200 224 255
199 223 255
198 223 255
198 223 255
198 223 255
197 222 255
197 222 255
196 222 255
196 222 255
196 221 255
195 221 255
195 221 255
195 221 255
194 221 255
194 221 255
194 220 255
193 220 255
193 220 255
193 220 255
193 220 255
192 220 255
192 220 255
192 220 255
192 219 255
192 219 255
191 219 255
191 219 255
191 219 255
191 219 255
191 219 255
191 219 255
191 219 255
191 219 255
191 219 255
190 219 255
191 219 255
190 219 255
190 219 255
191 219 255
191 219 255
191 219 255
191 219 255
191 219 255
191 219 255
192 219 255
192 219 255
192 220 255
193 220 255
193 220 255
194 220 255
194 221 255
195 221 255
196 221 255
196 222 255
198 223 255
199 223 255
202 225 255
204 226 255
205 227 255
207 228 255
208 228 255
208 228 255
207 228 255
207 228 255
207 228 255
207 228 255
207 228 255
207 228 255
207 228 255
207 228 255
207 228 255
207 228 255
207 228 255
207 228 255
207 228 255
207 228 255
207 227 255
207 227 255
207 227 255
207 227 255
206 227 255
206 227 255
206 227 255
206 227 255
206 227 255
206 227 255
206 227 255
206 227 255
206 227 255
206 227 255
206 227 255
206 227 255
206 227 255
206 227 255
206 227 255
206 227 255
206 227 255
206 227 255
205 227 255
205 227 255
205 227 255
205 227 255
205 227 255
205 227 255
205 227 255
205 227 255
205 227 255
205 227 255
205 227 255
205 226 255
205 226 255
205 226 255
205 226 255
205 226 255
205 226 255
205 226 255
205 226 255
204 226 255
204 226 255
204 226 255
204 226 255
204 226 255
204 226 255
204 226 255
204 226 255
204 226 255
204 226 255
204 226 255
204 226 255
204 226 255
204 226 255
204 226 255
204 226 255
204 226 255
204 226 255
204 226 255
204 226 255
204 226 255
204 226 255
203 226 255
203 226 255
203 226 255
203 226 255
203 226 255
203 226 255
203 226 255
203 226 255
203 226 255
203 226 255
203 226 255
203 226 255
203 226 255
203 226 255
203 226 255
203 225 255
203 225 255
203 225 255
203 225 255
203 225 255
203 225 255
203 225 255
203 225 255
203 225 255
203 225 255
203 225 255
203 225 255
203 225 255
203 225 255
203 225 255
203 225 255
203 225 255
203 225 255
203 225 255
203 225 255
203 225 255
203 225 255
203 225 255
203 225 255
203 225 255
203 225 255
203 225 255
203 225 255
203 225 255
203 225 255
203 225 255
203 225 255
203 225 255
203 225 255
203 225 255
203 225 255
203 225 255
203 225 255
203 225 255
203 225 255
203 226 255
203 226 255
203 226 255
203 226 255
203 226 255
203 226 255
203 226 255
203 226 255
203 226 255
203 226 255
203 226 255
203 226 255
203 226 255
203 226 255
203 226 255
204 226 255
204 226 255
204 226 255
204 226 255
204 226 255
204 226 255
204 226 255
204 226 255
204 226 255
204 226 255
204 226 255
204 226 255
204 226 255
204 226 255
204 226 255
204 226 255
204 226 255
204 226 255
204 226 255
204 226 255
204 226 255
204 226 255
205 226 255
205 226 255
205 226 255
205 226 255
205 226 255
205 226 255
205 226 255
205 226 255
205 227 255
205 227 255
205 227 255
205 227 255
205 227 255
205 227 255
205 227 255
205 227 255
205 227 255
205 227 255
205 227 255
206 227 255
206 227 255
206 227 255
206 227 255
206 227 255
206 227 255
206 227 255
206 227 255
206 227 255
206 227 255
206 227 255
206 227 255
206 227 255
206 227 255
206 227 255
206 227 255
206 227 255
206 227 255
207 227 255
207 227 255
207 227 255
207 227 255
207 228 255
207 228 255
207 228 255
207 228 255
207 228 255
207 228 255
207 228 255
207 228 255
207 228 255
207 228 255
207 228 255
207 228 255
207 228 255
208 228 255
208 228 255
208 228 255
206 225 249
201 217 233
196 209 214
190 200 195
186 194 180
187 197 188
188 197 188
190 200 194
187 194 181
187 196 186
185 192 175
187 194 180
187 196 184
186 195 183
187 194 180
185 192 175
188 197 190
187 195 181
185 192 174
183 189 169
185 192 175
185 193 178
186 193 177
185 191 172
186 193 175
186 192 174
189 198 188
188 196 184
186 192 175
188 196 184
185 192 177
186 192 175
189 197 187
186 193 175
182 186 160
188 195 180
186 192 174
188 196 184
191 199 191
187 194 178
187 195 182
182 187 163
185 190 167
187 192 174
189 196 184
190 198 188
187 193 175
184 188 163
190 196 181
190 196 182
186 189 163
187 193 176
188 194 176
188 194 178
188 194 177
190 196 181
189 196 183
189 195 181
189 195 179
189 195 179
194 203 198
191 197 184
190 197 183
189 195 179
191 197 182
194 202 195
192 198 184
190 197 182
194 201 192
201 214 221
205 219 233
208 225 246
211 230 255
211 230 255
211 230 255
211 230 255
211 230 255
211 230 255
211 230 255
211 230 255
211 230 255
211 230 255
211 230 255
211 230 255
211 230 255
211 230 255
212 230 255
212 230 255
212 230 255
212 230 255
211 230 255
211 230 255
211 230 255
211 230 255
211 230 255
211 230 255
211 230 255
210 229 255
209 229 255
207 228 255
206 227 255
205 226 255
204 226 255
203 225 255
202 225 255
202 225 255
201 224 255
200 224 255
200 224 255
199 223 255
199 223 255
198 223 255
198 223 255
197 222 255
197 222 255
196 222 255
196 222 255
196 222 255
195 221 255
195 221 255
195 221 255
194 221 255
194 221 255
193 220 255
193 220 255
193 220 255
193 220 255
192 220 255
192 220 255
192 219 255
191 219 255
191 219 255
191 219 255
191 219 255
191 219 255
190 219 255
190 219 255
190 219 255
190 218 255
190 218 255
189 218 255
189 218 255
189 218 255
189 218 255
189 218 255
189 218 255
189 218 255
189 218 255
189 218 255
189 218 255
189 218 255
189 218 255
189 218 255
189 218 255
189 218 255
189 218 255
189 218 255
189 218 255
190 218 255
190 218 255
190 219 255
190 219 255
191 219 255
191 219 255
192 219 255
192 220 255
193 220 255
194 220 255
194 221 255
196 221 255
197 222 255
198 223 255
202 225 255
204 226 255
206 227 255
207 228 255
208 228 255
208 228 255
207 228 255
207 228 255
207 228 255
207 228 255
207 228 255
207 228 255
207 228 255
207 228 255
207 228 255
207 228 255
207 228 255
207 228 255
207 228 255
207 228 255
207 227 255
207 227 255
207 227 255
207 227 255
206 227 255
206 227 255
206 227 255
206 227 255
206 227 255
206 227 255
206 227 255
206 227 255
206 227 255
206 227 255
206 227 255
206 227 255
206 227 255
206 227 255
206 227 255
206 227 255
206 227 255
206 227 255
205 227 255
205 227 255
205 227 255
205 227 255
205 227 255
205 227 255
205 227 255
205 227 255
205 227 255
205 227 255
205 227 255
205 226 255
205 226 255
205 226 255
205 226 255
205 226 255
205 226 255
205 226 255
205 226 255
204 226 255
204 226 255
204 226 255
204 226 255
204 226 255
204 226 255
204 226 255
204 226 255
204 226 255
204 226 255
204 226 255
204 226 255
204 226 255
204 226 255
204 226 255
204 226 255
204 226 255
204 226 255
204 226 255
204 226 255
204 226 255
204 226 255
204 226 255
204 226 255
204 226 255
203 226 255
203 226 255
203 226 255
203 226 255
203 226 255
203 226 255
203 226 255
203 226 255
203 226 255
203 226 255
203 226 255
203 226 255
203 226 255
203 226 255
203 226 255
203 226 255
203 226 255
203 226 255
203 226 255
203 226 255
203 226 255
203 226 255
203 226 255
203 226 255
203 226 255
203 226 255
203 226 255
203 226 255
203 226 255
203 226 255
203 226 255
203 226 255
203 226 255
203 226 255
203 226 255
203 226 255
203 226 255
203 226 255
203 226 255
203 226 255
203 226 255
203 226 255
203 226 255
203 226 255
203 226 255
203 226 255
203 226 255
203 226 255
203 226 255
203 226 255
203 226 255
203 226 255
203 226 255
203 226 255
203 226 255
203 226 255
204 226 255
204 226 255
204 226 255
204 226 255
204 226 255
204 226 255
204 226 255
204 226 255
204 226 255
204 226 255
204 226 255
204 226 255
204 226 255
204 226 255
204 226 255
204 226 255
204 226 255
204 226 255
204 226 255
204 226 255
204 226 255
204 226 255
204 226 255
204 226 255
204 226 255
205 226 255
205 226 255
205 226 255
205 226 255
205 226 255
205 226 255
205 226 255
205 226 255
205 227 255
205 227 255
205 227 255
205 227 255
205 227 255
205 227 255
205 227 255
205 227 255
205 227 255
205 227 255
205 227 255
206 227 255
206 227 255
206 227 255
206 227 255
206 227 255
206 227 255
206 227 255
206 227 255
206 227 255
206 227 255
206 227 255
206 227 255
206 227 255
206 227 255
206 227 255
206 227 255
206 227 255
206 227 255
207 227 255
207 227 255
207 227 255
207 227 255
207 228 255
207 228 255
207 228 255
207 228 255
207 228 255
207 228 255
207 228 255
207 228 255
207 228 255
207 228 255
207 228 255
207 228 255
207 228 255
207 228 255
208 228 255
208 228 255
207 227 252
202 220 239
197 212 221
192 203 202
191 201 196
189 198 191
188 197 187
186 194 181
188 196 186
185 192 175
184 191 174
184 190 169
185 193 178
187 195 184
184 191 174
188 197 188
185 193 180
187 195 183
183 190 172
185 191 174
187 194 180
183 188 165
184 191 172
186 192 175
185 192 177
187 194 178
186 193 178
186 192 174
187 196 184
187 193 175
185 190 169
187 194 179
185 191 172
185 190 169
184 189 169
184 190 170
187 191 171
186 192 175
187 194 178
186 192 174
191 199 191
188 194 178
187 192 174
185 189 165
186 191 170
186 191 171
189 196 184
189 195 178
188 194 177
190 197 185
188 194 179
190 196 181
190 198 186
184 188 162
186 191 169
185 191 171
190 196 183
192 199 188
189 195 181
191 198 188
190 196 181
187 192 173
190 196 181
187 192 172
187 192 172
192 198 186
189 193 171
188 194 176
189 195 179
190 194 176
191 197 184
193 201 193
193 203 198
194 201 192
195 203 197
194 202 195
192 200 190
201 212 218
205 219 233
208 225 244
211 230 255
211 230 255
211 230 255
211 230 255
211 230 255
211 230 255
212 230 255
212 230 255
212 230 255
212 230 255
212 230 255
212 230 255
212 230 255
212 230 255
212 230 255
212 230 255
212 230 255
211 230 255
210 229 255
208 228 255
207 227 255
205 227 255
205 226 255
204 226 255
203 225 255
202 225 255
201 225 255
201 224 255
200 224 255
200 224 255
199 223 255
199 223 255
198 223 255
198 223 255
197 222 255
197 222 255
196 222 255
196 222 255
195 221 255
195 221 255
195 221 255
194 221 255
194 221 255
194 220 255
193 220 255
193 220 255
193 220 255
192 220 255
192 220 255
192 219 255
192 219 255
191 219 255
191 219 255
191 219 255
190 219 255
190 219 255
190 219 255
190 218 255
189 218 255
189 218 255
189 218 255
189 218 255
189 218 255
188 218 255
188 218 255
188 218 255
188 218 255
188 217 255
188 217 255
188 217 255
187 217 255
187 217 255
187 217 255
187 217 255
187 217 255
187 217 255
187 217 255
187 217 255
187 217 255
187 217 255
187 217 255
187 217 255
188 217 255
188 217 255
188 218 255
188 218 255
189 218 255
189 218 255
189 218 255
189 218 255
190 218 255
190 219 255
191 219 255
192 219 255
192 220 255
193 220 255
194 221 255
195 221 255
197 222 255
198 223 255
202 225 255
205 227 255
207 228 255
208 228 255
208 228 255
208 228 255
207 228 255
207 228 255
207 228 255
207 228 255
207 228 255
207 228 255
207 228 255
207 228 255
207 228 255
207 228 255
207 228 255
207 228 255
207 228 255
207 228 255
207 227 255
207 227 255
207 227 255
207 227 255
206 227 255
206 227 255
206 227 255
206 227 255
206 227 255
206 227 255
206 227 255
206 227 255
206 227 255
206 227 255
206 227 255
206 227 255
206 227 255
206 227 255
206 227 255
206 227 255
206 227 255
206 227 255
205 227 255
205 227 255
205 227 255
205 227 255
205 227 255
205 227 255
205 227 255
205 227 255
205 227 255
205 227 255
205 227 255
205 227 255
205 226 255
205 226 255
205 226 255
205 226 255
205 226 255
205 226 255
205 226 255
205 226 255
204 226 255
204 226 255
204 226 255
204 226 255
204 226 255
204 226 255
204 226 255
204 226 255
204 226 255
204 226 255
204 226 255
204 226 255
204 226 255
204 226 255
204 226 255
204 226 255
204 226 255
204 226 255
204 226 255
204 226 255
204 226 255
204 226 255
204 226 255
204 226 255
204 226 255
204 226 255
204 226 255
204 226 255
204 226 255
204 226 255
204 226 255
203 226 255
203 226 255
203 226 255
203 226 255
203 226 255
203 226 255
203 226 255
203 226 255
203 226 255
203 226 255
203 226 255
203 226 255
203 226 255
203 226 255
203 226 255
203 226 255
203 226 255
203 226 255
203 226 255
203 226 255
203 226 255
203 226 255
203 226 255
203 226 255
203 226 255
203 226 255
203 226 255
203 226 255
203 226 255
203 226 255
203 226 255
203 226 255
203 226 255
203 226 255
203 226 255
204 226 255
204 226 255
204 226 255
204 226 255
204 226 255
204 226 255
204 226 255
204 226 255
204 226 255
204 226 255
204 226 255
204 226 255
204 226 255
204 226 255
204 226 255
204 226 255
204 226 255
204 226 255
204 226 255
204 226 255
204 226 255
204 226 255
204 226 255
204 226 255
204 226 255
204 226 255
204 226 255
204 226 255
204 226 255
204 226 255
205 226 255
205 226 255
205 226 255
205 226 255
205 226 255
205 226 255
205 226 255
205 226 255
205 227 255
205 227 255
205 227 255
205 227 255
205 227 255
205 227 255
205 227 255
205 227 255
205 227 255
205 227 255
205 227 255
205 227 255
206 227 255
206 227 255
206 227 255
206 227 255
206 227 255
206 227 255
206 227 255
206 227 255
206 227 255
206 227 255
206 227 255
206 227 255
206 227 255
206 227 255
206 227 255
206 227 255
206 227 255
206 227 255
207 227 255
207 227 255
207 227 255
207 227 255
207 228 255
207 228 255
207 228 255
207 228 255
207 228 255
207 228 255
207 228 255
207 228 255
207 228 255
207 228 255
207 228 255
207 228 255
207 228 255
207 228 255
208 228 255
208 228 255
208 228 255
205 223 246
199 214 225
195 207 212
189 198 190
186 193 178
189 199 191
189 198 191
187 195 183
187 194 180
187 197 188
185 192 177
185 193 180
185 192 177
185 193 178
184 190 172
182 188 165
183 188 166
183 190 172
184 191 174
185 191 172
182 188 165
181 185 160
185 191 174
185 192 175
183 189 168
189 195 181
188 196 184
184 190 169
183 188 163
187 193 175
182 187 163
185 190 168
183 186 160
186 193 175
183 189 166
183 187 160
187 194 178
185 192 174
188 194 178
186 191 172
184 188 165
182 187 161
185 189 166
186 191 172
184 190 171
186 191 172
187 191 170
187 191 170
184 188 163
185 190 169
189 195 181
186 191 169
185 190 169
189 194 178
188 194 179
186 191 170
187 192 174
187 192 172
190 196 180
189 197 186
189 193 173
187 191 169
186 191 170
189 196 184
187 190 166
187 191 170
191 196 181
187 193 175
188 193 173
190 197 185
191 197 183
190 194 175
193 200 191
190 196 181
192 200 193
189 194 175
188 191 169
193 199 186
194 202 195
194 201 192
191 196 181
191 196 181
193 201 192
201 213 220
200 212 217
208 224 242
212 230 255
212 230 255
212 230 255
212 230 255
212 230 255
212 230 255
212 230 255
212 230 255
212 230 255
212 230 255
212 230 255
211 230 255
210 229 255
208 228 255
207 227 255
206 227 255
205 226 255
204 226 255
203 225 255
202 225 255
202 225 255
201 224 255
200 224 255
200 224 255
199 224 255
199 223 255
198 223 255
198 223 255
197 222 255
197 222 255
197 222 255
196 222 255
196 222 255
195 221 255
195 221 255
195 221 255
194 221 255
194 221 255
193 220 255
193 220 255
193 220 255
192 220 255
192 220 255
192 220 255
191 219 255
191 219 255
191 219 255
191 219 255
190 219 255
190 219 255
190 218 255
190 218 255
189 218 255
189 218 255
189 218 255
189 218 255
188 218 255
188 218 255
188 217 255
188 217 255
187 217 255
187 217 255
187 217 255
187 217 255
187 217 255
187 217 255
187 217 255
186 217 255
186 217 255
186 217 255
186 217 255
186 217 255
186 216 255
186 216 255
186 216 255
186 216 255
186 216 255
186 216 255
186 217 255
186 217 255
186 217 255
186 217 255
186 217 255
187 217 255
187 217 255
187 217 255
187 217 255
188 217 255
188 218 255
188 218 255
189 218 255
189 218 255
190 219 255
191 219 255
192 219 255
192 220 255
193 220 255
195 221 255
196 222 255
198 223 255
201 224 255
205 227 255
207 228 255
208 228 255
208 228 255
208 228 255
208 228 255
207 228 255
207 228 255
207 228 255
207 228 255
207 228 255
207 228 255
207 228 255
207 228 255
207 228 255
207 228 255
207 228 255
207 228 255
207 228 255
207 228 255
207 227 255
207 227 255
207 227 255
207 227 255
206 227 255
206 227 255
206 227 255
206 227 255
206 227 255
206 227 255
206 227 255
206 227 255
206 227 255
206 227 255
206 227 255
206 227 255
206 227 255
206 227 255
206 227 255
206 227 255
206 227 255
206 227 255
206 227 255
205 227 255
205 227 255
205 227 255
205 227 255
205 227 255
205 227 255
205 227 255
205 227 255
205 227 255
205 227 255
205 227 255
205 227 255
205 226 255
205 226 255
205 226 255
205 226 255
205 226 255
205 226 255
205 226 255
205 226 255
205 226 255
204 226 255
204 226 255
204 226 255
204 226 255
204 226 255
204 226 255
204 226 255
204 226 255
204 226 255
204 226 255
204 226 255
204 226 255
204 226 255
204 226 255
204 226 255
204 226 255
204 226 255
204 226 255
204 226 255
204 226 255
204 226 255
204 226 255
204 226 255
204 226 255
204 226 255
204 226 255
204 226 255
204 226 255
204 226 255
204 226 255
204 226 255
204 226 255
204 226 255
204 226 255
204 226 255
204 226 255
204 226 255
204 226 255
204 226 255
204 226 255
204 226 255
204 226 255
204 226 255
204 226 255
204 226 255
204 226 255
204 226 255
204 226 255
204 226 255
204 226 255
204 226 255
204 226 255
204 226 255
204 226 255
204 226 255
204 226 255
204 226 255
204 226 255
204 226 255
204 226 255
204 226 255
204 226 255
204 226 255
204 226 255
204 226 255
204 226 255
204 226 255
204 226 255
204 226 255
204 226 255
204 226 255
204 226 255
204 226 255
204 226 255
204 226 255
204 226 255
204 226 255
204 226 255
204 226 255
204 226 255
204 226 255
204 226 255
204 226 255
204 226 255
205 226 255
205 226 255
205 226 255
205 226 255
205 226 255
205 226 255
205 226 255
205 226 255
205 226 255
205 227 255
205 227 255
205 227 255
205 227 255
205 227 255
205 227 255
205 227 255
205 227 255
205 227 255
205 227 255
205 227 255
205 227 255
206 227 255
206 227 255
206 227 255
206 227 255
206 227 255
206 227 255
206 227 255
206 227 255
206 227 255
206 227 255
206 227 255
206 227 255
206 227 255
206 227 255
206 227 255
206 227 255
206 227 255
206 227 255
206 227 255
207 227 255
207 227 255
207 227 255
207 227 255
207 227 255
207 228 255
207 228 255
207 228 255
207 228 255
207 228 255
207 228 255
207 228 255
207 228 255
207 228 255
207 228 255
207 228 255
207 228 255
207 228 255
208 228 255
208 228 255
208 228 255
208 228 255
205 224 247
201 218 235
192 202 200
187 195 181
187 195 184
190 200 196
187 196 186
185 192 177
188 197 187
186 195 184
184 190 171
182 188 166
188 197 187
183 189 168
186 194 181
186 193 178
183 189 169
187 194 180
186 193 178
185 192 174
185 193 178
183 189 168
185 192 177
184 191 174
187 194 180
182 187 165
178 181 148
182 187 165
183 187 163
183 189 169
182 188 165
183 188 165
186 192 175
182 186 161
183 189 168
187 193 177
181 184 154
188 196 184
186 193 177
186 191 171
184 188 165
185 190 168
183 187 161
182 186 161
188 193 175
182 186 158
181 184 154
183 187 161
186 191 171
187 193 176
185 190 168
188 194 180
186 191 171
186 191 170
188 194 178
183 187 161
187 194 179
186 191 171
183 185 155
189 196 182
183 187 161
187 194 178
186 190 167
189 194 177
188 194 177
183 187 160
188 195 180
187 191 170
190 196 181
183 186 157
185 190 166
187 192 170
188 194 177
188 192 169
186 191 169
192 197 181
191 197 184
189 194 175
188 193 172
193 199 188
192 199 186
191 195 178
190 195 178
194 201 192
191 197 182
192 198 186
191 197 184
196 205 201
193 202 195
194 202 193
202 214 220
207 223 241
212 230 255
212 230 255
212 230 255
212 230 255
212 230 255
212 230 255
211 230 255
209 229 255
207 228 255
206 227 255
205 227 255
204 226 255
203 226 255
203 225 255
202 225 255
201 225 255
201 224 255
200 224 255
200 224 255
199 223 255
199 223 255
198 223 255
198 223 255
197 222 255
197 222 255
196 222 255
196 222 255
196 222 255
195 221 255
195 221 255
195 221 255
194 221 255
194 221 255
193 220 255
193 220 255
193 220 255
192 220 255
192 220 255
192 219 255
191 219 255
191 219 255
191 219 255
190 219 255
190 219 255
190 219 255
190 218 255
189 218 255
189 218 255
189 218 255
189 218 255
188 218 255
188 218 255
188 217 255
188 217 255
187 217 255
187 217 255
187 217 255
187 217 255
187 217 255
186 217 255
186 217 255
186 216 255
186 216 255
186 216 255
186 216 255
185 216 255
185 216 255
185 216 255
185 216 255
185 216 255
185 216 255
185 216 255
185 216 255
185 216 255
185 216 255
185 216 255
185 216 255
185 216 255
185 216 255
185 216 255
185 216 255
185 216 255
186 216 255
186 216 255
186 216 255
186 217 255
187 217 255
187 217 255
187 217 255
188 217 255
188 218 255
189 218 255
189 218 255
190 219 255
191 219 255
192 219 255
193 220 255
194 221 255
196 222 255
199 223 255
201 225 255
205 227 255
207 228 255
208 228 255
208 228 255
208 228 255
208 228 255
208 228 255
207 228 255
207 228 255
207 228 255
207 228 255
207 228 255
207 228 255
207 228 255
207 228 255
207 228 255
207 228 255
207 228 255
207 228 255
207 228 255
207 228 255
207 227 255
207 227 255
207 227 255
207 227 255
206 227 255
206 227 255
206 227 255
206 227 255
206 227 255
206 227 255
206 227 255
206 227 255
206 227 255
206 227 255
206 227 255
206 227 255
206 227 255
206 227 255
206 227 255
206 227 255
206 227 255
206 227 255
206 227 255
206 227 255
205 227 255
205 227 255
205 227 255
205 227 255
205 227 255
205 227 255
205 227 255
205 227 255
205 227 255
205 227 255
205 227 255
205 227 255
205 226 255
205 226 255
205 226 255
205 226 255
205 226 255
205 226 255
205 226 255
205 226 255
205 226 255
205 226 255
204 226 255
204 226 255
204 226 255
204 226 255
204 226 255
204 226 255
204 226 255
204 226 255
204 226 255
204 226 255
204 226 255
204 226 255
204 226 255
204 226 255
204 226 255
204 226 255
204 226 255
204 226 255
204 226 255
204 226 255
204 226 255
204 226 255
204 226 255
204 226 255
204 226 255
204 226 255
204 226 255
204 226 255
204 226 255
204 226 255
204 226 255
204 226 255
204 226 255
204 226 255
204 226 255
204 226 255
204 226 255
204 226 255
204 226 255
204 226 255
204 226 255
204 226 255
204 226 255
204 226 255
204 226 255
204 226 255
204 226 255
204 226 255
204 226 255
204 226 255
204 226 255
204 226 255
204 226 255
204 226 255
204 226 255
204 226 255
204 226 255
204 226 255
204 226 255
204 226 255
204 226 255
204 226 255
204 226 255
204 226 255
204 226 255
204 226 255
204 226 255
204 226 255
204 226 255
204 226 255
204 226 255
204 226 255
205 226 255
205 226 255
205 226 255
205 226 255
205 226 255
205 226 255
205 226 255
205 226 255
205 226 255
205 226 255
205 227 255
205 227 255
205 227 255
205 227 255
205 227 255
205 227 255
205 227 255
205 227 255
205 227 255
205 227 255
205 227 255
205 227 255
205 227 255
206 227 255
206 227 255
206 227 255
206 227 255
206 227 255
206 227 255
206 227 255
206 227 255
206 227 255
206 227 255
206 227 255
206 227 255
206 227 255
206 227 255
206 227 255
206 227 255
206 227 255
206 227 255
206 227 255
207 227 255
207 227 255
207 227 255
207 227 255
207 228 255
207 228 255
207 228 255
207 228 255
207 228 255
207 228 255
207 228 255
207 228 255
207 228 255
207 228 255
207 228 255
207 228 255
207 228 255
207 228 255
208 228 255
208 228 255
208 228 255
208 228 255
208 228 255
207 227 253
198 212 220
195 205 206
189 198 190
185 190 169
190 199 192
186 193 178
189 199 192
188 197 188
185 192 175
184 190 171
188 196 186
183 188 166
188 195 183
183 188 166
184 191 174
186 195 184
182 187 163
184 191 172
184 191 172
182 186 161
186 194 180
185 191 172
183 189 168
186 194 180
183 189 169
184 190 169
187 194 178
181 186 161
184 190 169
182 188 165
186 192 175
186 191 171
186 191 172
182 187 161
183 188 166
187 193 177
184 189 168
185 189 165
184 191 172
185 190 168
185 192 175
184 189 166
186 193 175
183 186 159
183 188 165
186 192 172
186 191 172
185 189 165
186 190 168
186 192 172
187 193 176
186 190 169
187 195 181
186 192 174
187 192 172
188 194 176
185 190 169
188 193 174
185 189 165
186 192 172
187 192 173
191 198 187
185 189 165
188 193 174
189 194 176
186 192 172
185 189 166
187 191 170
188 193 174
190 196 181
189 195 178
188 192 172
184 189 164
188 191 167
188 192 170
187 193 175
185 188 161
188 191 167
187 190 165
194 202 195
187 191 169
193 201 194
190 195 179
190 195 178
186 190 166
188 194 175
189 194 176
192 200 190
188 193 172
192 198 185
194 201 191
193 198 184
193 199 187
191 197 182
197 207 206
205 219 232
210 226 246
212 230 255
210 229 255
208 228 255
207 227 255
206 227 255
205 226 255
204 226 255
203 226 255
203 225 255
202 225 255
201 225 255
201 224 255
200 224 255
200 224 255
199 223 255
199 223 255
198 223 255
198 223 255
197 222 255
197 222 255
197 222 255
196 222 255
196 222 255
195 221 255
195 221 255
195 221 255
194 221 255
194 221 255
193 220 255
193 220 255
193 220 255
192 220 255
192 220 255
192 220 255
191 219 255
191 219 255
191 219 255
191 219 255
190 219 255
190 219 255
190 218 255
189 218 255
189 218 255
189 218 255
189 218 255
188 218 255
188 218 255
188 217 255
188 217 255
187 217 255
187 217 255
187 217 255
187 217 255
186 217 255
186 217 255
186 216 255
186 216 255
186 216 255
185 216 255
185 216 255
185 216 255
185 216 255
185 216 255
185 216 255
185 216 255
184 216 255
184 216 255
184 216 255
184 216 255
184 215 255
184 215 255
184 215 255
184 215 255
184 215 255
184 215 255
184 215 255
184 215 255
184 216 255
184 216 255
184 216 255
184 216 255
185 216 255
185 216 255
185 216 255
185 216 255
186 216 255
186 216 255
186 217 255
187 217 255
187 217 255
188 217 255
188 218 255
189 218 255
190 218 255
191 219 255
192 219 255
193 220 255
194 221 255
196 222 255
199 223 255
202 225 255
206 227 255
208 228 255
208 228 255
208 228 255
208 228 255
208 228 255
208 228 255
208 228 255
207 228 255
207 228 255
207 228 255
207 228 255
207 228 255
207 228 255
207 228 255
207 228 255
207 228 255
207 228 255
207 228 255
207 228 255
207 228 255
207 228 255
207 227 255
207 227 255
207 227 255
207 227 255
206 227 255
206 227 255
206 227 255
206 227 255
206 227 255
206 227 255
206 227 255
206 227 255
206 227 255
206 227 255
206 227 255
206 227 255
206 227 255
206 227 255
206 227 255
206 227 255
206 227 255
206 227 255
206 227 255
206 227 255
205 227 255
205 227 255
205 227 255
205 227 255
205 227 255
205 227 255
205 227 255
205 227 255
205 227 255
205 227 255
205 227 255
205 227 255
205 227 255
205 227 255
205 226 255
205 226 255
205 226 255
205 226 255
205 226 255
205 226 255
205 226 255
205 226 255
205 226 255
205 226 255
205 226 255
205 226 255
204 226 255
204 226 255
204 226 255
204 226 255
204 226 255
204 226 255
204 226 255
204 226 255
204 226 255
204 226 255
204 226 255
204 226 255
204 226 255
204 226 255
204 226 255
204 226 255
204 226 255
204 226 255
204 226 255
204 226 255
204 226 255
204 226 255
204 226 255
204 226 255
204 226 255
204 226 255
204 226 255
204 226 255
204 226 255
204 226 255
204 226 255
204 226 255
204 226 255
204 226 255
204 226 255
204 226 255
204 226 255
204 226 255
204 226 255
204 226 255
204 226 255
204 226 255
204 226 255
204 226 255
204 226 255
204 226 255
204 226 255
204 226 255
204 226 255
204 226 255
204 226 255
204 226 255
204 226 255
204 226 255
204 226 255
204 226 255
205 226 255
205 226 255
205 226 255
205 226 255
205 226 255
205 226 255
205 226 255
205 226 255
205 226 255
205 226 255
205 226 255
205 226 255
205 227 255
205 227 255
205 227 255
205 227 255
205 227 255
205 227 255
205 227 255
205 227 255
205 227 255
205 227 255
205 227 255
205 227 255
205 227 255
205 227 255
206 227 255
206 227 255
206 227 255
206 227 255
206 227 255
206 227 255
206 227 255
206 227 255
206 227 255
206 227 255
206 227 255
206 227 255
206 227 255
206 227 255
206 227 255
206 227 255
206 227 255
206 227 255
206 227 255
206 227 255
207 227 255
207 227 255
207 227 255
207 227 255
207 228 255
207 228 255
207 228 255
207 228 255
207 228 255
207 228 255
207 228 255
207 228 255
207 228 255
207 228 255
207 228 255
207 228 255
207 228 255
207 228 255
208 228 255
208 228 255
208 228 255
208 228 255
208 228 255
208 228 255
207 226 251
203 220 239
194 206 207
187 194 180
188 196 184
188 197 188
185 191 174
187 195 184
184 191 172
185 190 171
184 190 171
185 192 177
186 194 180
186 194 180
186 195 184
186 193 177
184 190 172
184 191 172
184 190 172
185 191 174
183 190 171
180 185 158
184 191 174
181 187 163
183 189 169
183 189 169
183 188 165
183 187 163
185 191 174
185 191 172
182 187 161
180 185 158
182 185 158
184 190 169
183 187 161
184 189 166
181 185 158
184 189 168
185 190 168
184 189 168
181 185 156
182 186 160
185 190 169
182 185 155
187 194 178
184 189 168
182 185 154
190 198 187
181 184 153
185 190 168
183 187 162
183 189 167
186 191 171
187 190 168
182 186 160
185 190 169
184 186 158
187 192 172
189 194 177
183 186 158
185 190 167
186 188 161
185 188 162
185 190 167
186 189 163
189 195 178
188 194 176
186 191 170
189 195 178
185 190 167
187 192 172
187 193 176
187 190 165
188 194 178
188 191 168
191 197 182
186 191 169
186 191 169
191 195 178
190 197 183
184 188 162
192 197 181
193 200 191
188 192 172
193 199 186
190 196 182
188 193 172
192 198 185
188 193 174
191 197 181
191 195 178
186 191 167
192 197 182
189 195 179
186 188 160
194 200 189
193 198 184
192 200 189
193 199 186
195 202 194
194 201 192
196 206 203
206 227 255
205 227 255
205 226 255
204 226 255
203 226 255
203 225 255
202 225 255
201 225 255
201 224 255
200 224 255
200 224 255
199 223 255
199 223 255
198 223 255
198 223 255
198 223 255
197 222 255
197 222 255
196 222 255
196 222 255
196 221 255
195 221 255
195 221 255
194 221 255
194 221 255
194 220 255
193 220 255
193 220 255
193 220 255
192 220 255
192 220 255
192 219 255
191 219 255
191 219 255
191 219 255
190 219 255
190 219 255
190 218 255
189 218 255
189 218 255
189 218 255
189 218 255
188 218 255
188 218 255
188 217 255
188 217 255
187 217 255
187 217 255
187 217 255
187 217 255
186 217 255
186 217 255
186 216 255
186 216 255
186 216 255
185 216 255
185 216 255
185 216 255
185 216 255
185 216 255
184 216 255
184 216 255
184 216 255
184 215 255
184 215 255
184 215 255
184 215 255
184 215 255
183 215 255
183 215 255
183 215 255
183 215 255
183 215 255
183 215 255
183 215 255
183 215 255
183 215 255
183 215 255
183 215 255
183 215 255
183 215 255
184 215 255
184 215 255
184 215 255
184 216 255
184 216 255
185 216 255
185 216 255
185 216 255
186 216 255
186 217 255
187 217 255
187 217 255
188 218 255
189 218 255
190 218 255
191 219 255
192 219 255
193 220 255
195 221 255
197 222 255
200 224 255
204 226 255
207 228 255
208 228 255
208 228 255
208 228 255
208 228 255
208 228 255
208 228 255
208 228 255
208 228 255
207 228 255
207 228 255
207 228 255
207 228 255
207 228 255
207 228 255
207 228 255
207 228 255
207 228 255
207 228 255
207 228 255
207 228 255
207 228 255
207 228 255
207 228 255
207 227 255
207 227 255
207 227 255
207 227 255
206 227 255
206 227 255
206 227 255
206 227 255
206 227 255
206 227 255
206 227 255
206 227 255
206 227 255
206 227 255
206 227 255
206 227 255
206 227 255
206 227 255
206 227 255
206 227 255
206 227 255
206 227 255
206 227 255
206 227 255
206 227 255
205 227 255
205 227 255
205 227 255
205 227 255
205 227 255
205 227 255
205 227 255
205 227 255
205 227 255
205 227 255
205 227 255
205 227 255
205 227 255
205 227 255
205 227 255
205 226 255
205 226 255
205 226 255
205 226 255
205 226 255
205 226 255
205 226 255
205 226 255
205 226 255
205 226 255
205 226 255
205 226 255
205 226 255
205 226 255
205 226 255
204 226 255
204 226 255
204 226 255
204 226 255
204 226 255
204 226 255
204 226 255
204 226 255
204 226 255
204 226 255
204 226 255
204 226 255
204 226 255
204 226 255
204 226 255
204 226 255
204 226 255
204 226 255
204 226 255
204 226 255
204 226 255
204 226 255
204 226 255
204 226 255
204 226 255
204 226 255
204 226 255
204 226 255
204 226 255
204 226 255
204 226 255
204 226 255
204 226 255
204 226 255
204 226 255
204 226 255
205 226 255
205 226 255
205 226 255
205 226 255
205 226 255
205 226 255
205 226 255
205 226 255
205 226 255
205 226 255
205 226 255
205 226 255
205 226 255
205 226 255
205 226 255
205 227 255
205 227 255
205 227 255
205 227 255
205 227 255
205 227 255
205 227 255
205 227 255
205 227 255
205 227 255
205 227 255
205 227 255
205 227 255
205 227 255
205 227 255
206 227 255
206 227 255
206 227 255
206 227 255
206 227 255
206 227 255
206 227 255
206 227 255
206 227 255
206 227 255
206 227 255
206 227 255
206 227 255
206 227 255
206 227 255
206 227 255
206 227 255
206 227 255
206 227 255
206 227 255
206 227 255
207 227 255
207 227 255
207 227 255
207 227 255
207 227 255
207 228 255
207 228 255
207 228 255
207 228 255
207 228 255
207 228 255
207 228 255
207 228 255
207 228 255
207 228 255
207 228 255
207 228 255
207 228 255
207 228 255
208 228 255
208 228 255
208 228 255
208 228 255
208 228 255
208 228 255
208 228 255
208 228 255
204 221 241
198 213 223
190 199 192
192 203 200
188 196 183
185 192 175
189 199 192
182 188 166
186 193 178
186 195 183
185 193 178
184 191 172
183 189 171
182 189 169
181 186 161
181 186 161
185 192 175
188 197 188
182 189 168
184 191 172
180 186 161
182 186 161
185 192 177
185 190 169
181 186 161
182 188 166
186 192 175
185 192 175
183 189 168
183 188 165
182 188 165
180 185 158
183 187 163
182 188 165
183 189 168
184 189 168
184 189 168
183 186 158
181 184 155
183 187 163
180 183 151
185 192 174
182 186 158
181 185 156
181 184 153
183 187 163
182 185 158
181 185 156
183 187 162
182 186 159
184 188 164
185 189 164
180 182 147
181 184 154
184 189 167
180 182 147
185 190 171
184 188 165
187 191 169
184 188 161
187 192 172
187 193 174
187 192 174
188 194 176
185 188 163
187 192 172
185 188 163
185 188 161
186 193 176
186 189 165
188 191 167
187 193 175
187 192 172
183 185 153
186 189 163
188 193 173
189 194 176
185 189 165
188 194 178
189 196 181
186 190 167
188 190 165
186 190 165
188 194 176
187 192 174
185 189 165
188 192 169
187 192 172
188 194 175
186 191 169
191 196 178
191 195 178
187 191 167
190 197 183
191 197 182
192 196 180
190 197 185
189 193 172
189 194 175
189 192 169
192 199 186
192 198 183
196 202 192
191 196 179
205 226 255
204 226 255
203 226 255
203 225 255
202 225 255
202 225 255
201 224 255
201 224 255
200 224 255
200 224 255
199 223 255
199 223 255
198 223 255
198 223 255
197 222 255
197 222 255
197 222 255
196 222 255
196 222 255
195 221 255
195 221 255
195 221 255
194 221 255
194 221 255
194 220 255
193 220 255
193 220 255
193 220 255
192 220 255
192 220 255
192 219 255
191 219 255
191 219 255
191 219 255
190 219 255
190 219 255
190 218 255
189 218 255
189 218 255
189 218 255
189 218 255
188 218 255
188 218 255
188 217 255
188 217 255
187 217 255
187 217 255
187 217 255
187 217 255
186 217 255
186 217 255
186 216 255
186 216 255
185 216 255
185 216 255
185 216 255
185 216 255
185 216 255
184 216 255
184 216 255
184 215 255
184 215 255
184 215 255
184 215 255
183 215 255
183 215 255
183 215 255
183 215 255
183 215 255
183 215 255
183 215 255
183 215 255
183 215 255
183 215 255
183 215 255
182 215 255
182 215 255
183 215 255
183 215 255
183 215 255
183 215 255
183 215 255
183 215 255
183 215 255
183 215 255
183 215 255
184 215 255
184 215 255
184 215 255
184 216 255
185 216 255
185 216 255
186 216 255
186 217 255
187 217 255
187 217 255
188 218 255
189 218 255
190 219 255
191 219 255
192 220 255
194 221 255
196 222 255
198 223 255
203 225 255
206 227 255
208 228 255
208 228 255
208 228 255
208 228 255
208 228 255
208 228 255
208 228 255
208 228 255
208 228 255
208 228 255
207 228 255
207 228 255
207 228 255
207 228 255
207 228 255
207 228 255
207 228 255
207 228 255
207 228 255
207 228 255
207 228 255
207 228 255
207 228 255
207 228 255
207 228 255
207 227 255
207 227 255
207 227 255
207 227 255
207 227 255
206 227 255
206 227 255
206 227 255
206 227 255
206 227 255
206 227 255
206 227 255
206 227 255
206 227 255
206 227 255
206 227 255
206 227 255
206 227 255
206 227 255
206 227 255
206 227 255
206 227 255
206 227 255
206 227 255
206 227 255
206 227 255
206 227 255
205 227 255
205 227 255
205 227 255
205 227 255
205 227 255
205 227 255
205 227 255
205 227 255
205 227 255
205 227 255
205 227 255
205 227 255
205 227 255
205 227 255
205 227 255
205 227 255
205 227 255
205 227 255
205 226 255
205 226 255
205 226 255
205 226 255
205 226 255
205 226 255
205 226 255
205 226 255
205 226 255
205 226 255
205 226 255
205 226 255
205 226 255
205 226 255
205 226 255
205 226 255
205 226 255
205 226 255
205 226 255
205 226 255
205 226 255
205 226 255
205 226 255
205 226 255
205 226 255
205 226 255
205 226 255
205 226 255
205 226 255
205 226 255
205 226 255
205 226 255
205 226 255
205 226 255
205 226 255
205 226 255
205 226 255
205 226 255
205 226 255
205 226 255
205 226 255
205 226 255
205 226 255
205 226 255
205 226 255
205 226 255
205 226 255
205 226 255
205 227 255
205 227 255
205 227 255
205 227 255
205 227 255
205 227 255
205 227 255
205 227 255
205 227 255
205 227 255
205 227 255
205 227 255
205 227 255
205 227 255
205 227 255
205 227 255
205 227 255
205 227 255
206 227 255
206 227 255
206 227 255
206 227 255
206 227 255
206 227 255
206 227 255
206 227 255
206 227 255
206 227 255
206 227 255
206 227 255
206 227 255
206 227 255
206 227 255
206 227 255
206 227 255
206 227 255
206 227 255
206 227 255
206 227 255
206 227 255
207 227 255
207 227 255
207 227 255
207 227 255
207 227 255
207 228 255
207 228 255
207 228 255
207 228 255
207 228 255
207 228 255
207 228 255
207 228 255
207 228 255
207 228 255
207 228 255
207 228 255
207 228 255
207 228 255
207 228 255
208 228 255
208 228 255
208 228 255
208 228 255
208 228 255
208 228 255
208 228 255
208 228 255
208 228 255
208 228 254
201 216 231
192 202 198
190 198 190
185 192 174
190 199 192
186 194 180
186 194 180
185 192 177
186 193 180
185 192 177
185 192 175
185 191 172
185 192 177
184 192 175
187 195 183
184 190 169
185 192 177
182 187 163
182 187 165
184 192 177
187 194 181
181 187 165
186 193 178
184 190 171
180 184 155
182 186 160
179 184 155
181 184 155
182 186 160
183 189 168
185 190 169
179 184 155
183 187 163
182 187 161
185 190 169
183 187 161
182 187 163
182 187 161
184 190 169
181 184 153
181 185 156
182 187 161
181 184 154
183 187 161
184 189 166
182 185 154
182 186 159
183 187 160
180 182 148
181 184 153
182 185 158
181 185 156
183 186 160
184 188 161
188 193 174
185 188 163
184 188 164
185 189 165
182 184 151
186 189 165
185 190 167
182 184 151
185 189 165
189 195 179
183 185 154
186 191 171
185 190 168
186 191 170
184 189 166
186 191 169
185 189 164
183 188 163
186 192 172
188 192 171
188 193 174
187 189 164
183 187 161
188 193 174
188 193 174
190 195 177
188 192 171
185 187 159
187 192 172
189 195 178
188 193 175
187 192 170
190 196 180
188 193 172
186 189 161
193 199 186
191 196 179
187 191 169
191 197 181
187 191 168
188 191 169
190 195 176
193 199 186
192 199 188
189 194 174
192 197 182
190 193 171
188 192 169
190 194 173
193 201 193
194 201 192
193 200 189
204 226 255
203 225 255
202 225 255
202 225 255
201 225 255
201 224 255
200 224 255
200 224 255
199 224 255
199 223 255
199 223 255
198 223 255
198 223 255
197 222 255
197 222 255
197 222 255
196 222 255
196 222 255
195 221 255
195 221 255
195 221 255
194 221 255
194 221 255
194 220 255
193 220 255
193 220 255
193 220 255
192 220 255
192 220 255
192 219 255
191 219 255
191 219 255
191 219 255
190 219 255
190 219 255
190 218 255
190 218 255
189 218 255
189 218 255
189 218 255
188 218 255
188 218 255
188 217 255
188 217 255
187 217 255
187 217 255
187 217 255
187 217 255
186 217 255
186 217 255
186 216 255
186 216 255
185 216 255
185 216 255
185 216 255
185 216 255
185 216 255
184 216 255
184 216 255
184 215 255
184 215 255
184 215 255
183 215 255
183 215 255
183 215 255
183 215 255
183 215 255
183 215 255
183 215 255
182 215 255
182 215 255
182 215 255
182 215 255
182 214 255
182 214 255
182 214 255
182 214 255
182 214 255
182 214 255
182 214 255
182 214 255
182 214 255
182 214 255
182 215 255
182 215 255
182 215 255
183 215 255
183 215 255
183 215 255
183 215 255
184 215 255
184 215 255
184 216 255
185 216 255
185 216 255
186 216 255
186 217 255
187 217 255
188 217 255
189 218 255
189 218 255
190 219 255
192 220 255
193 220 255
195 221 255
198 223 255
201 224 255
206 227 255
208 228 255
208 228 255
208 228 255
208 228 255
208 228 255
208 228 255
208 228 255
208 228 255
208 228 255
208 228 255
208 228 255
208 228 255
208 228 255
207 228 255
207 228 255
207 228 255
207 228 255
207 228 255
207 228 255
207 228 255
207 228 255
207 228 255
207 228 255
207 228 255
207 228 255
207 228 255
207 228 255
207 228 255
207 227 255
207 227 255
207 227 255
207 227 255
207 227 255
206 227 255
206 227 255
206 227 255
206 227 255
206 227 255
206 227 255
206 227 255
206 227 255
206 227 255
206 227 255
206 227 255
206 227 255
206 227 255
206 227 255
206 227 255
206 227 255
206 227 255
206 227 255
206 227 255
206 227 255
206 227 255
206 227 255
206 227 255
205 227 255
205 227 255
205 227 255
205 227 255
205 227 255
205 227 255
205 227 255
205 227 255
205 227 255
205 227 255
205 227 255
205 227 255
205 227 255
205 227 255
205 227 255
205 227 255
205 227 255
205 227 255
205 227 255
205 227 255
205 227 255
205 227 255
205 227 255
205 227 255
205 227 255
205 227 255
205 226 255
205 226 255
205 226 255
205 226 255
205 226 255
205 226 255
205 226 255
205 226 255
205 226 255
205 226 255
205 226 255
205 226 255
205 226 255
205 226 255
205 226 255
205 226 255
205 226 255
205 226 255
205 226 255
205 226 255
205 226 255
205 227 255
205 227 255
205 227 255
205 227 255
205 227 255
205 227 255
205 227 255
205 227 255
205 227 255
205 227 255
205 227 255
205 227 255
205 227 255
205 227 255
205 227 255
205 227 255
205 227 255
205 227 255
205 227 255
205 227 255
205 227 255
205 227 255
205 227 255
205 227 255
205 227 255
206 227 255
206 227 255
206 227 255
206 227 255
206 227 255
206 227 255
206 227 255
206 227 255
206 227 255
206 227 255
206 227 255
206 227 255
206 227 255
206 227 255
206 227 255
206 227 255
206 227 255
206 227 255
206 227 255
206 227 255
206 227 255
206 227 255
206 227 255
207 227 255
207 227 255
207 227 255
207 227 255
207 227 255
207 228 255
207 228 255
207 228 255
207 228 255
207 228 255
207 228 255
207 228 255
207 228 255
207 228 255
207 228 255
207 228 255
207 228 255
207 228 255
207 228 255
207 228 255
208 228 255
208 228 255
208 228 255
208 228 255
208 228 255
208 228 255
208 228 255
208 228 255
208 228 255
208 228 255
208 228 255
208 228 255
207 227 252
201 216 230
192 203 200
188 196 184
188 193 177
185 192 175
188 196 186
187 194 181
186 194 181
185 192 177
186 193 177
182 188 168
182 186 161
180 184 158
185 191 174
178 182 153
180 184 155
183 189 171
183 190 171
182 188 165
185 192 177
183 189 168
182 187 163
184 191 172
182 187 163
181 186 160
181 186 160
183 188 165
183 188 165
182 187 163
185 191 171
181 185 156
182 185 155
184 190 171
183 187 163
182 185 156
184 189 166
185 190 168
184 190 171
183 188 165
182 186 158
184 190 169
182 186 160
180 183 151
182 186 160
186 191 172
182 186 159
181 183 150
179 181 146
183 188 165
182 185 156
180 183 151
182 185 156
185 188 161
184 187 160
185 189 166
184 188 161
184 187 159
180 181 146
183 185 155
184 187 161
183 185 153
187 190 166
186 188 162
182 184 151
185 188 161
182 184 150
188 193 173
183 186 158
181 182 146
186 191 169
190 195 178
186 190 168
184 187 158
187 192 172
186 189 164
186 190 167
183 186 156
186 189 165
185 188 163
187 191 168
187 192 170
186 190 166
186 189 163
187 191 168
192 199 189
186 189 163
187 191 169
187 192 171
185 188 160
183 186 155
190 193 172
189 194 174
188 192 170
185 188 161
187 189 161
189 195 176
186 189 162
189 194 176
191 196 181
186 189 163
188 193 172
190 196 181
193 199 187
190 195 178
190 194 173
188 192 170
191 197 181
192 199 188
203 225 255
202 225 255
202 225 255
201 224 255
201 224 255
200 224 255
200 224 255
199 223 255
199 223 255
199 223 255
198 223 255
198 223 255
197 222 255
197 222 255
197 222 255
196 222 255
196 222 255
195 221 255
195 221 255
195 221 255
194 221 255
194 221 255
194 221 255
193 220 255
193 220 255
193 220 255
192 220 255
192 220 255
192 220 255
191 219 255
191 219 255
191 219 255
191 219 255
190 219 255
190 219 255
190 218 255
189 218 255
189 218 255
189 218 255
189 218 255
188 218 255
188 218 255
188 217 255
187 217 255
187 217 255
187 217 255
187 217 255
186 217 255
186 217 255
186 216 255
186 216 255
185 216 255
185 216 255
185 216 255
185 216 255
185 216 255
184 216 255
184 216 255
184 215 255
184 215 255
184 215 255
183 215 255
183 215 255
183 215 255
183 215 255
183 215 255
183 215 255
182 215 255
182 215 255
182 215 255
182 214 255
182 214 255
182 214 255
182 214 255
182 214 255
182 214 255
182 214 255
182 214 255
182 214 255
181 214 255
181 214 255
182 214 255
182 214 255
182 214 255
182 214 255
182 214 255
182 214 255
182 214 255
182 215 255
182 215 255
183 215 255
183 215 255
183 215 255
184 215 255
184 215 255
184 216 255
185 216 255
185 216 255
186 216 255
187 217 255
187 217 255
188 218 255
189 218 255
190 219 255
192 219 255
193 220 255
195 221 255
197 222 255
201 224 255
206 227 255
208 228 255
208 228 255
208 228 255
208 228 255
208 228 255
208 228 255
208 228 255
208 228 255
208 228 255
208 228 255
208 228 255
208 228 255
208 228 255
208 228 255
208 228 255
207 228 255
207 228 255
207 228 255
207 228 255
207 228 255
207 228 255
207 228 255
207 228 255
207 228 255
207 228 255
207 228 255
207 228 255
207 228 255
207 228 255
207 228 255
207 228 255
207 227 255
207 227 255
207 227 255
207 227 255
207 227 255
206 227 255
206 227 255
206 227 255
206 227 255
206 227 255
206 227 255
206 227 255
206 227 255
206 227 255
206 227 255
206 227 255
206 227 255
206 227 255
206 227 255
206 227 255
206 227 255
206 227 255
206 227 255
206 227 255
206 227 255
206 227 255
206 227 255
206 227 255
206 227 255
206 227 255
206 227 255
206 227 255
205 227 255
205 227 255
205 227 255
205 227 255
205 227 255
205 227 255
205 227 255
205 227 255
205 227 255
205 227 255
205 227 255
205 227 255
205 227 255
205 227 255
205 227 255
205 227 255
205 227 255
205 227 255
205 227 255
205 227 255
205 227 255
205 227 255
205 227 255
205 227 255
204 226 255
198 219 250
196 217 248
202 224 254
198 220 250
204 226 255
205 227 255
205 227 255
205 227 255
205 227 255
205 227 255
205 227 255
205 227 255
205 227 255
205 227 255
205 227 255
205 227 255
205 227 255
205 227 255
205 227 255
205 227 255
205 227 255
205 227 255
205 227 255
205 227 255
205 227 255
205 227 255
205 227 255
205 227 255
205 227 255
206 227 255
206 227 255
206 227 255
206 227 255
206 227 255
206 227 255
206 227 255
206 227 255
206 227 255
206 227 255
206 227 255
206 227 255
206 227 255
206 227 255
206 227 255
206 227 255
206 227 255
206 227 255
206 227 255
206 227 255
206 227 255
206 227 255
206 227 255
206 227 255
206 227 255
206 227 255
206 227 255
207 227 255
207 227 255
207 227 255
207 227 255
207 227 255
207 228 255
207 228 255
207 228 255
207 228 255
207 228 255
207 228 255
207 228 255
207 228 255
207 228 255
207 228 255
207 228 255
207 228 255
207 228 255
207 228 255
207 228 255
207 228 255
208 228 255
208 228 255
208 228 255
208 228 255
208 228 255
208 228 255
208 228 255
208 228 255
208 228 255
208 228 255
208 228 255
208 228 255
208 228 255
208 228 255
207 226 251
200 215 227
189 197 188
191 200 193
187 195 183
186 193 178
183 188 165
188 196 186
183 188 166
187 195 183
184 190 169
186 193 178
183 189 168
186 195 183
182 187 163
185 192 175
185 192 175
183 190 171
184 191 174
184 191 174
180 184 156
180 184 156
181 187 163
182 186 160
184 190 171
185 190 169
184 191 174
180 185 158
182 188 165
182 187 163
182 187 163
179 181 146
185 190 171
182 186 160
183 186 160
182 186 158
181 184 153
183 187 161
180 183 153
184 188 163
182 186 158
178 179 141
183 189 166
181 183 151
182 187 163
180 182 149
186 190 166
181 183 151
179 182 148
182 185 155
184 187 159
181 183 151
181 184 154
180 182 147
183 186 156
183 187 159
184 188 162
184 187 158
186 191 170
181 183 149
184 187 158
183 185 153
180 182 146
183 186 159
187 190 166
183 187 160
183 186 158
188 194 177
186 190 167
182 182 146
185 188 163
186 190 165
185 185 151
187 191 169
182 182 144
183 185 153
188 193 175
184 187 161
185 187 159
187 190 165
185 187 158
188 190 166
186 190 167
187 192 170
187 192 171
186 190 168
190 193 172
188 195 180
187 191 169
186 189 163
187 191 169
191 196 178
187 191 169
188 192 169
186 191 168
191 195 176
185 188 161
186 190 165
184 185 153
189 195 179
183 185 153
190 195 176
191 196 178
187 190 166
190 194 175
189 194 175
190 194 174
188 191 168
192 197 182
193 199 187
188 193 171
202 225 255
202 225 255
201 224 255
201 224 255
200 224 255
200 224 255
199 223 255
199 223 255
199 223 255
198 223 255
198 223 255
197 222 255
197 222 255
197 222 255
196 222 255
196 222 255
196 222 255
195 221 255
195 221 255
195 221 255
194 221 255
194 221 255
194 220 255
193 220 255
193 220 255
193 220 255
192 220 255
192 220 255
192 219 255
191 219 255
191 219 255
191 219 255
190 219 255
190 219 255
190 219 255
190 218 255
189 218 255
189 218 255
189 218 255
189 218 255
188 218 255
188 217 255
188 217 255
187 217 255
187 217 255
187 217 255
187 217 255
186 217 255
186 217 255
186 216 255
186 216 255
185 216 255
185 216 255
185 216 255
185 216 255
185 216 255
184 216 255
184 216 255
184 215 255
184 215 255
183 215 255
183 215 255
183 215 255
183 215 255
183 215 255
183 215 255
182 215 255
182 215 255
182 215 255
182 214 255
182 214 255
182 214 255
182 214 255
182 214 255
181 214 255
181 214 255
181 214 255
181 214 255
181 214 255
181 214 255
181 214 255
181 214 255
181 214 255
181 214 255
181 214 255
181 214 255
181 214 255
181 214 255
182 214 255
182 214 255
182 214 255
182 214 255
182 215 255
183 215 255
183 215 255
183 215 255
184 215 255
184 215 255
185 216 255
185 216 255
186 216 255
186 217 255
187 217 255
188 218 255
189 218 255
190 219 255
191 219 255
193 220 255
195 221 255
197 222 255
201 225 255
206 227 255
208 228 255
208 228 255
208 228 255
208 228 255
208 228 255
208 228 255
208 228 255
208 228 255
208 228 255
208 228 255
208 228 255
208 228 255
208 228 255
208 228 255
208 228 255
208 228 255
208 228 255
208 228 255
207 228 255
207 228 255
207 228 255
207 228 255
207 228 255
207 228 255
207 228 255
207 228 255
207 228 255
207 228 255
207 228 255
207 228 255
207 228 255
207 228 255
207 228 255
207 228 255
207 227 255
207 227 255
207 227 255
207 227 255
207 227 255
207 227 255
206 227 255
206 227 255
206 227 255
206 227 255
206 227 255
206 227 255
206 227 255
206 227 255
206 227 255
206 227 255
206 227 255
206 227 255
206 227 255
206 227 255
206 227 255
206 227 255
206 227 255
206 227 255
206 227 255
206 227 255
206 227 255
206 227 255
206 227 255
206 227 255
206 227 255
206 227 255
206 227 255
206 227 255
206 227 255
206 227 255
206 227 255
206 227 255
206 227 255
205 227 255
205 227 255
205 227 255
205 227 255
204 225 254
191 213 246
165 188 228
150 174 217
122 148 203
117 143 198
92 121 188
73 107 181
62 99 179
62 99 178
61 99 177
62 99 175
62 99 178
65 101 179
67 102 175
96 125 190
107 135 198
135 160 211
149 172 216
172 194 233
194 215 248
204 225 254
205 227 255
205 227 255
205 227 255
205 227 255
206 227 255
206 227 255
206 227 255
206 227 255
206 227 255
206 227 255
206 227 255
206 227 255
206 227 255
206 227 255
206 227 255
206 227 255
206 227 255
206 227 255
206 227 255
206 227 255
206 227 255
206 227 255
206 227 255
206 227 255
206 227 255
206 227 255
206 227 255
206 227 255
206 227 255
206 227 255
206 227 255
206 227 255
206 227 255
206 227 255
206 227 255
206 227 255
206 227 255
207 227 255
207 227 255
207 227 255
207 227 255
207 227 255
207 227 255
207 228 255
207 228 255
207 228 255
207 228 255
207 228 255
207 228 255
207 228 255
207 228 255
207 228 255
207 228 255
207 228 255
207 228 255
207 228 255
207 228 255
207 228 255
207 228 255
208 228 255
208 228 255
208 228 255
208 228 255
208 228 255
208 228 255
208 228 255
208 228 255
208 228 255
208 228 255
208 228 255
208 228 255
208 228 255
208 228 255
208 228 255
208 228 255
208 228 255
208 228 255
199 213 223
193 204 202
189 197 187
187 194 178
188 196 186
185 191 172
184 191 174
186 191 171
185 193 178
184 191 172
183 189 168
184 189 168
184 190 171
184 189 168
183 189 169
181 186 161
179 183 153
181 186 160
180 184 155
181 186 163
181 187 165
184 191 172
182 187 161
184 191 174
181 186 160
183 187 161
183 187 161
179 182 150
185 191 172
177 180 144
182 186 160
185 191 172
182 186 160
183 188 165
180 183 153
180 182 148
183 186 160
180 182 148
184 190 169
182 185 156
181 185 156
179 182 150
182 185 155
181 185 156
181 185 156
184 188 165
182 185 155
185 188 161
185 189 166
183 184 151
180 182 148
183 185 154
182 185 155
184 188 161
185 188 163
182 182 146
184 189 165
180 182 147
184 186 158
184 187 159
183 185 153
181 183 151
183 186 157
186 190 166
183 186 159
182 184 153
182 183 149
184 186 154
185 187 157
180 181 146
181 181 144
183 184 151
184 189 167
184 186 156
184 187 159
184 187 159
185 187 159
188 191 165
186 189 165
185 189 163
186 189 163
185 187 158
182 184 152
187 189 163
184 186 154
189 192 168
187 191 168
188 192 171
188 191 169
185 188 161
189 193 174
188 193 174
184 188 163
186 189 163
187 191 167
190 193 172
185 186 154
187 190 166
189 193 171
183 187 161
187 189 163
185 190 168
189 193 174
189 194 175
191 195 176
189 192 170
188 193 172
188 191 165
191 196 179
190 194 174
190 195 177
187 190 163
202 225 255
201 224 255
201 224 255
200 224 255
200 224 255
199 224 255
199 223 255
199 223 255
198 223 255
198 223 255
198 223 255
197 222 255
197 222 255
196 222 255
196 222 255
196 222 255
195 221 255
195 221 255
195 221 255
194 221 255
194 221 255
194 221 255
193 220 255
193 220 255
193 220 255
193 220 255
192 220 255
192 220 255
192 219 255
191 219 255
191 219 255
191 219 255
190 219 255
190 219 255
190 219 255
190 218 255
189 218 255
189 218 255
189 218 255
189 218 255
188 218 255
188 218 255
188 217 255
187 217 255
187 217 255
187 217 255
187 217 255
186 217 255
186 217 255
186 216 255
186 216 255
185 216 255
185 216 255
185 216 255
185 216 255
185 216 255
184 216 255
184 216 255
184 215 255
184 215 255
184 215 255
183 215 255
183 215 255
183 215 255
183 215 255
183 215 255
182 215 255
182 215 255
182 214 255
182 214 255
182 214 255
182 214 255
182 214 255
181 214 255
181 214 255
181 214 255
181 214 255
181 214 255
181 214 255
181 214 255
181 214 255
181 214 255
181 214 255
181 214 255
181 214 255
181 214 255
181 214 255
181 214 255
181 214 255
181 214 255
181 214 255
181 214 255
182 214 255
182 214 255
182 215 255
182 215 255
183 215 255
183 215 255
184 215 255
184 215 255
184 216 255
185 216 255
186 216 255
186 217 255
187 217 255
188 217 255
189 218 255
190 219 255
192 219 255
193 220 255
195 221 255
197 222 255
202 225 255
206 227 255
208 228 255
208 228 255
208 228 255
208 228 255
208 228 255
208 228 255
208 228 255
208 228 255
208 228 255
208 228 255
208 228 255
208 228 255
208 228 255
208 228 255
208 228 255
208 228 255
208 228 255
208 228 255
208 228 255
208 228 255
208 228 255
207 228 255
207 228 255
207 228 255
207 228 255
207 228 255
207 228 255
207 228 255
207 228 255
207 228 255
207 228 255
207 228 255
207 228 255
207 228 255
207 228 255
207 228 255
207 228 255
207 228 255
207 227 255
207 227 255
207 227 255
207 227 255
207 227 255
207 227 255
206 227 255
206 227 255
206 227 255
206 227 255
206 227 255
206 227 255
206 227 255
206 227 255
206 227 255
206 227 255
206 227 255
206 227 255
206 227 255
206 227 255
206 227 255
206 227 255
206 227 255
206 227 255
206 227 255
206 227 255
206 227 255
206 227 255
206 227 255
206 227 255
206 227 255
206 227 255
206 227 255
204 225 254
187 209 242
143 166 214
116 142 200
69 104 182
62 99 175
61 98 176
63 99 175
62 99 173
63 99 179
62 99 178
62 99 176
62 99 177
62 99 176
62 99 177
63 99 177
62 99 172
62 99 173
62 99 175
62 99 169
62 99 179
61 98 171
62 99 175
62 99 175
61 98 173
76 109 181
113 139 199
151 174 219
175 197 236
204 225 254
206 227 255
206 227 255
206 227 255
206 227 255
206 227 255
206 227 255
206 227 255
206 227 255
206 227 255
206 227 255
206 227 255
206 227 255
206 227 255
206 227 255
206 227 255
206 227 255
206 227 255
206 227 255
206 227 255
206 227 255
206 227 255
206 227 255
206 227 255
206 227 255
206 227 255
206 227 255
207 227 255
207 227 255
207 227 255
207 227 255
207 227 255
207 227 255
207 227 255
207 228 255
207 228 255
207 228 255
207 228 255
207 228 255
207 228 255
207 228 255
207 228 255
207 228 255
207 228 255
207 228 255
207 228 255
207 228 255
207 228 255
207 228 255
207 228 255
207 228 255
208 228 255
208 228 255
208 228 255
208 228 255
208 228 255
208 228 255
208 228 255
208 228 255
208 228 255
208 228 255
208 228 255
208 228 255
208 228 255
208 228 255
208 228 255
208 228 255
208 228 255
208 228 255
208 228 255
208 228 255
208 228 254
202 218 234
191 199 191
188 197 187
189 197 190
186 193 178
188 195 183
187 194 181
184 191 175
183 188 168
184 190 171
184 190 172
178 182 153
181 187 166
183 189 168
183 189 171
182 188 168
184 191 174
182 188 166
181 186 160
180 186 163
182 185 158
180 185 158
182 187 163
178 181 148
183 188 166
184 189 168
178 181 148
177 180 144
178 181 148
182 187 163
178 180 144
176 178 137
180 182 150
180 185 158
181 184 155
182 184 153
185 191 171
180 184 155
183 188 165
177 178 139
183 187 161
184 187 160
177 180 144
178 179 141
180 183 153
179 181 146
179 181 146
179 180 142
185 188 163
180 181 146
181 182 146
185 188 161
184 188 161
184 187 159
179 182 147
181 183 149
183 186 156
184 189 166
178 179 138
181 183 151
183 185 154
182 186 157
186 189 165
184 186 157
184 189 164
181 184 152
182 184 153
184 187 157
183 186 157
185 188 160
185 187 159
180 179 138
182 184 151
183 186 158
185 189 164
184 185 151
183 186 158
185 188 161
185 189 163
187 191 168
183 187 159
188 193 174
185 188 162
183 185 154
186 189 161
184 186 156
184 185 151
185 186 154
189 194 174
186 188 161
184 185 153
185 188 159
183 187 160
187 190 167
185 187 157
188 192 170
187 189 161
188 191 167
187 190 164
186 190 165
190 193 172
191 195 176
187 190 165
190 196 179
189 192 170
186 188 159
189 191 165
192 198 183
190 194 172
189 193 171
188 192 169
188 193 173
194 201 189
191 195 177
201 225 255
201 224 255
200 224 255
200 224 255
200 224 255
199 223 255
199 223 255
198 223 255
198 223 255
198 223 255
197 222 255
197 222 255
197 222 255
196 222 255
196 222 255
196 222 255
195 221 255
195 221 255
195 221 255
194 221 255
194 221 255
194 221 255
193 220 255
193 220 255
193 220 255
193 220 255
192 220 255
192 220 255
192 219 255
191 219 255
191 219 255
191 219 255
191 219 255
190 219 255
190 219 255
190 218 255
189 218 255
189 218 255
189 218 255
189 218 255
188 218 255
188 218 255
188 217 255
188 217 255
187 217 255
187 217 255
187 217 255
187 217 255
186 217 255
186 217 255
186 216 255
186 216 255
185 216 255
185 216 255
185 216 255
185 216 255
184 216 255
184 216 255
184 215 255
184 215 255
184 215 255
183 215 255
183 215 255
183 215 255
183 215 255
183 215 255
182 215 255
182 215 255
182 215 255
182 214 255
182 214 255
182 214 255
182 214 255
181 214 255
181 214 255
181 214 255
181 214 255
181 214 255
181 214 255
181 214 255
181 214 255
181 214 255
181 214 255
181 214 255
181 214 255
181 214 255
181 214 255
181 214 255
181 214 255
181 214 255
181 214 255
181 214 255
181 214 255
181 214 255
182 214 255
182 214 255
182 214 255
182 215 255
183 215 255
183 215 255
183 215 255
184 215 255
184 216 255
185 216 255
186 216 255
186 217 255
187 217 255
188 218 255
189 218 255
190 219 255
192 219 255
194 220 255
196 221 255
198 223 255
202 225 255
207 228 255
209 229 255
209 229 255
209 228 255
208 228 255
208 228 255
208 228 255
208 228 255
208 228 255
208 228 255
208 228 255
208 228 255
208 228 255
208 228 255
208 228 255
208 228 255
208 228 255
208 228 255
208 228 255
208 228 255
208 228 255
208 228 255
208 228 255
208 228 255
208 228 255
207 228 255
207 228 255
207 228 255
207 228 255
207 228 255
207 228 255
207 228 255
207 228 255
207 228 255
207 228 255
207 228 255
207 228 255
207 228 255
207 228 255
207 228 255
207 228 255
207 228 255
207 228 255
207 228 255
207 227 255
207 227 255
207 227 255
207 227 255
207 227 255
207 227 255
207 227 255
206 227 255
206 227 255
206 227 255
206 227 255
206 227 255
206 227 255
206 227 255
206 227 255
206 227 255
206 227 255
206 227 255
206 227 255
206 227 255
206 227 255
206 227 255
206 227 255
202 223 253
173 196 234
133 157 210
68 103 178
62 99 178
61 98 177
62 99 177
61 98 172
63 99 177
63 99 178
62 99 176
62 99 179
62 99 177
62 99 175
62 99 178
62 99 174
62 99 173
62 99 175
62 99 175
62 98 174
62 99 172
62 99 171
62 98 174
62 99 175
63 99 176
63 99 172
62 99 179
63 99 174
63 99 171
62 99 177
62 99 172
62 99 175
74 107 180
130 155 205
170 192 231
200 222 252
206 227 255
206 227 255
206 227 255
206 227 255
206 227 255
206 227 255
206 227 255
206 227 255
206 227 255
206 227 255
206 227 255
206 227 255
206 227 255
206 227 255
206 227 255
206 227 255
207 227 255
207 227 255
207 227 255
207 227 255
207 227 255
207 227 255
207 227 255
207 228 255
207 228 255
207 228 255
207 228 255
207 228 255
207 228 255
207 228 255
207 228 255
207 228 255
207 228 255
207 228 255
207 228 255
207 228 255
207 228 255
207 228 255
207 228 255
207 228 255
207 228 255
208 228 255
208 228 255
208 228 255
208 228 255
208 228 255
208 228 255
208 228 255
208 228 255
208 228 255
208 228 255
208 228 255
208 228 255
208 228 255
208 228 255
208 228 255
208 228 255
208 228 255
208 228 255
208 228 255
208 228 255
208 228 255
209 228 255
209 228 255
209 229 255
209 229 255
206 223 244
191 200 194
191 199 191
191 199 190
186 193 178
183 189 169
185 191 174
186 194 181
187 195 183
181 187 164
181 186 162
182 188 166
184 190 171
182 185 158
183 189 169
184 190 171
181 186 160
184 190 169
183 187 163
182 187 163
181 185 156
180 184 155
177 180 147
178 182 151
181 186 161
182 186 160
178 181 148
179 182 151
182 188 165
178 181 149
181 185 156
179 182 150
180 182 148
182 185 156
179 182 151
179 183 151
179 182 148
179 183 151
180 182 150
181 183 151
183 186 158
180 181 144
178 180 142
182 184 153
181 182 146
189 194 177
178 179 140
179 181 146
181 183 150
180 182 148
181 183 150
184 187 158
185 188 161
184 188 161
187 190 168
183 188 164
184 186 155
180 181 144
182 183 147
181 183 151
183 184 150
182 184 151
184 186 157
183 185 153
183 185 154
182 183 149
182 187 161
183 185 154
183 186 159
182 185 154
185 189 163
183 186 158
179 179 139
182 182 145
185 187 159
185 188 162
183 184 149
184 187 160
184 184 149
182 183 149
183 187 159
184 188 161
184 186 156
186 188 159
185 186 155
183 185 154
189 192 170
185 187 157
186 189 162
186 188 160
185 188 163
185 187 157
188 193 174
184 187 157
183 185 152
185 186 153
189 193 171
187 191 167
185 187 159
187 190 166
188 191 169
185 187 158
185 186 155
186 188 159
189 191 166
187 190 165
186 187 157
188 192 170
187 190 165
190 194 172
188 192 171
190 194 175
192 199 186
185 188 161
194 200 189
190 193 172
201 224 255
201 224 255
200 224 255
200 224 255
199 224 255
199 223 255
199 223 255
198 223 255
198 223 255
198 223 255
197 222 255
197 222 255
197 222 255
196 222 255
196 222 255
196 222 255
195 221 255
195 221 255
195 221 255
194 221 255
194 221 255
194 221 255
194 220 255
193 220 255
193 220 255
193 220 255
192 220 255
192 220 255
192 219 255
191 219 255
191 219 255
191 219 255
191 219 255
190 219 255
190 219 255
190 218 255
190 218 255
189 218 255
189 218 255
189 218 255
188 218 255
188 218 255
188 217 255
188 217 255
187 217 255
187 217 255
187 217 255
187 217 255
186 217 255
186 217 255
186 216 255
186 216 255
186 216 255
185 216 255
185 216 255
185 216 255
185 216 255
184 216 255
184 216 255
184 215 255
184 215 255
184 215 255
183 215 255
183 215 255
183 215 255
183 215 255
183 215 255
182 215 255
182 215 255
182 214 255
182 214 255
182 214 255
182 214 255
181 214 255
181 214 255
181 214 255
181 214 255
181 214 255
181 214 255
181 214 255
181 214 255
181 214 255
181 214 255
181 214 255
181 214 255
181 214 255
181 214 255
181 214 255
181 214 255
181 214 255
181 214 255
181 214 255
181 214 255
181 214 255
181 214 255
181 214 255
182 214 255
182 214 255
182 214 255
182 215 255
183 215 255
183 215 255
184 215 255
184 215 255
185 216 255
185 216 255
186 216 255
186 217 255
187 217 255
188 218 255
189 218 255
191 219 255
192 220 255
194 221 255
196 222 255
199 224 255
205 226 255
208 228 255
209 229 255
209 229 255
209 229 255
209 229 255
209 229 255
209 228 255
209 228 255
208 228 255
208 228 255
208 228 255
208 228 255
208 228 255
208 228 255
208 228 255
208 228 255
208 228 255
208 228 255
208 228 255
208 228 255
208 228 255
208 228 255
208 228 255
208 228 255
208 228 255
208 228 255
208 228 255
208 228 255
208 228 255
207 228 255
207 228 255
207 228 255
207 228 255
207 228 255
207 228 255
207 228 255
207 228 255
207 228 255
207 228 255
207 228 255
207 228 255
207 228 255
207 228 255
207 228 255
207 228 255
207 228 255
207 228 255
207 228 255
207 228 255
207 228 255
207 227 255
207 227 255
207 227 255
207 227 255
207 227 255
207 227 255
207 227 255
207 227 255
207 227 255
206 227 255
206 227 255
206 227 255
205 226 255
182 204 238
129 154 203
78 110 180
63 99 175
62 98 172
62 99 173
61 98 172
62 98 171
61 98 171
62 99 175
62 99 179
63 99 170
61 98 172
62 99 171
62 99 176
62 98 172
63 99 174
63 99 177
62 99 170
62 99 175
62 99 175
61 98 173
62 99 175
62 98 169
62 98 169
62 99 171
62 99 177
62 98 174
61 98 169
62 98 172
62 99 174
62 98 173
62 98 172
62 99 175
62 99 175
62 99 173
62 98 173
73 107 179
129 153 204
180 202 235
206 227 255
206 227 255
206 227 255
206 227 255
206 227 255
207 227 255
207 227 255
207 227 255
207 227 255
207 227 255
207 227 255
207 227 255
207 227 255
207 228 255
207 228 255
207 228 255
207 228 255
207 228 255
207 228 255
207 228 255
207 228 255
207 228 255
207 228 255
207 228 255
207 228 255
207 228 255
207 228 255
207 228 255
207 228 255
207 228 255
207 228 255
207 228 255
207 228 255
208 228 255
208 228 255
208 228 255
208 228 255
208 228 255
208 228 255
208 228 255
208 228 255
208 228 255
208 228 255
208 228 255
208 228 255
208 228 255
208 228 255
208 228 255
208 228 255
208 228 255
208 228 255
208 228 255
208 228 255
208 228 255
208 228 255
208 228 255
209 228 255
209 229 255
209 229 255
209 229 255
209 229 255
209 229 255
206 225 248
196 207 208
189 195 181
187 195 181
188 195 182
186 195 184
188 196 184
185 193 182
184 192 176
184 190 171
183 187 163
185 192 175
181 185 160
183 189 168
183 189 168
183 188 165
180 185 158
181 185 158
179 184 159
181 184 156
181 186 160
182 187 164
179 184 159
180 184 159
181 184 155
179 182 151
183 187 164
182 186 160
181 184 156
179 183 153
179 183 151
180 182 151
182 185 156
179 182 148
181 184 155
177 179 141
179 182 150
181 182 146
181 182 148
182 185 156
185 188 163
180 183 150
181 182 148
182 184 151
181 184 153
181 184 153
182 185 156
177 177 133
179 181 146
180 183 150
180 181 142
180 182 149
179 180 142
181 182 146
184 186 158
183 187 161
179 183 151
183 185 155
184 186 156
183 185 155
180 183 150
184 188 163
178 179 140
182 183 148
183 184 151
181 183 149
182 183 150
182 186 159
185 188 161
184 186 156
182 182 146
183 184 149
184 187 159
181 183 149
185 184 147
186 187 156
181 182 144
183 185 155
184 185 152
185 187 158
183 186 157
184 188 162
185 188 161
184 187 158
187 190 166
186 187 157
188 192 170
184 186 156
183 185 152
188 190 161
184 186 157
182 184 150
187 188 159
186 187 158
182 183 148
184 185 152
185 186 154
181 181 142
186 190 167
187 191 167
187 191 166
187 187 156
188 191 169
190 194 174
191 195 175
192 195 175
188 191 167
188 191 167
187 189 161
188 192 170
187 190 165
188 192 169
189 192 167
192 197 180
188 190 164
193 197 181
186 190 166
190 194 174
201 224 255
200 224 255
200 224 255
200 224 255
199 223 255
199 223 255
199 223 255
198 223 255
198 223 255
198 223 255
197 222 255
197 222 255
197 222 255
196 222 255
196 222 255
196 222 255
195 221 255
195 221 255
195 221 255
194 221 255
194 221 255
194 221 255
194 220 255
193 220 255
193 220 255
193 220 255
192 220 255
192 220 255
192 220 255
192 219 255
191 219 255
191 219 255
191 219 255
191 219 255
190 219 255
190 219 255
190 218 255
189 218 255
189 218 255
189 218 255
189 218 255
188 218 255
188 218 255
188 217 255
188 217 255
187 217 255
187 217 255
187 217 255
187 217 255
186 217 255
186 217 255
186 216 255
186 216 255
185 216 255
185 216 255
185 216 255
185 216 255
185 216 255
184 216 255
184 216 255
184 215 255
184 215 255
184 215 255
183 215 255
183 215 255
183 215 255
183 215 255
183 215 255
182 215 255
182 215 255
182 214 255
182 214 255
182 214 255
182 214 255
181 214 255
181 214 255
181 214 255
181 214 255
181 214 255
181 214 255
181 214 255
181 214 255
181 214 255
181 214 255
181 214 255
181 214 255
181 214 255
181 214 255
181 214 255
181 214 255
181 214 255
181 214 255
181 214 255
181 214 255
181 214 255
181 214 255
181 214 255
181 214 255
182 214 255
182 214 255
182 215 255
182 215 255
183 215 255
183 215 255
184 215 255
184 216 255
185 216 255
185 216 255
186 217 255
187 217 255
188 217 255
189 218 255
190 219 255
191 219 255
193 220 255
195 221 255
197 222 255
201 224 255
206 227 255
209 229 255
209 229 255
209 229 255
209 229 255
209 229 255
209 229 255
209 229 255
209 229 255
209 229 255
209 228 255
209 228 255
208 228 255
208 228 255
208 228 255
208 228 255
208 228 255
208 228 255
208 228 255
208 228 255
208 228 255
208 228 255
208 228 255
208 228 255
208 228 255
208 228 255
208 228 255
208 228 255
208 228 255
208 228 255
208 228 255
208 228 255
208 228 255
208 228 255
207 228 255
207 228 255
207 228 255
207 228 255
207 228 255
207 228 255
207 228 255
207 228 255
207 228 255
207 228 255
207 228 255
207 228 255
207 228 255
207 228 255
207 228 255
207 228 255
207 228 255
207 228 255
207 228 255
207 228 255
207 228 255
207 228 255
207 228 255
207 228 255
207 228 255
207 227 255
162 185 226
111 138 196
62 99 176
62 99 177
62 98 172
62 99 172
62 99 170
62 98 167
62 99 173
63 99 176
62 99 174
62 99 175
61 98 174
62 99 174
62 98 167
62 98 170
61 98 167
62 99 168
63 99 173
62 99 169
62 99 167
64 100 175
63 99 175
61 98 167
62 99 170
62 99 174
63 99 171
62 99 172
63 99 173
62 99 173
61 98 169
62 99 175
62 98 169
62 99 174
63 100 175
63 100 179
63 100 176
62 98 168
62 99 172
62 99 176
62 98 172
62 98 172
109 135 193
161 184 224
204 225 254
207 227 255
207 228 255
207 228 255
207 228 255
207 228 255
207 228 255
207 228 255
207 228 255
207 228 255
207 228 255
207 228 255
207 228 255
207 228 255
207 228 255
207 228 255
207 228 255
207 228 255
207 228 255
207 228 255
207 228 255
207 228 255
207 228 255
207 228 255
207 228 255
207 228 255
208 228 255
208 228 255
208 228 255
208 228 255
208 228 255
208 228 255
208 228 255
208 228 255
208 228 255
208 228 255
208 228 255
208 228 255
208 228 255
208 228 255
208 228 255
208 228 255
208 228 255
208 228 255
208 228 255
208 228 255
208 228 255
208 228 255
209 228 255
209 228 255
209 229 255
209 229 255
209 229 255
209 229 255
209 229 255
209 229 255
209 229 255
209 229 255
209 229 255
201 215 227
190 198 191
188 195 180
189 197 186
186 195 184
188 196 184
183 189 172
184 191 175
183 189 170
183 190 173
185 191 172
189 197 187
186 194 180
182 189 170
182 188 167
180 185 159
182 187 161
183 189 168
180 186 164
180 184 158
175 177 137
184 189 168
181 186 160
183 189 169
178 182 151
184 188 163
179 182 151
179 183 156
183 186 156
178 181 148
180 184 155
182 185 156
179 182 151
179 182 150
181 183 151
178 181 146
182 185 155
178 179 141
181 185 158
179 180 142
181 184 153
182 186 158
178 179 141
182 185 155
180 182 148
179 182 148
182 184 153
180 181 144
182 184 153
184 186 156
180 181 143
182 184 151
182 185 156
182 184 151
182 184 151
179 181 143
182 182 146
181 182 147
181 183 150
181 183 149
180 181 142
178 177 133
179 180 142
181 182 146
182 183 149
186 188 158
182 182 146
183 186 156
180 180 140
179 179 136
181 181 142
186 191 169
184 185 153
186 189 163
183 184 151
183 183 147
184 185 151
184 187 158
183 185 153
186 189 163
185 189 165
185 186 155
182 184 152
187 188 160
185 187 156
185 188 159
185 187 158
182 182 145
183 185 154
187 189 161
186 188 161
185 187 156
183 184 148
187 187 154
184 187 159
183 183 147
185 187 158
186 189 164
187 188 159
186 188 160
185 187 156
186 187 158
186 187 155
185 186 154
186 189 163
185 185 151
184 186 155
183 185 154
187 191 167
186 189 163
186 186 154
189 191 167
188 191 167
189 191 165
185 188 162
188 190 163
188 192 169
189 193 173
189 194 174
201 224 255
200 224 255
200 224 255
200 224 255
199 223 255
199 223 255
199 223 255
198 223 255
198 223 255
198 223 255
197 222 255
197 222 255
197 222 255
196 222 255
196 222 255
196 222 255
195 221 255
195 221 255
195 221 255
195 221 255
194 221 255
194 221 255
194 221 255
193 220 255
193 220 255
193 220 255
193 220 255
192 220 255
192 220 255
192 220 255
192 219 255
191 219 255
191 219 255
191 219 255
190 219 255
190 219 255
190 219 255
190 218 255
189 218 255
189 218 255
189 218 255
189 218 255
188 218 255
188 218 255
188 217 255
188 217 255
187 217 255
187 217 255
187 217 255
187 217 255
186 217 255
186 217 255
186 216 255
186 216 255
186 216 255
185 216 255
185 216 255
185 216 255
185 216 255
184 216 255
184 216 255
184 215 255
184 215 255
184 215 255
184 215 255
184 215 255
183 215 255
183 215 255
184 215 255
183 215 255
182 215 255
183 215 255
182 215 255
182 214 255
182 214 255
182 214 255
181 214 255
181 214 255
181 214 255
181 214 255
181 214 255
181 214 255
181 214 255
181 214 255
181 214 255
181 214 255
181 214 255
181 214 255
181 214 255
181 214 255
181 214 255
181 214 255
181 214 255
181 214 255
181 214 255
181 214 255
181 214 255
181 214 255
181 214 255
182 214 255
182 214 255
182 214 255
182 215 255
183 215 255
183 215 255
184 215 255
184 215 255
185 216 255
185 216 255
186 216 255
186 217 255
187 217 255
188 218 255
189 218 255
191 219 255
192 220 255
194 221 255
196 222 255
199 223 255
203 226 255
208 228 255
209 229 255
209 229 255
209 229 255
209 229 255
209 229 255
209 229 255
209 229 255
209 229 255
209 229 255
209 229 255
209 229 255
209 229 255
209 229 255
209 228 255
208 228 255
208 228 255
208 228 255
208 228 255
208 228 255
208 228 255
208 228 255
208 228 255
208 228 255
208 228 255
208 228 255
208 228 255
208 228 255
208 228 255
208 228 255
208 228 255
208 228 255
208 228 255
208 228 255
208 228 255
208 228 255
208 228 255
208 228 255
208 228 255
208 228 255
207 228 255
207 228 255
207 228 255
207 228 255
207 228 255
207 228 255
207 228 255
207 228 255
207 228 255
207 228 255
207 228 255
207 228 255
207 228 255
207 228 255
207 228 255
205 226 254
171 193 230
101 129 189
62 99 177
61 98 169
61 98 170
62 99 172
62 99 172
62 99 177
62 99 171
62 99 172
62 99 170
62 99 176
62 99 173
63 100 174
62 99 174
62 99 171
62 99 169
63 99 168
61 98 169
61 98 168
62 99 172
63 99 170
61 98 171
61 98 170
62 99 170
61 98 167
62 98 166
62 99 175
63 99 169
62 98 166
62 99 175
62 99 174
62 99 170
62 98 169
63 99 175
62 99 172
62 98 169
62 98 171
62 98 170
62 98 169
61 97 168
62 98 170
62 99 173
62 99 177
62 98 169
62 98 174
96 125 189
173 195 232
207 228 255
207 228 255
207 228 255
207 228 255
207 228 255
207 228 255
207 228 255
207 228 255
207 228 255
207 228 255
207 228 255
207 228 255
207 228 255
207 228 255
207 228 255
207 228 255
208 228 255
208 228 255
208 228 255
208 228 255
208 228 255
208 228 255
208 228 255
208 228 255
208 228 255
208 228 255
208 228 255
208 228 255
208 228 255
208 228 255
208 228 255
208 228 255
208 228 255
208 228 255
208 228 255
208 228 255
208 228 255
208 228 255
208 228 255
208 228 255
208 228 255
209 228 255
209 229 255
209 229 255
209 229 255
209 229 255
209 229 255
209 229 255
209 229 255
209 229 255
209 229 255
209 229 255
209 229 255
209 229 255
209 229 255
204 221 239
198 210 217
185 194 184
189 196 184
188 195 180
188 196 187
186 194 181
185 191 175
188 195 181
184 189 169
183 188 167
179 182 153
181 186 161
188 196 185
183 189 166
185 191 172
179 184 159
184 189 167
181 186 161
180 184 156
181 186 163
181 185 161
180 183 155
180 182 150
182 185 156
181 184 156
180 183 154
180 182 150
179 180 144
186 191 169
180 184 158
178 180 144
179 182 149
181 185 158
180 184 156
180 182 150
184 188 163
181 184 153
183 188 164
179 182 150
180 182 146
182 184 153
180 181 146
179 179 139
182 184 151
180 182 146
181 181 142
180 181 142
186 189 165
180 179 139
182 184 150
183 185 153
178 178 134
183 185 155
180 181 142
182 182 144
183 184 151
185 188 163
182 183 149
182 182 143
182 183 149
183 184 150
183 185 154
180 179 138
180 181 142
185 186 154
182 182 145
184 186 156
182 183 147
182 182 144
182 184 151
182 184 151
184 184 151
182 184 151
184 186 155
182 182 145
182 183 147
184 185 152
183 184 150
185 186 154
180 180 140
183 184 148
185 187 157
181 181 142
186 189 162
184 185 151
182 182 142
186 189 163
184 185 151
181 181 142
184 187 160
186 187 155
183 186 155
182 184 151
186 188 158
186 189 162
186 189 164
185 185 150
183 182 144
186 189 163
184 184 149
186 188 159
190 194 173
185 185 149
182 182 142
188 191 167
185 185 150
186 189 162
183 185 154
188 189 158
185 187 156
185 185 151
190 193 169
187 189 162
185 186 155
191 193 170
191 196 180
188 190 161
189 192 169
188 192 169
187 190 165
201 224 255
200 224 255
200 224 255
200 224 255
199 223 255
199 223 255
199 223 255
198 223 255
198 223 255
198 223 255
197 222 255
197 222 255
197 222 255
197 222 255
196 222 255
196 222 255
196 222 255
195 221 255
195 221 255
195 221 255
195 221 255
194 221 255
194 221 255
194 220 255
193 220 255
193 220 255
193 220 255
193 220 255
192 220 255
192 220 255
192 219 255
192 219 255
191 219 255
191 219 255
191 219 255
190 219 255
190 219 255
190 219 255
190 218 255
189 218 255
189 218 255
189 218 255
189 218 255
188 218 255
188 218 255
188 218 255
188 217 255
187 217 255
187 217 255
187 217 255
187 217 255
187 217 255
186 217 255
186 217 255
186 217 255
187 217 255
187 217 255
187 217 255
187 217 254
187 217 254
188 218 255
188 217 254
187 217 254
188 217 254
187 217 254
187 217 255
187 217 255
187 217 254
186 217 253
187 217 255
186 216 253
187 217 254
187 217 253
186 216 255
186 216 254
184 215 252
184 216 255
184 216 255
184 215 254
183 215 254
183 215 255
182 215 255
182 214 254
181 214 255
181 214 255
181 214 255
181 214 255
181 214 255
181 214 255
181 214 255
181 214 255
181 214 255
181 214 255
181 214 255
181 214 255
181 214 255
181 214 255
181 214 255
181 214 255
181 214 255
182 214 255
182 214 255
182 214 255
182 215 255
183 215 255
183 215 255
183 215 255
184 215 255
184 216 255
185 216 255
186 216 255
186 217 255
187 217 255
188 217 255
189 218 255
190 219 255
191 219 255
193 220 255
195 221 255
197 222 255
201 224 255
208 228 255
209 229 255
209 229 255
209 229 255
209 229 255
209 229 255
209 229 255
209 229 255
209 229 255
209 229 255
209 229 255
209 229 255
209 229 255
209 229 255
209 229 255
209 229 255
209 229 255
209 229 255
209 228 255
209 228 255
208 228 255
208 228 255
208 228 255
208 228 255
208 228 255
208 228 255
208 228 255
208 228 255
208 228 255
208 228 255
208 228 255
208 228 255
208 228 255
208 228 255
208 228 255
208 228 255
208 228 255
208 228 255
208 228 255
208 228 255
208 228 255
208 228 255
208 228 255
208 228 255
208 228 255
208 228 255
208 228 255
208 228 255
207 228 255
207 228 255
207 228 255
207 228 255
207 228 255
177 198 235
92 121 186
62 99 174
62 99 173
62 98 167
63 99 174
63 99 172
63 99 178
61 97 162
62 99 172
61 98 167
63 99 169
62 98 168
62 99 173
62 99 173
62 99 173
63 99 174
61 98 162
61 98 169
62 99 169
63 99 173
61 98 166
62 99 172
62 99 171
61 98 166
61 98 169
62 99 167
63 99 172
62 99 174
63 99 171
62 98 168
62 98 162
63 99 173
62 99 172
63 99 174
63 99 171
62 99 176
62 98 170
62 99 174
62 98 173
62 99 174
62 98 168
62 98 174
61 98 172
62 98 170
63 99 175
62 98 172
61 98 168
62 98 176
62 98 173
100 128 187
177 198 236
207 228 255
207 228 255
207 228 255
207 228 255
207 228 255
208 228 255
208 228 255
208 228 255
208 228 255
208 228 255
208 228 255
208 228 255
208 228 255
208 228 255
208 228 255
208 228 255
208 228 255
208 228 255
208 228 255
208 228 255
208 228 255
208 228 255
208 228 255
208 228 255
208 228 255
208 228 255
208 228 255
208 228 255
208 228 255
208 228 255
208 228 255
208 228 255
208 228 255
209 228 255
209 228 255
209 229 255
209 229 255
209 229 255
209 229 255
209 229 255
209 229 255
209 229 255
209 229 255
209 229 255
209 229 255
209 229 255
209 229 255
209 229 255
209 229 255
209 229 255
209 229 255
209 229 255
201 215 228
188 195 183
191 200 194
189 197 187
185 190 169
185 191 172
184 190 173
187 193 175
186 194 182
181 188 173
183 189 170
179 183 156
178 181 151
181 185 159
184 190 171
184 190 169
181 186 164
180 183 154
179 184 160
177 182 157
178 182 156
180 182 149
185 190 168
178 179 139
181 185 158
183 190 172
181 184 158
176 178 139
178 182 151
179 182 151
182 185 158
180 183 150
180 182 148
178 180 145
183 186 158
180 184 153
181 184 155
179 181 146
180 181 144
179 180 144
179 179 140
181 183 153
180 179 135
177 177 133
179 180 142
180 179 139
179 180 142
184 187 160
180 181 142
178 179 140
183 186 158
182 182 144
180 183 152
182 183 149
179 178 134
180 182 147
178 177 131
183 186 158
182 184 151
181 183 149
182 184 151
181 183 149
182 183 147
181 180 139
183 183 148
183 184 149
182 183 147
181 181 143
182 182 145
185 187 159
179 181 145
181 181 141
182 183 148
181 183 147
185 185 151
181 182 145
182 182 144
183 186 156
183 184 149
188 189 161
185 186 154
182 182 144
183 184 148
183 182 144
185 186 153
185 185 153
182 183 148
184 184 150
187 187 156
182 184 151
187 190 164
185 187 157
184 185 151
184 185 151
184 187 160
184 184 149
186 189 163
186 189 161
185 187 159
187 189 159
185 187 157
189 191 166
183 185 154
185 186 152
185 186 154
186 188 161
184 185 150
183 184 149
189 191 164
188 190 163
186 187 156
184 186 154
187 188 158
190 194 173
185 187 156
186 188 161
188 191 167
189 191 163
190 192 167
187 190 164
183 185 151
188 192 168
201 224 255
200 224 255
200 224 255
200 224 255
199 224 255
199 223 255
199 223 255
198 223 255
198 223 255
198 223 255
198 223 255
197 222 255
197 222 255
197 222 255
196 222 255
196 222 255
196 222 255
196 221 255
195 221 255
195 221 255
195 221 255
194 221 255
194 221 255
194 221 255
194 220 255
193 220 255
193 220 255
193 220 255
193 220 255
192 220 255
192 220 255
192 220 255
192 219 255
191 219 255
191 219 255
191 219 255
191 219 255
190 219 255
190 219 255
190 218 255
190 218 255
189 218 255
189 218 255
189 218 255
189 218 255
188 218 255
188 218 255
188 217 255
188 217 255
188 217 255
188 217 255
188 217 254
188 218 254
189 218 255
190 219 253
189 218 255
189 218 255
188 217 252
189 218 255
190 218 255
189 218 254
189 218 255
189 218 254
188 217 254
187 217 252
189 218 254
188 218 255
187 217 253
188 217 254
188 217 250
188 217 254
187 217 253
187 217 254
187 217 253
187 217 255
187 217 255
186 216 255
186 217 255
188 217 254
187 217 255
186 216 253
186 216 255
186 216 254
187 217 255
185 216 253
184 216 255
183 215 255
182 215 255
181 214 254
181 214 255
181 214 255
181 214 255
181 214 255
181 214 255
181 214 255
181 214 255
181 214 255
181 214 255
181 214 255
181 214 255
182 214 255
182 214 255
182 214 255
182 215 255
182 215 255
183 215 255
183 215 255
183 215 255
184 215 255
184 216 255
185 216 255
185 216 255
186 217 255
187 217 255
188 217 255
189 218 255
190 218 255
191 219 255
192 220 255
194 221 255
196 222 255
199 224 255
204 226 255
209 229 255
209 229 255
209 229 255
209 229 255
209 229 255
209 229 255
209 229 255
209 229 255
209 229 255
209 229 255
209 229 255
209 229 255
209 229 255
209 229 255
209 229 255
209 229 255
209 229 255
209 229 255
209 229 255
209 229 255
209 229 255
209 229 255
209 229 255
209 228 255
208 228 255
208 228 255
208 228 255
208 228 255
208 228 255
208 228 255
208 228 255
208 228 255
208 228 255
208 228 255
208 228 255
208 228 255
208 228 255
208 228 255
208 228 255
208 228 255
208 228 255
208 228 255
208 228 255
208 228 255
208 228 255
208 228 255
208 228 255
208 228 255
208 228 255
188 209 241
117 143 198
62 99 174
62 99 174
61 98 167
62 99 169
62 99 174
62 99 173
62 98 171
63 99 173
62 99 170
62 98 172
62 98 167
62 99 167
62 98 168
62 99 172
62 99 172
62 98 166
61 98 165
62 98 165
62 98 169
62 99 166
63 100 174
63 99 173
62 98 168
62 99 162
61 98 167
62 99 173
62 99 170
62 98 165
62 98 161
62 99 170
63 99 172
62 98 165
62 99 171
61 97 163
62 98 170
62 98 171
62 98 165
62 98 172
62 98 165
62 98 168
62 99 171
62 99 170
62 99 171
62 99 173
62 98 171
62 98 170
62 99 172
62 98 167
62 98 168
61 97 165
61 97 166
61 96 167
118 144 198
195 216 246
208 228 255
208 228 255
208 228 255
208 228 255
208 228 255
208 228 255
208 228 255
208 228 255
208 228 255
208 228 255
208 228 255
208 228 255
208 228 255
208 228 255
208 228 255
208 228 255
208 228 255
208 228 255
208 228 255
208 228 255
208 228 255
208 228 255
208 228 255
208 228 255
208 228 255
209 228 255
209 229 255
209 229 255
209 229 255
209 229 255
209 229 255
209 229 255
209 229 255
209 229 255
209 229 255
209 229 255
209 229 255
209 229 255
209 229 255
209 229 255
209 229 255
209 229 255
209 229 255
209 229 255
209 229 255
209 229 255
209 229 255
209 229 255
206 223 243
198 211 216
189 195 180
188 195 183
189 197 185
189 195 181
186 194 182
183 189 172
185 191 175
184 190 172
182 187 163
180 185 163
182 188 170
179 183 159
179 184 159
186 193 178
181 185 156
180 185 159
182 187 166
178 182 152
178 183 159
180 183 155
180 184 156
179 183 153
180 185 160
178 180 147
182 187 161
181 183 151
181 186 161
182 185 156
182 185 156
179 182 149
179 181 146
180 182 148
179 182 151
180 183 151
179 182 149
179 181 146
178 180 144
182 184 151
181 182 148
176 175 129
182 185 156
179 180 142
180 181 142
181 182 146
180 179 136
181 182 144
179 179 140
179 180 142
182 183 149
183 184 151
184 188 161
182 185 153
183 185 153
183 185 153
183 184 151
180 179 136
181 182 148
180 181 142
180 179 137
181 182 146
183 185 154
182 183 147
182 185 153
184 185 151
181 179 135
184 185 151
182 183 147
183 184 151
181 178 133
181 180 138
181 184 151
184 185 151
182 181 140
186 186 152
180 181 144
184 183 147
183 184 148
181 180 138
184 185 153
180 182 147
182 182 143
180 181 144
182 184 151
187 189 161
187 189 159
185 187 156
186 189 163
185 186 152
179 178 135
184 186 156
186 187 158
185 185 149
182 183 146
183 183 145
185 185 149
181 183 150
185 188 159
188 190 164
181 182 147
185 186 154
186 189 162
184 185 150
182 182 143
188 190 163
186 188 160
189 190 164
184 187 158
186 187 155
188 192 170
186 190 164
191 192 165
185 186 154
189 192 167
186 187 156
181 181 141
192 197 181
192 197 181
185 185 150
188 192 169
189 191 164
187 187 154
186 188 159
201 224 255
200 224 255
200 224 255
200 224 255
199 224 255
199 223 255
199 223 255
199 223 255
198 223 255
198 223 255
198 223 255
197 222 255
197 222 255
197 222 255
197 222 255
196 222 255
196 222 255
196 222 255
196 221 255
195 221 255
195 221 255
195 221 255
194 221 255
194 221 255
194 221 255
194 220 255
193 220 255
193 220 255
193 220 255
193 220 255
192 220 255
192 220 255
192 220 255
192 219 255
191 219 255
191 219 255
191 219 255
191 219 255
190 219 255
190 219 255
190 218 255
190 218 255
189 218 255
189 218 255
188 217 254
189 218 253
189 218 255
191 219 250
191 219 254
191 219 254
191 219 255
191 219 255
192 219 254
191 219 255
189 218 254
191 219 254
189 217 249
190 218 254
190 219 253
190 219 253
191 218 252
190 218 254
191 219 255
191 219 255
191 219 253
190 219 255
189 217 252
188 217 254
189 218 255
188 217 253
189 218 252
190 218 254
188 217 253
189 218 255
188 217 254
187 217 254
187 217 255
188 217 255
186 216 253
188 217 254
190 219 255
186 216 253
186 216 250
187 217 253
187 217 255
187 217 255
186 216 254
185 216 254
185 216 254
185 216 254
185 216 254
183 215 255
182 214 255
181 214 255
181 214 255
181 214 255
181 214 255
181 214 255
181 214 255
181 214 255
182 214 255
182 214 255
182 214 255
182 214 255
182 215 255
183 215 255
183 215 255
183 215 255
184 215 255
184 215 255
184 216 255
185 216 255
185 216 255
186 217 255
187 217 255
188 217 255
189 218 255
190 218 255
191 219 255
192 220 255
194 220 255
196 221 255
198 223 255
202 225 255
207 228 255
210 229 255
210 229 255
210 229 255
210 229 255
210 229 255
209 229 255
209 229 255
209 229 255
209 229 255
209 229 255
209 229 255
209 229 255
209 229 255
209 229 255
209 229 255
209 229 255
209 229 255
209 229 255
209 229 255
209 229 255
209 229 255
209 229 255
209 229 255
209 229 255
209 229 255
209 229 255
209 229 255
209 229 255
209 228 255
208 228 255
208 228 255
208 228 255
208 228 255
208 228 255
208 228 255
208 228 255
208 228 255
208 228 255
208 228 255
208 228 255
208 228 255
208 228 255
208 228 255
208 228 255
208 228 255
206 226 254
169 191 227
74 107 179
62 99 173
61 98 168
62 99 175
63 99 173
62 99 171
62 99 174
63 99 172
62 99 170
62 99 167
61 98 165
62 98 169
62 99 169
62 99 169
62 99 168
62 99 169
62 98 168
62 98 170
61 98 166
62 99 167
62 99 168
62 99 171
62 99 171
62 99 175
62 98 166
62 99 167
63 99 167
62 99 171
61 98 163
62 98 167
62 98 166
62 98 170
61 98 170
62 98 166
62 98 167
63 99 167
62 99 168
62 98 166
61 97 166
63 99 170
62 98 165
62 98 167
62 98 167
62 98 165
62 98 165
62 98 169
62 98 169
62 98 169
62 98 170
62 98 171
63 99 173
63 99 170
61 97 161
62 99 172
62 98 174
76 109 179
161 183 224
207 227 255
208 228 255
208 228 255
208 228 255
208 228 255
208 228 255
208 228 255
208 228 255
208 228 255
208 228 255
208 228 255
208 228 255
208 228 255
208 228 255
208 228 255
208 228 255
209 228 255
209 228 255
209 228 255
209 229 255
209 229 255
209 229 255
209 229 255
209 229 255
209 229 255
209 229 255
209 229 255
209 229 255
209 229 255
209 229 255
209 229 255
209 229 255
209 229 255
209 229 255
209 229 255
209 229 255
209 229 255
209 229 255
209 229 255
209 229 255
209 229 255
210 229 255
210 229 255
210 229 255
210 229 255
210 229 255
203 217 231
191 198 186
187 195 184
191 201 199
186 192 175
185 192 178
184 189 166
186 194 182
183 190 176
183 190 173
180 186 164
184 190 172
181 188 172
177 180 150
181 187 170
184 190 172
179 183 159
178 182 154
179 182 149
180 184 159
183 185 156
179 181 149
179 184 160
175 178 145
182 187 164
182 187 164
180 183 153
176 179 145
177 180 152
180 183 156
181 185 158
179 180 144
179 180 144
180 181 147
178 180 147
181 183 151
181 183 153
180 182 150
181 183 149
181 182 144
180 181 147
181 183 150
179 181 144
183 184 151
180 181 144
183 184 150
180 183 153
181 184 153
184 185 153
178 178 137
181 181 144
179 178 135
182 182 146
182 182 142
180 182 149
178 176 129
180 179 137
184 185 151
180 179 135
182 183 146
184 186 158
184 186 154
183 183 146
182 182 146
183 184 150
182 181 142
182 184 151
181 180 137
180 181 143
183 185 151
183 183 146
185 184 147
182 182 145
182 181 140
183 181 141
183 182 145
185 187 157
179 178 135
184 185 153
182 182 144
180 179 136
184 186 153
185 185 148
185 186 153
182 184 149
184 185 152
182 184 152
185 187 158
184 184 147
186 186 154
183 182 144
185 186 154
183 183 147
186 188 159
185 186 152
186 190 165
183 185 155
181 182 144
182 181 141
181 181 142
184 185 151
185 187 156
184 186 154
183 184 151
184 183 144
185 187 159
185 185 151
188 190 161
186 187 156
185 186 153
187 190 164
188 191 167
185 186 153
184 184 146
186 189 161
189 190 161
188 191 167
186 186 152
187 189 162
189 190 161
187 189 159
191 193 168
188 190 164
188 190 163
191 194 173
201 224 255
201 224 255
200 224 255
200 224 255
200 224 255
199 223 255
199 223 255
199 223 255
198 223 255
198 223 255
198 223 255
198 223 255
197 222 255
197 222 255
197 222 255
197 222 255
196 222 255
196 222 255
196 222 255
196 221 255
195 221 255
195 221 255
195 221 255
194 221 255
194 221 255
194 221 255
194 221 255
193 220 255
193 220 255
193 220 255
193 220 255
192 220 255
192 220 255
192 220 255
192 219 255
191 219 255
191 219 255
191 219 255
191 219 255
191 219 255
190 219 255
190 219 255
191 219 255
192 219 254
192 219 254
192 220 255
193 220 254
191 219 250
193 220 254
191 219 254
192 219 255
192 219 253
192 220 255
192 219 255
192 219 250
193 220 253
191 219 255
192 219 254
191 219 254
190 218 252
191 219 253
190 219 254
190 219 255
190 218 252
189 218 254
189 218 253
189 218 253
189 218 254
190 219 255
190 218 255
191 219 255
189 218 252
189 218 254
188 217 254
188 217 253
188 217 253
188 217 252
189 218 255
187 217 253
189 217 252
188 217 254
189 218 255
186 217 254
187 217 253
190 218 253
187 217 255
186 216 253
186 216 252
188 217 254
186 216 253
186 216 253
185 216 253
186 216 254
186 216 254
184 215 255
183 215 255
182 214 255
181 214 255
181 214 255
182 214 255
182 214 255
182 214 255
182 214 255
182 214 255
182 215 255
182 215 255
183 215 255
183 215 255
183 215 255
184 215 255
184 215 255
185 216 255
185 216 255
186 216 255
186 217 255
187 217 255
188 217 255
188 218 255
189 218 255
191 219 255
192 220 255
193 220 255
195 221 255
197 222 255
201 224 255
206 227 255
210 229 255
210 229 255
210 229 255
210 229 255
210 229 255
210 229 255
210 229 255
210 229 255
210 229 255
210 229 255
209 229 255
209 229 255
209 229 255
209 229 255
209 229 255
209 229 255
209 229 255
209 229 255
209 229 255
209 229 255
209 229 255
209 229 255
209 229 255
209 229 255
209 229 255
209 229 255
209 229 255
209 229 255
209 229 255
209 229 255
209 229 255
209 229 255
209 229 255
209 229 255
209 229 255
209 228 255
209 228 255
208 228 255
208 228 255
208 228 255
208 228 255
208 228 255
208 228 255
198 218 248
95 123 183
62 98 169
62 98 171
62 99 170
62 99 172
62 99 170
62 98 165
62 99 167
62 99 174
62 98 166
63 99 168
63 99 172
61 98 167
61 98 161
62 99 172
61 98 171
61 98 170
62 99 170
61 98 165
62 98 167
62 98 167
63 99 174
63 99 171
63 99 170
62 99 171
62 98 165
62 98 165
61 97 161
62 99 168
62 98 165
62 98 159
62 98 160
63 99 170
62 98 164
63 99 164
62 99 173
62 98 167
63 99 171
63 99 171
63 99 169
62 98 164
63 99 166
62 98 166
62 98 171
63 99 173
62 98 165
63 99 170
61 98 167
62 98 173
61 98 161
62 99 173
62 98 169
62 98 169
61 97 165
63 99 173
61 97 164
62 98 173
62 99 173
62 98 172
117 142 195
195 215 246
208 228 255
208 228 255
208 228 255
208 228 255
208 228 255
208 228 255
209 228 255
209 228 255
209 229 255
209 229 255
209 229 255
209 229 255
209 229 255
209 229 255
209 229 255
209 229 255
209 229 255
209 229 255
209 229 255
209 229 255
209 229 255
209 229 255
209 229 255
209 229 255
209 229 255
209 229 255
209 229 255
209 229 255
209 229 255
209 229 255
209 229 255
209 229 255
209 229 255
210 229 255
210 229 255
210 229 255
210 229 255
210 229 255
210 229 255
210 229 255
210 229 255
210 229 255
209 228 252
200 213 220
193 201 192
192 202 200
185 190 170
184 190 173
186 193 179
184 190 171
184 191 175
185 192 178
180 186 168
181 187 167
185 191 171
176 181 157
180 184 159
179 184 160
176 180 152
176 181 161
182 186 164
180 182 152
178 182 154
177 181 154
178 181 151
178 179 141
179 183 154
178 182 155
180 185 161
180 183 153
184 189 166
179 180 147
176 178 143
178 178 138
181 184 154
180 183 151
177 179 144
179 182 150
176 177 138
176 176 136
179 180 142
181 183 149
181 184 153
178 178 138
178 179 142
179 179 139
180 182 146
179 180 142
182 181 142
180 181 142
177 178 135
178 176 129
182 183 150
180 179 136
179 179 136
181 181 142
184 184 151
182 183 147
177 175 126
179 179 136
179 179 139
183 183 146
179 178 133
181 180 138
181 181 144
182 182 143
180 179 136
182 182 144
182 183 146
180 179 136
183 183 145
181 179 133
183 181 140
182 183 145
180 179 136
183 181 140
184 186 154
180 180 138
179 179 135
181 183 149
181 180 139
182 182 142
182 184 151
183 181 136
185 184 147
182 181 139
180 180 137
182 183 146
182 181 141
183 185 153
182 183 146
186 188 159
183 184 151
182 183 145
187 186 152
182 181 140
182 183 145
187 190 163
183 183 146
185 187 157
182 181 141
183 182 143
183 184 149
185 185 150
184 185 152
184 185 150
185 187 157
182 182 144
184 185 152
185 186 154
188 190 164
185 186 153
185 187 157
183 184 148
190 193 171
183 184 148
186 189 161
189 192 168
187 188 159
185 186 154
186 186 152
189 193 170
184 185 151
188 190 163
192 193 170
191 193 170
188 191 165
186 187 155
188 190 163
201 224 255
201 224 255
200 224 255
200 224 255
200 224 255
200 224 255
199 223 255
199 223 255
199 223 255
198 223 255
198 223 255
198 223 255
198 223 255
197 222 255
197 222 255
197 222 255
197 222 255
196 222 255
196 222 255
196 222 255
196 221 255
195 221 255
195 221 255
195 221 255
195 221 255
194 221 255
194 221 255
194 221 255
194 220 255
193 220 255
193 220 255
193 220 255
193 220 255
192 220 255
192 220 255
192 220 255
192 219 255
191 219 255
191 219 255
192 219 254
193 220 252
193 220 255
193 220 253
194 220 252
194 220 254
193 220 255
194 220 254
194 221 255
192 220 255
194 221 255
193 220 255
192 219 253
193 220 254
193 220 254
192 219 253
192 220 254
193 220 255
193 220 254
191 219 255
192 220 254
191 219 254
192 219 254
191 219 253
191 219 255
191 219 255
191 219 254
191 218 254
190 219 254
191 219 255
191 219 255
192 220 254
190 219 255
191 219 254
190 219 255
189 218 255
190 219 255
188 218 255
189 218 254
188 217 255
191 219 254
189 218 255
189 218 254
188 217 253
190 219 255
188 217 253
188 217 253
188 217 254
187 216 252
188 218 255
187 217 254
187 217 254
187 217 253
187 217 255
187 217 254
187 217 254
186 216 254
185 216 254
185 216 255
183 215 255
182 214 255
182 214 255
182 214 255
182 214 255
182 215 255
182 215 255
183 215 255
183 215 255
183 215 255
183 215 255
184 215 255
184 215 255
184 216 255
185 216 255
185 216 255
186 216 255
186 217 255
187 217 255
188 217 255
189 218 255
189 218 255
190 219 255
192 220 255
193 220 255
195 221 255
197 222 255
200 224 255
205 226 255
210 229 255
210 229 255
210 229 255
210 229 255
210 229 255
210 229 255
210 229 255
210 229 255
210 229 255
210 229 255
210 229 255
210 229 255
210 229 255
210 229 255
210 229 255
209 229 255
209 229 255
209 229 255
209 229 255
209 229 255
209 229 255
209 229 255
209 229 255
209 229 255
209 229 255
209 229 255
209 229 255
209 229 255
209 229 255
209 229 255
209 229 255
209 229 255
209 229 255
209 229 255
209 229 255
209 229 255
209 229 255
209 229 255
209 229 255
209 229 255
209 229 255
177 198 233
73 106 175
62 99 170
62 99 173
62 98 169
62 99 170
61 98 166
62 99 169
62 99 172
63 99 169
62 98 161
62 99 172
62 99 168
63 99 172
62 98 168
62 99 169
63 99 172
62 99 170
62 99 171
61 98 165
61 98 163
62 98 168
62 98 166
62 98 162
61 98 164
62 98 165
62 98 168
62 99 165
61 97 161
62 99 164
61 98 164
62 98 165
62 98 162
62 99 167
63 99 166
62 98 166
63 99 167
62 99 166
62 98 164
61 97 163
63 99 167
62 98 166
62 99 167
62 98 166
63 99 169
62 98 168
62 98 165
61 98 169
62 98 164
62 98 164
63 99 173
62 98 168
61 98 168
62 98 167
62 98 170
61 97 159
62 98 170
62 97 167
62 98 165
62 98 169
62 98 168
62 98 170
81 111 171
175 196 232
209 229 255
209 229 255
209 229 255
209 229 255
209 229 255
209 229 255
209 229 255
209 229 255
209 229 255
209 229 255
209 229 255
209 229 255
209 229 255
209 229 255
209 229 255
209 229 255
209 229 255
209 229 255
209 229 255
209 229 255
209 229 255
209 229 255
209 229 255
209 229 255
209 229 255
209 229 255
210 229 255
210 229 255
210 229 255
210 229 255
210 229 255
210 229 255
210 229 255
210 229 255
210 229 255
210 229 255
210 229 255
210 229 255
210 229 255
210 229 255
208 226 249
195 205 203
189 195 181
187 194 181
183 187 166
182 188 170
180 186 168
182 187 171
184 190 172
184 189 170
182 191 179
178 182 155
179 184 163
181 186 165
178 184 162
178 183 157
179 184 163
180 184 156
178 182 156
173 178 150
176 179 148
178 182 154
174 174 134
178 182 154
182 186 161
175 176 136
177 180 149
179 181 147
177 177 135
179 183 157
177 180 147
179 183 155
177 178 142
176 177 141
175 178 145
177 179 143
178 177 134
180 182 149
179 179 142
181 183 151
179 179 138
182 183 148
180 180 140
179 179 140
181 182 147
178 178 135
182 183 148
180 180 138
180 180 140
183 185 154
180 180 141
179 177 129
182 181 139
176 175 127
180 179 135
182 184 151
178 178 133
180 181 142
180 181 144
181 180 136
180 178 134
178 177 134
183 181 140
184 184 149
182 181 142
182 183 149
181 180 136
180 179 138
181 181 141
182 182 142
179 178 134
183 182 143
179 178 132
180 181 141
183 184 151
183 185 154
181 182 144
183 183 146
181 180 136
183 184 151
183 182 144
180 180 137
187 189 160
181 181 140
184 186 154
182 181 142
183 182 143
180 179 136
181 181 143
182 182 145
182 182 143
184 185 152
183 184 149
182 183 146
182 180 136
184 183 146
184 185 153
184 184 148
183 183 144
183 184 148
182 180 135
184 183 144
184 185 151
183 183 145
188 189 159
187 187 154
186 187 156
184 185 149
184 186 154
183 185 153
186 185 149
182 182 142
184 184 151
189 190 161
184 186 154
189 190 161
188 192 169
186 189 161
182 183 143
184 183 145
188 191 165
187 190 165
191 194 172
190 193 171
187 190 164
184 186 154
190 193 172
189 192 167
201 224 255
201 224 255
201 224 255
200 224 255
200 224 255
200 224 255
200 224 255
199 223 255
199 223 255
199 223 255
198 223 255
198 223 255
198 223 255
198 223 255
197 222 255
197 222 255
197 222 255
197 222 255
196 222 255
196 222 255
196 222 255
196 222 255
195 221 255
195 221 255
195 221 255
195 221 255
195 221 255
194 221 255
194 221 255
194 221 255
194 220 255
193 220 255
193 220 255
193 220 255
193 220 255
192 220 254
193 220 254
194 221 255
195 221 254
194 220 254
194 221 253
194 221 255
194 221 254
194 221 254
193 220 253
195 221 255
193 220 255
194 221 255
194 220 253
193 220 253
194 221 254
193 220 253
194 220 255
194 221 255
193 220 253
193 220 254
192 220 254
192 220 253
192 219 254
192 220 255
194 221 255
193 220 255
193 220 255
193 220 255
193 220 255
192 220 255
192 219 255
192 219 254
191 219 255
192 220 255
191 219 254
193 220 255
191 219 254
191 219 254
192 219 255
192 219 254
191 219 254
190 219 255
190 219 255
190 219 255
190 219 255
189 218 254
189 218 254
190 218 254
189 218 254
191 219 253
188 217 254
188 217 254
190 218 254
188 218 254
187 217 255
188 217 252
187 217 252
186 216 255
188 217 254
188 218 253
186 216 254
187 217 255
186 217 255
185 216 254
186 217 255
184 215 254
182 215 255
182 215 255
183 215 255
183 215 255
183 215 255
183 215 255
183 215 255
184 215 255
184 215 255
184 216 255
185 216 255
185 216 255
185 216 255
186 216 255
187 217 255
187 217 255
188 217 255
189 218 255
190 218 255
191 219 255
192 219 255
193 220 255
195 221 255
197 222 255
200 224 255
204 226 255
209 229 255
210 229 255
210 229 255
210 229 255
210 229 255
210 229 255
210 229 255
210 229 255
210 229 255
210 229 255
210 229 255
210 229 255
210 229 255
210 229 255
210 229 255
210 229 255
210 229 255
210 229 255
210 229 255
210 229 255
210 229 255
209 229 255
209 229 255
209 229 255
209 229 255
209 229 255
209 229 255
209 229 255
209 229 255
209 229 255
209 229 255
209 229 255
209 229 255
209 229 255
209 229 255
209 229 255
209 229 255
209 229 255
209 229 255
156 178 219
61 98 167
62 98 168
62 98 164
62 99 173
62 99 175
62 98 166
62 98 167
62 98 166
60 97 159
62 98 169
62 98 174
62 98 169
62 98 160
61 98 166
62 98 166
62 99 167
62 98 166
62 98 165
62 98 162
62 99 168
62 98 167
62 98 164
61 98 160
63 99 169
62 98 167
62 98 166
63 99 168
62 99 167
62 98 168
62 98 167
62 98 166
63 99 166
62 98 164
62 98 163
62 98 164
61 98 163
61 98 161
63 99 170
63 99 167
63 99 170
63 99 171
62 98 168
62 99 166
61 98 163
62 97 161
61 98 166
61 97 163
61 97 160
62 98 161
62 98 165
60 96 159
61 97 165
61 97 163
62 98 168
63 99 173
62 98 167
62 98 168
62 97 164
62 98 167
62 98 171
62 98 170
62 98 167
61 97 164
61 96 164
150 172 214
209 229 255
209 229 255
209 229 255
209 229 255
209 229 255
209 229 255
209 229 255
209 229 255
209 229 255
209 229 255
209 229 255
209 229 255
209 229 255
209 229 255
209 229 255
209 229 255
209 229 255
209 229 255
210 229 255
210 229 255
210 229 255
210 229 255
210 229 255
210 229 255
210 229 255
210 229 255
210 229 255
210 229 255
210 229 255
210 229 255
210 229 255
210 229 255
210 229 255
210 229 255
210 229 255
210 229 255
210 229 255
210 229 255
208 225 246
198 209 213
190 197 185
186 193 179
183 189 173
182 189 174
184 189 169
182 188 168
182 186 162
176 181 160
183 189 170
177 183 160
179 183 160
177 182 160
179 184 162
178 182 152
181 186 165
172 175 144
178 182 157
176 181 155
176 179 146
175 179 150
176 180 153
175 177 141
172 174 139
180 180 142
176 178 142
180 183 154
176 179 147
178 182 154
177 178 140
176 177 140
180 183 156
178 179 140
179 181 146
182 183 149
179 179 140
178 178 137
177 176 133
178 178 137
179 181 145
178 178 139
179 178 134
180 181 143
179 180 142
179 179 139
181 184 155
179 179 140
182 182 142
180 182 149
180 182 146
179 180 142
179 176 127
183 185 151
181 181 142
182 182 144
179 177 130
182 182 146
180 180 139
182 179 135
180 180 139
181 180 139
181 181 143
183 185 153
178 176 125
183 185 152
179 176 123
182 180 137
182 182 145
180 177 129
182 182 144
180 178 132
180 181 142
179 179 138
183 183 147
183 182 144
178 178 133
181 181 139
184 187 157
183 183 146
181 180 135
180 177 129
181 182 143
187 190 164
179 179 137
185 185 149
186 186 151
182 182 143
185 185 151
185 186 154
184 183 142
183 183 146
183 184 149
182 182 141
186 188 157
182 180 134
182 182 143
182 182 144
181 180 138
184 184 147
186 186 154
183 183 146
183 186 154
182 181 140
186 188 158
186 188 156
186 186 153
186 185 148
184 184 148
181 180 137
189 190 160
186 188 158
184 184 147
185 186 153
185 184 147
186 187 156
186 187 156
186 187 154
187 189 160
181 181 142
184 183 143
189 192 168
191 192 165
185 186 152
184 184 148
189 191 164
188 189 162
187 189 163
188 192 169
201 225 255
201 224 255
201 224 255
201 224 255
200 224 255
200 224 255
200 224 255
200 224 255
199 223 255
199 223 255
199 223 255
199 223 255
198 223 255
198 223 255
198 223 255
198 223 255
197 222 255
197 222 255
197 222 255
197 222 255
196 222 255
196 222 255
196 222 255
196 222 255
195 221 255
195 221 255
195 221 255
195 221 255
194 221 255
194 221 255
194 221 255
194 221 255
193 220 255
193 220 254
196 221 254
196 222 254
195 221 254
195 221 254
195 221 255
195 221 254
195 221 254
195 221 253
196 221 254
195 221 254
196 222 255
194 221 255
194 221 254
194 220 252
195 221 254
195 221 253
195 221 254
194 220 250
194 221 254
194 221 255
194 221 254
193 220 253
193 220 255
193 220 254
194 221 255
194 220 253
195 221 255
193 220 255
193 220 255
191 219 254
192 220 254
194 220 255
193 220 255
193 220 255
193 220 255
195 221 254
192 220 254
194 220 254
193 220 254
191 219 250
192 219 254
192 219 250
191 219 254
191 219 255
191 219 254
191 219 255
191 219 255
191 219 255
191 219 255
193 220 255
191 219 255
190 219 255
189 218 254
191 219 255
190 218 254
190 218 255
190 218 255
189 218 253
190 218 252
189 218 254
187 217 254
187 217 254
187 217 254
187 216 252
188 217 252
187 217 255
187 217 254
187 217 254
186 217 255
184 216 255
184 215 255
183 215 255
183 215 255
183 215 255
184 215 255
184 215 255
184 215 255
184 216 255
185 216 255
185 216 255
185 216 255
186 216 255
186 217 255
187 217 255
187 217 255
188 218 255
189 218 255
190 218 255
191 219 255
192 220 255
193 220 255
195 221 255
197 222 255
199 223 255
203 226 255
209 229 255
210 230 255
210 230 255
210 230 255
210 229 255
210 229 255
210 229 255
210 229 255
210 229 255
210 229 255
210 229 255
210 229 255
210 229 255
210 229 255
210 229 255
210 229 255
210 229 255
210 229 255
210 229 255
210 229 255
210 229 255
210 229 255
210 229 255
210 229 255
210 229 255
210 229 255
210 229 255
210 229 255
209 229 255
209 229 255
209 229 255
209 229 255
209 229 255
209 229 255
209 229 255
209 229 255
203 223 251
127 151 200
62 98 170
62 98 170
61 98 164
63 99 171
62 98 167
62 98 170
62 98 164
62 98 168
62 98 163
61 98 164
62 98 166
61 98 169
63 99 173
61 97 159
61 98 164
62 98 160
63 99 170
62 98 158
62 99 170
62 99 171
62 99 164
62 99 169
63 99 169
62 99 168
63 99 167
62 99 167
62 99 167
62 98 163
62 98 166
62 98 170
62 98 162
62 98 161
63 99 169
62 99 165
63 99 165
62 98 164
62 98 167
61 97 160
63 98 163
62 98 164
62 99 168
62 99 169
62 98 164
61 97 161
63 99 167
62 99 170
61 97 161
61 97 158
62 98 169
62 98 165
62 99 174
63 99 170
62 98 169
62 98 169
62 98 165
62 98 164
61 97 162
62 99 168
62 97 165
62 97 164
61 97 163
61 97 160
61 97 166
61 97 163
61 97 170
61 97 167
117 142 193
204 224 252
209 229 255
209 229 255
209 229 255
209 229 255
209 229 255
209 229 255
209 229 255
209 229 255
210 229 255
210 229 255
210 229 255
210 229 255
210 229 255
210 229 255
210 229 255
210 229 255
210 229 255
210 229 255
210 229 255
210 229 255
210 229 255
210 229 255
210 229 255
210 229 255
210 229 255
210 229 255
210 229 255
210 229 255
210 229 255
210 229 255
210 229 255
210 229 255
210 230 255
210 230 255
210 230 255
205 220 235
191 198 187
190 198 190
186 192 175
184 188 170
182 188 170
183 190 174
181 188 171
182 189 175
178 182 155
175 180 156
178 183 159
176 180 152
182 186 160
183 187 164
177 179 147
175 178 145
176 181 158
178 184 167
177 180 150
180 184 160
178 181 152
176 180 151
174 180 159
181 185 159
174 176 139
181 183 153
176 178 146
178 180 143
177 178 144
177 179 145
177 177 138
172 173 131
180 182 151
178 180 147
176 176 136
177 178 143
178 178 137
179 179 141
178 177 136
179 180 143
177 178 141
178 179 143
180 180 142
177 178 138
176 175 130
180 180 140
178 177 134
183 184 149
181 181 142
178 179 138
180 180 141
181 179 136
178 175 124
180 181 143
179 177 131
178 177 132
179 178 134
181 182 147
178 177 129
181 180 138
182 180 135
182 181 140
181 180 137
181 179 134
182 181 141
179 179 136
182 182 143
180 180 139
180 179 135
182 183 149
181 179 135
184 183 143
182 182 143
182 181 140
182 182 145
180 177 129
180 181 141
184 182 142
179 177 131
180 177 130
181 180 140
182 181 141
184 183 145
182 182 142
180 180 140
181 181 139
183 182 143
183 180 135
181 181 140
185 186 153
186 186 152
182 181 142
182 180 137
183 181 137
183 182 139
184 184 149
181 181 142
184 185 152
185 187 156
186 186 152
184 184 149
182 182 143
185 185 148
186 187 156
186 185 148
182 181 140
184 187 157
186 188 158
186 188 159
185 185 152
182 180 137
184 184 148
186 186 151
183 182 143
188 188 156
183 184 149
182 182 142
184 186 154
185 185 149
188 190 164
190 191 164
182 183 149
186 185 146
187 187 154
188 189 160
187 189 161
186 186 153
189 191 163
190 194 174
202 225 255
201 225 255
201 224 255
201 224 255
201 224 255
200 224 255
200 224 255
200 224 255
200 224 255
199 224 255
199 223 255
199 223 255
199 223 255
198 223 255
198 223 255
198 223 255
198 223 255
197 222 255
197 222 255
197 222 255
197 222 255
197 222 255
196 222 255
196 222 255
196 222 255
196 221 255
195 221 255
195 221 255
195 221 255
195 221 255
194 221 255
195 221 255
196 222 255
196 222 252
196 222 255
197 222 254
195 221 254
196 221 252
196 222 255
195 221 254
196 221 255
195 221 252
196 221 252
195 221 253
196 221 253
196 221 254
195 221 254
194 221 254
195 221 255
195 221 254
195 221 255
195 221 255
194 220 253
194 221 255
195 221 255
194 221 255
195 221 255
194 221 255
195 221 255
195 221 255
195 221 254
193 220 255
193 220 254
193 220 254
192 219 252
193 220 252
192 219 249
192 219 249
191 219 252
191 219 252
192 219 250
191 219 250
192 219 252
190 218 248
191 219 252
190 218 249
189 217 242
191 219 252
191 219 253
190 218 249
190 218 252
190 218 246
191 219 253
190 219 255
190 218 254
190 219 254
191 219 254
190 219 255
190 219 255
190 219 255
191 219 255
190 218 255
190 218 255
191 219 253
190 219 255
189 218 254
189 218 254
187 217 254
188 217 254
188 217 253
188 217 253
188 217 254
188 218 255
188 217 254
187 217 253
187 217 252
185 216 255
184 215 255
184 215 255
184 215 255
184 216 255
184 216 255
185 216 255
185 216 255
185 216 255
186 216 255
186 217 255
187 217 255
187 217 255
188 217 255
189 218 255
189 218 255
190 219 255
191 219 255
192 220 255
193 220 255
195 221 255
197 222 255
199 223 255
203 225 255
208 228 255
211 230 255
211 230 255
211 230 255
211 230 255
211 230 255
211 230 255
210 230 255
210 230 255
210 229 255
210 229 255
210 229 255
210 229 255
210 229 255
210 229 255
210 229 255
210 229 255
210 229 255
210 229 255
210 229 255
210 229 255
210 229 255
210 229 255
210 229 255
210 229 255
210 229 255
210 229 255
210 229 255
210 229 255
210 229 255
210 229 255
210 229 255
210 229 255
210 229 255
204 223 251
108 135 188
61 98 172
61 97 159
62 98 166
61 97 162
62 99 167
62 98 169
62 98 162
62 98 165
61 97 159
61 97 162
62 98 165
62 98 168
63 99 165
62 98 166
62 99 171
63 99 165
62 98 170
62 98 164
63 99 165
62 98 169
62 98 161
62 98 167
62 98 165
62 98 162
62 98 161
62 98 165
62 98 165
62 98 165
62 98 169
62 98 165
63 99 166
63 99 168
63 99 167
63 99 164
62 98 164
62 97 161
63 99 171
61 98 162
62 98 161
62 98 167
62 98 163
61 97 157
62 97 156
62 99 167
61 97 163
62 99 171
62 98 163
60 96 154
61 97 158
62 98 163
62 98 169
62 99 168
61 97 159
62 98 159
62 98 166
61 97 160
61 97 163
63 99 171
62 97 161
62 97 156
61 97 165
61 97 159
62 98 163
62 98 167
61 96 160
61 97 164
61 96 164
60 96 169
109 135 188
204 223 250
210 229 255
210 229 255
210 229 255
210 229 255
210 229 255
210 229 255
210 229 255
210 229 255
210 229 255
210 229 255
210 229 255
210 229 255
210 229 255
210 229 255
210 229 255
210 229 255
210 229 255
210 229 255
210 229 255
210 229 255
210 229 255
210 229 255
210 229 255
210 229 255
210 230 255
210 230 255
210 230 255
211 230 255
211 230 255
211 230 255
211 230 255
211 230 255
211 230 255
201 214 223
190 198 188
185 192 177
181 186 168
183 190 175
183 191 180
177 183 167
180 188 175
184 189 171
181 188 172
174 178 149
180 183 154
182 188 171
178 182 158
175 179 151
179 183 157
176 179 147
178 183 159
176 182 164
179 182 157
178 180 149
178 181 150
173 175 140
179 181 147
180 183 157
177 180 147
179 182 154
176 178 146
179 182 152
174 176 142
170 169 124
172 173 131
172 172 124
176 176 134
179 180 147
179 180 145
172 174 136
178 178 138
173 171 121
176 174 125
179 179 139
182 183 149
178 180 147
179 179 140
178 179 141
181 182 145
180 181 145
182 181 142
184 186 155
178 177 132
177 175 125
181 180 139
181 181 142
180 179 136
182 181 138
181 181 140
183 184 149
180 179 137
180 179 134
178 178 136
180 179 136
181 177 125
180 178 132
179 179 135
177 176 129
180 180 137
181 180 139
183 180 136
182 181 141
181 180 139
179 178 133
179 177 130
178 177 133
178 176 127
180 179 134
182 181 138
184 183 143
182 183 146
184 185 151
180 180 140
178 176 126
182 182 144
182 184 150
183 182 143
184 183 142
183 183 146
181 180 138
186 185 150
179 179 137
185 185 148
181 178 130
180 180 137
182 180 137
184 184 148
185 186 152
184 182 142
181 180 136
184 183 145
185 185 150
186 186 151
185 185 148
183 184 148
184 185 149
182 181 140
181 180 136
187 188 157
183 182 142
188 187 153
183 180 133
184 184 146
184 184 147
185 186 151
185 186 153
185 185 150
183 183 147
187 188 157
186 185 147
185 186 153
185 183 140
183 183 144
186 187 154
191 192 167
186 187 155
185 184 146
185 185 150
191 194 172
186 189 162
186 186 152
184 184 147
186 189 162
188 190 162
202 225 255
202 225 255
201 225 255
201 224 255
201 224 255
201 224 255
200 224 255
200 224 255
200 224 255
200 224 255
199 224 255
199 223 255
199 223 255
199 223 255
199 223 255
198 223 255
198 223 255
198 223 255
198 223 255
197 222 255
197 222 255
197 222 255
197 222 255
196 222 255
196 222 255
196 222 255
196 222 255
196 221 255
195 221 255
196 221 253
197 222 254
196 222 255
198 223 254
197 222 255
197 222 254
197 222 254
196 222 255
198 223 255
198 223 255
196 221 250
196 222 255
196 221 249
197 222 255
197 222 255
196 222 254
197 222 255
197 222 255
197 222 255
197 222 255
196 221 255
195 221 255
196 222 255
196 222 255
196 222 255
197 222 255
196 222 255
195 221 253
196 222 255
195 221 254
194 220 252
193 219 248
194 220 250
193 220 250
193 220 253
193 220 250
193 220 253
192 219 249
193 220 254
192 218 249
192 219 246
192 219 250
192 219 249
192 219 248
192 219 252
192 220 254
192 219 248
192 219 253
192 219 252
191 219 250
192 219 252
192 219 253
191 219 253
191 219 252
191 219 253
191 219 253
190 218 250
190 218 248
190 218 249
190 218 252
191 219 255
190 218 250
190 218 254
190 219 255
192 220 255
192 220 255
191 219 254
190 219 254
190 218 253
189 218 255
190 218 255
188 218 255
189 218 253
189 218 255
189 218 253
190 219 254
188 218 254
189 218 255
187 217 255
185 216 255
184 216 255
184 216 255
185 216 255
185 216 255
185 216 255
185 216 255
186 216 255
186 217 255
187 217 255
187 217 255
188 217 255
188 218 255
189 218 255
190 218 255
191 219 255
191 219 255
193 220 255
194 221 255
195 221 255
197 222 255
199 223 255
203 225 255
208 228 255
211 230 255
211 230 255
211 230 255
211 230 255
211 230 255
211 230 255
211 230 255
211 230 255
211 230 255
211 230 255
211 230 255
211 230 255
210 230 255
210 230 255
210 230 255
210 229 255
210 229 255
210 229 255
210 229 255
210 229 255
210 229 255
210 229 255
210 229 255
210 229 255
210 229 255
210 229 255
210 229 255
210 229 255
210 229 255
210 229 255
210 229 255
201 221 249
113 138 192
61 98 170
62 99 177
61 97 157
62 98 164
61 98 164
63 99 168
61 98 168
62 98 164
61 97 160
61 98 160
62 98 165
61 98 165
61 97 154
62 98 162
62 98 169
62 98 164
62 98 166
63 99 167
62 98 162
61 98 164
62 98 161
61 97 152
62 98 160
62 98 169
62 99 167
63 99 162
62 98 162
61 98 164
62 99 169
62 97 154
62 98 165
62 98 161
63 99 164
62 98 156
61 97 159
62 98 157
62 98 157
62 99 169
62 98 167
62 98 164
62 98 165
61 97 157
61 97 163
61 97 158
62 98 161
61 98 159
62 98 164
62 99 168
61 97 160
62 98 162
61 98 161
62 99 168
61 97 156
62 97 160
62 98 168
61 96 155
61 97 163
62 98 163
62 98 163
62 98 163
61 98 162
62 98 165
62 98 164
61 96 160
62 97 165
62 99 169
62 98 172
62 97 163
61 97 169
61 96 162
114 139 190
201 220 247
210 229 255
210 229 255
210 229 255
210 229 255
210 229 255
210 229 255
210 229 255
210 229 255
210 229 255
210 229 255
210 229 255
210 229 255
210 229 255
210 229 255
210 229 255
210 230 255
210 230 255
210 230 255
210 230 255
211 230 255
211 230 255
211 230 255
211 230 255
211 230 255
211 230 255
211 230 255
211 230 255
211 230 255
211 230 255
211 230 255
211 230 255
198 210 215
186 193 180
189 194 179
187 194 181
186 192 177
184 192 181
184 191 178
177 182 163
180 187 172
184 190 175
175 179 154
176 180 152
175 180 155
174 179 157
174 178 149
177 180 152
177 180 152
178 183 161
173 176 145
172 175 141
178 182 154
169 171 134
175 176 139
181 184 154
177 181 154
176 180 157
171 173 134
175 176 138
171 172 136
179 181 149
172 173 133
178 177 138
176 176 134
174 174 133
178 177 136
175 176 137
177 178 138
176 176 137
179 179 142
179 179 144
175 178 144
178 177 129
181 184 155
177 176 131
176 176 133
178 178 136
179 180 144
176 175 130
179 178 135
177 176 130
178 175 126
181 181 140
183 184 149
175 174 129
177 176 130
181 179 133
177 175 124
179 176 126
182 180 135
178 176 126
178 176 130
180 178 133
179 178 132
178 177 132
179 179 136
182 182 144
180 179 134
179 178 134
184 184 150
181 180 138
180 180 139
183 182 143
182 181 139
180 177 130
181 180 137
179 178 133
181 180 136
180 180 138
185 184 145
185 187 155
181 181 142
178 177 129
183 183 144
178 178 133
180 179 133
184 183 143
183 182 143
181 180 138
181 180 138
179 177 129
185 184 147
182 182 142
181 181 142
184 180 133
183 183 144
183 183 145
184 182 139
185 184 147
183 183 144
184 182 141
182 182 142
183 183 143
184 185 151
184 183 142
181 179 133
183 183 145
180 179 135
182 181 139
184 183 144
182 181 140
185 185 150
185 187 155
184 186 153
187 189 161
181 180 134
188 188 156
183 182 141
185 186 152
185 186 152
185 185 148
181 181 140
187 188 158
186 188 159
183 181 137
184 185 153
189 191 163
186 188 160
185 187 155
188 190 162
187 188 154
184 184 146
188 189 159
202 225 255
202 225 255
202 225 255
201 225 255
201 225 255
201 224 255
201 224 255
201 224 255
200 224 255
200 224 255
200 224 255
200 224 255
199 224 255
199 223 255
199 223 255
199 223 255
198 223 255
198 223 255
198 223 255
198 223 255
198 223 255
197 222 255
197 222 255
197 222 255
197 222 255
197 222 255
196 222 255
197 222 254
198 223 255
197 222 254
198 222 253
198 223 255
198 223 254
199 223 255
198 222 254
198 222 254
198 223 255
198 223 255
197 222 252
197 222 252
197 222 253
198 223 254
198 222 253
196 222 254
198 223 255
198 223 255
198 223 254
198 223 255
197 222 255
197 222 255
196 221 253
198 223 255
197 222 255
197 222 253
196 222 252
194 220 249
195 221 253
194 220 249
194 220 248
195 221 253
194 221 253
194 220 252
194 220 248
193 220 248
195 221 254
194 221 253
194 220 252
194 220 253
194 220 252
194 220 253
194 221 254
194 220 250
194 220 252
193 220 252
194 221 255
193 219 249
193 219 249
193 219 249
192 219 248
193 220 253
193 220 253
193 220 255
191 218 246
192 219 249
191 218 245
191 219 250
191 219 253
191 219 253
191 219 252
191 219 253
191 219 252
191 219 254
190 218 252
189 217 250
190 218 250
190 218 249
192 219 253
192 220 255
192 219 254
191 219 255
191 219 254
190 219 255
190 218 254
189 218 253
190 218 254
189 218 255
191 219 253
188 218 255
188 217 254
187 217 254
186 216 255
185 216 255
185 216 255
185 216 255
186 216 255
186 217 255
186 217 255
187 217 255
187 217 255
188 217 255
188 218 255
189 218 255
189 218 255
190 219 255
191 219 255
192 220 255
193 220 255
194 221 255
196 222 255
197 222 255
200 224 255
203 225 255
208 228 255
211 230 255
211 230 255
211 230 255
211 230 255
211 230 255
211 230 255
211 230 255
211 230 255
211 230 255
211 230 255
211 230 255
211 230 255
211 230 255
211 230 255
211 230 255
211 230 255
211 230 255
211 230 255
211 230 255
210 230 255
210 230 255
210 230 255
210 230 255
210 229 255
210 229 255
210 229 255
210 229 255
210 229 255
210 229 255
196 216 246
111 137 188
62 98 165
61 97 168
60 97 160
62 99 171
63 99 169
62 99 168
62 98 162
62 98 162
62 99 170
63 99 169
61 97 164
63 99 166
62 98 165
62 98 165
61 97 158
61 97 157
61 97 160
63 99 163
63 99 167
62 98 165
63 99 168
63 99 167
62 98 162
62 98 162
62 98 164
62 98 160
63 99 161
62 98 166
60 96 149
63 99 170
62 98 165
62 98 160
63 99 169
62 98 165
62 98 164
61 97 158
61 98 160
63 99 162
62 98 161
62 97 155
63 99 164
61 97 161
62 98 163
62 98 164
62 98 162
62 99 168
62 98 159
62 97 153
62 98 160
61 97 161
62 98 162
61 97 160
62 98 163
62 98 169
61 97 161
62 98 165
62 98 162
61 97 160
62 97 161
61 97 164
62 98 164
61 97 158
60 95 153
62 97 160
62 98 164
62 97 162
61 96 156
61 96 159
61 97 170
61 97 167
61 97 164
62 96 163
101 127 185
205 224 252
210 229 255
210 229 255
210 229 255
210 229 255
210 229 255
210 229 255
210 230 255
210 230 255
210 230 255
210 230 255
211 230 255
211 230 255
211 230 255
211 230 255
211 230 255
211 230 255
211 230 255
211 230 255
211 230 255
211 230 255
211 230 255
211 230 255
211 230 255
211 230 255
211 230 255
211 230 255
211 230 255
211 230 255
211 230 255
199 213 221
185 191 177
183 189 174
178 183 163
182 191 183
183 189 171
179 184 161
182 189 176
177 183 165
175 180 159
173 178 155
173 178 157
176 182 163
180 184 162
178 182 160
172 178 158
172 175 143
178 182 158
172 175 148
174 177 151
171 173 141
170 171 135
177 180 152
176 178 144
178 180 147
171 172 133
174 175 137
180 181 148
178 179 146
176 176 136
178 179 144
175 177 143
177 179 148
180 181 146
178 179 142
177 177 138
174 176 143
179 180 144
177 177 140
178 180 144
175 174 128
183 183 146
177 175 129
179 179 145
178 177 135
181 180 141
180 178 134
179 181 146
178 178 137
180 179 136
182 181 141
178 177 130
177 176 131
180 179 136
179 176 126
180 178 132
181 179 135
178 179 138
183 181 140
181 181 142
178 177 132
180 179 137
181 180 138
181 180 136
180 178 130
177 174 120
183 182 140
178 175 123
180 179 135
181 180 135
183 182 142
182 182 145
179 178 131
180 178 132
178 177 132
182 180 135
180 178 131
181 180 138
181 180 139
184 182 139
187 187 153
179 177 130
181 179 134
181 180 137
179 179 134
184 182 139
181 180 136
182 180 134
180 178 132
184 183 143
185 184 147
182 181 140
185 185 149
182 182 141
185 186 151
183 181 139
184 184 147
184 184 146
184 183 143
181 180 135
183 183 144
180 180 137
182 181 139
183 182 140
180 178 133
187 189 161
185 185 149
183 185 150
184 184 147
185 186 154
183 183 147
184 184 147
183 184 149
180 177 125
186 185 147
184 184 146
182 181 139
186 187 154
186 185 147
186 188 158
185 185 149
187 188 158
186 188 160
186 187 155
187 186 151
184 184 146
186 186 152
186 186 152
190 191 163
182 182 142
188 190 162
190 192 165
190 194 172
203 225 255
202 225 255
202 225 255
202 225 255
202 225 255
201 225 255
201 224 255
201 224 255
201 224 255
201 224 255
200 224 255
200 224 255
200 224 255
200 224 255
199 224 255
199 223 255
199 223 255
199 223 255
199 223 255
198 223 255
198 223 255
198 223 255
198 223 255
197 222 255
197 222 255
196 221 254
199 223 254
199 223 254
199 223 253
198 223 254
198 223 255
199 223 255
199 223 253
199 223 254
200 224 255
198 223 254
196 221 250
198 223 255
198 222 254
198 223 253
198 223 255
199 223 255
198 223 254
198 222 253
197 222 255
197 222 254
199 223 255
198 223 254
197 222 255
197 222 253
197 222 252
196 221 252
195 221 249
194 220 246
195 221 249
196 221 253
195 221 249
194 220 246
195 220 246
195 221 249
195 221 252
195 221 252
195 221 252
195 221 250
195 221 252
194 220 244
191 217 237
189 215 224
189 216 227
188 215 226
185 211 199
185 212 211
184 211 201
183 209 188
181 208 184
180 207 189
183 209 184
182 208 184
181 207 175
182 208 188
181 207 181
183 210 193
185 211 206
184 211 203
188 215 230
189 216 233
190 217 241
193 220 254
192 220 254
192 219 249
191 219 249
191 218 248
191 219 250
191 219 249
191 219 253
191 219 252
189 217 244
190 218 252
191 219 252
192 219 254
193 220 255
191 219 253
192 219 254
189 218 253
190 218 252
192 219 255
189 218 254
189 218 253
189 218 255
189 218 254
190 218 254
189 218 255
186 217 255
186 216 255
186 217 255
186 217 255
187 217 255
187 217 255
187 217 255
188 217 255
188 218 255
189 218 255
189 218 255
190 219 255
191 219 255
191 219 255
192 220 255
193 220 255
195 221 255
196 222 255
198 223 255
200 224 255
203 225 255
209 229 255
211 230 255
211 230 255
211 230 255
211 230 255
211 230 255
211 230 255
211 230 255
211 230 255
211 230 255
211 230 255
211 230 255
211 230 255
211 230 255
211 230 255
211 230 255
211 230 255
211 230 255
211 230 255
211 230 255
211 230 255
211 230 255
211 230 255
211 230 255
211 230 255
211 230 255
211 230 255
211 230 255
207 226 253
118 143 197
62 99 169
61 98 169
61 98 168
62 98 168
62 98 167
62 98 167
62 98 166
61 98 165
62 98 160
62 98 162
61 98 165
62 98 162
62 98 162
61 97 160
62 98 163
62 98 163
62 97 156
62 98 167
63 99 161
62 98 160
62 98 164
62 98 161
62 97 157
62 98 158
62 98 161
62 98 159
61 97 157
62 98 155
61 97 154
62 98 162
61 97 158
62 98 163
62 98 162
63 99 168
62 98 159
62 98 165
63 99 165
62 99 168
61 97 157
62 98 162
62 97 159
61 97 161
62 98 162
62 98 158
61 97 150
61 97 162
62 98 163
62 98 166
62 98 160
62 98 160
61 98 164
63 99 163
63 99 170
61 96 155
62 98 162
62 98 165
62 98 168
62 98 164
62 97 159
62 98 163
62 97 159
62 97 158
62 97 160
61 97 158
62 97 161
61 96 161
62 98 167
61 97 162
61 97 163
62 97 162
60 96 165
61 97 163
61 96 160
60 95 164
111 135 187
203 222 250
211 230 255
211 230 255
211 230 255
211 230 255
211 230 255
211 230 255
211 230 255
211 230 255
211 230 255
211 230 255
211 230 255
211 230 255
211 230 255
211 230 255
211 230 255
211 230 255
211 230 255
211 230 255
211 230 255
211 230 255
211 230 255
211 230 255
211 230 255
211 230 255
211 230 255
211 230 255
211 230 255
201 214 224
189 195 183
187 195 186
183 191 181
179 185 170
181 185 163
183 190 176
180 185 167
180 188 175
178 184 167
175 180 157
180 186 168
176 180 156
181 187 169
180 185 163
174 178 154
166 170 142
178 183 160
172 175 145
168 172 143
171 175 150
177 181 151
174 178 150
176 177 142
173 175 140
178 179 143
178 180 147
174 175 133
177 178 141
174 175 135
177 177 141
171 172 135
173 174 138
168 167 120
177 178 141
177 177 136
175 174 132
175 175 133
174 173 128
178 176 127
176 176 136
178 177 137
177 177 133
175 175 132
181 180 137
177 175 127
175 174 129
178 176 130
176 174 125
177 176 129
177 176 127
178 176 130
179 178 136
178 176 128
178 176 127
179 179 137
183 182 143
181 179 135
177 176 128
183 182 142
179 179 137
177 175 124
179 178 131
177 175 123
181 179 133
182 182 142
177 174 120
180 179 134
180 178 132
179 176 124
179 176 125
176 173 118
181 177 128
182 181 142
179 178 131
179 178 134
180 178 132
181 178 131
182 181 138
182 181 138
186 186 152
181 179 134
178 175 122
181 181 142
179 179 136
181 178 129
180 179 134
180 178 131
180 180 139
179 175 122
181 180 136
182 181 138
185 184 147
184 185 151
177 175 124
181 180 135
185 183 143
187 185 147
181 180 135
182 182 141
183 182 139
182 181 140
183 183 144
182 179 133
184 186 153
182 180 137
178 178 134
179 177 129
184 184 147
182 181 138
182 180 136
183 182 140
185 186 152
185 183 141
184 183 143
184 183 144
184 182 140
184 184 145
183 180 134
187 186 151
187 188 156
188 189 159
185 184 147
183 181 139
187 187 152
187 189 159
187 189 161
188 188 156
187 188 155
187 190 162
187 188 155
187 189 159
186 187 154
183 183 145
203 225 255
203 225 255
202 225 255
202 225 255
202 225 255
202 225 255
202 225 255
201 225 255
201 224 255
201 224 255
201 224 255
201 224 255
200 224 255
200 224 255
200 224 255
200 224 255
199 224 255
199 223 255
199 223 255
199 223 255
199 223 255
198 223 255
198 223 255
198 223 255
199 223 254
200 224 253
200 224 255
201 224 255
199 223 254
200 224 255
200 224 255
200 224 255
199 223 255
198 223 252
199 223 252
198 223 254
199 223 254
198 223 253
198 223 254
199 223 255
199 223 255
198 223 254
199 223 254
199 223 255
199 223 254
199 224 255
200 224 255
199 223 253
197 222 250
196 222 252
196 221 249
196 221 250
197 222 252
196 221 249
197 222 253
197 222 253
196 222 252
197 222 252
197 222 252
196 221 248
192 218 237
190 215 218
189 215 217
182 208 184
182 208 182
181 206 165
181 207 165
179 205 161
178 203 130
178 203 137
178 202 135
177 203 153
177 202 133
178 203 130
175 200 128
178 202 114
177 202 125
176 201 114
176 202 133
174 200 114
177 202 128
177 203 140
175 201 128
177 204 149
178 203 142
176 202 140
179 205 165
178 205 171
181 207 179
185 212 212
185 212 214
191 218 240
191 218 245
192 220 252
192 219 249
191 218 245
192 219 250
192 219 250
191 219 253
191 219 252
191 218 250
192 219 253
192 220 255
192 219 255
194 220 254
193 220 255
193 220 254
191 219 255
190 218 255
189 218 255
190 218 252
190 219 255
189 218 253
190 218 254
187 217 255
187 217 255
187 217 255
187 217 255
188 217 255
188 218 255
188 218 255
189 218 255
189 218 255
190 219 255
191 219 255
191 219 255
192 220 255
193 220 255
194 221 255
195 221 255
197 222 255
198 223 255
200 224 255
204 226 255
209 229 255
212 230 255
212 230 255
212 230 255
211 230 255
211 230 255
211 230 255
211 230 255
211 230 255
211 230 255
211 230 255
211 230 255
211 230 255
211 230 255
211 230 255
211 230 255
211 230 255
211 230 255
211 230 255
211 230 255
211 230 255
211 230 255
211 230 255
211 230 255
211 230 255
211 230 255
210 229 254
107 133 184
62 98 168
62 98 163
62 98 161
62 98 164
62 98 164
62 98 167
62 98 165
62 98 162
62 98 168
62 98 165
62 98 162
62 98 163
62 99 163
62 99 168
62 98 162
61 97 159
62 98 163
61 97 161
62 98 167
62 98 161
63 99 168
61 98 161
61 97 166
62 98 164
61 97 155
63 99 168
63 99 161
62 98 162
61 97 153
62 99 163
62 98 160
62 98 154
61 98 160
61 97 159
61 98 159
61 97 161
62 98 158
61 97 163
62 98 163
62 98 158
62 98 162
62 98 160
61 96 147
62 98 162
62 98 157
62 99 166
61 97 164
61 97 162
62 98 165
61 97 153
62 98 161
62 98 161
62 97 158
61 97 162
60 96 153
62 98 159
61 98 164
61 98 164
62 98 162
62 98 165
61 97 155
61 97 159
62 98 170
61 96 159
62 98 162
61 97 159
61 96 161
62 98 163
62 97 157
62 97 160
62 97 163
62 97 164
62 97 159
61 96 160
61 96 161
59 92 151
119 143 189
209 228 254
211 230 255
211 230 255
211 230 255
211 230 255
211 230 255
211 230 255
211 230 255
211 230 255
211 230 255
211 230 255
211 230 255
211 230 255
211 230 255
211 230 255
211 230 255
211 230 255
211 230 255
211 230 255
211 230 255
211 230 255
211 230 255
212 230 255
212 230 255
212 230 255
212 230 255
202 216 225
189 198 193
187 194 180
182 189 175
179 185 167
175 181 162
174 181 169
173 179 161
174 179 153
170 174 149
174 181 166
173 178 155
175 180 159
174 178 151
171 176 154
174 178 151
173 178 156
171 175 144
169 170 133
170 173 141
167 171 142
175 177 143
170 174 143
177 179 146
172 173 136
177 180 152
176 177 142
176 177 139
176 177 141
173 174 135
175 175 135
174 174 135
176 177 140
174 176 142
174 175 138
173 173 131
181 181 146
176 176 134
174 175 137
178 179 144
177 175 131
178 175 129
179 177 135
179 178 135
179 178 136
177 177 140
176 176 137
176 175 129
184 186 155
176 175 129
176 173 121
176 175 126
178 177 133
176 175 127
173 171 117
177 174 122
178 177 131
179 176 124
180 180 140
177 174 121
180 179 138
182 179 132
181 180 136
180 178 132
180 180 139
182 181 139
179 178 131
182 181 142
181 178 130
184 184 149
181 178 131
180 180 137
179 177 130
179 177 127
181 180 137
179 177 129
181 178 130
182 180 133
179 176 127
180 179 135
182 179 133
181 178 128
178 175 122
183 181 140
183 180 134
183 183 146
181 181 140
181 178 131
183 181 136
181 180 138
180 177 125
181 179 133
183 181 139
181 178 130
182 180 137
182 179 133
184 183 144
182 182 142
182 179 130
183 181 139
181 179 133
181 178 131
185 184 146
183 181 137
184 182 140
183 182 141
180 179 135
183 183 143
185 184 146
185 186 153
180 177 126
186 186 151
182 181 139
182 182 140
185 185 149
184 184 147
188 187 152
183 182 141
186 187 156
182 182 142
183 181 135
183 181 139
184 185 151
184 183 142
185 188 160
182 180 137
184 183 145
188 188 155
185 184 146
190 192 165
186 186 151
184 181 135
192 193 167
187 186 151
189 192 166
203 226 255
203 225 255
203 225 255
203 225 255
202 225 255
202 225 255
202 225 255
202 225 255
202 225 255
201 225 255
201 224 255
201 224 255
201 224 255
201 224 255
200 224 255
200 224 255
200 224 255
200 224 255
200 224 255
199 223 255
199 223 255
199 223 255
200 223 254
199 223 253
200 224 255
200 224 252
201 224 255
200 224 254
200 224 255
200 224 255
200 224 255
201 224 254
199 223 249
198 222 249
199 222 248
199 223 254
200 224 255
199 223 254
199 224 255
200 224 254
200 224 255
199 223 255
199 223 254
200 224 254
199 224 255
198 222 249
198 222 253
198 222 252
198 223 254
198 223 254
197 222 249
198 222 252
197 222 249
198 223 254
197 221 248
198 222 253
196 221 245
190 215 221
187 213 209
182 207 169
180 205 165
178 204 157
180 206 163
177 201 122
174 199 117
175 200 122
176 201 120
178 203 125
175 200 108
175 200 105
176 201 117
174 200 117
175 199 99
175 200 102
176 201 117
177 201 114
174 200 125
175 200 125
172 197 102
175 199 92
175 201 114
173 199 128
175 201 122
176 200 105
173 198 99
175 200 102
176 201 122
175 201 128
175 202 133
176 202 130
176 202 140
178 203 135
178 204 165
181 207 191
184 211 215
189 216 231
192 219 249
192 219 249
192 219 252
192 219 250
192 219 252
191 219 249
192 219 254
192 219 248
193 220 253
192 220 255
192 220 254
192 220 255
192 220 255
192 219 254
191 219 254
191 219 255
190 219 253
191 219 250
190 218 254
188 218 255
187 217 255
188 217 255
188 218 255
188 218 255
189 218 255
189 218 255
189 218 255
190 219 255
191 219 255
191 219 255
192 220 255
193 220 255
194 220 255
195 221 255
196 222 255
197 222 255
199 223 255
201 224 255
204 226 255
210 229 255
212 230 255
212 230 255
212 230 255
212 230 255
212 230 255
212 230 255
212 230 255
212 230 255
212 230 255
212 230 255
212 230 255
212 230 255
211 230 255
211 230 255
211 230 255
211 230 255
211 230 255
211 230 255
211 230 255
211 230 255
211 230 255
211 230 255
211 230 255
211 230 255
140 163 205
61 98 166
61 97 161
61 98 166
62 98 166
61 98 165
61 98 163
62 98 162
61 97 157
61 97 159
61 97 157
62 98 162
62 98 162
62 98 160
61 97 161
62 98 158
63 99 169
62 98 166
62 98 160
62 98 165
62 98 158
62 98 159
62 98 166
61 98 162
62 98 165
62 98 163
62 98 161
62 98 167
62 98 158
62 98 160
62 98 158
62 98 162
62 98 161
63 99 166
61 97 155
62 98 164
63 98 162
61 97 160
62 97 155
62 98 162
61 97 156
62 97 159
62 98 156
62 98 167
62 98 164
62 99 165
62 97 153
62 98 162
62 98 157
61 97 154
61 97 162
62 98 159
61 96 155
61 97 154
62 98 157
62 98 163
61 96 158
62 97 161
62 97 156
61 97 156
62 99 168
62 98 168
61 97 164
61 96 153
61 97 161
61 97 160
61 97 160
62 97 162
61 97 162
61 96 160
62 97 158
61 97 161
60 95 157
61 97 161
61 96 158
61 96 159
61 96 154
62 98 167
60 95 167
135 156 199
211 230 255
211 230 255
211 230 255
211 230 255
211 230 255
211 230 255
211 230 255
211 230 255
211 230 255
211 230 255
211 230 255
211 230 255
212 230 255
212 230 255
212 230 255
212 230 255
212 230 255
212 230 255
212 230 255
212 230 255
212 230 255
212 230 255
212 230 255
212 230 255
201 216 230
188 195 187
186 191 177
183 190 177
182 189 173
178 185 173
178 184 167
176 182 164
178 185 172
176 181 162
174 178 152
172 177 153
172 177 157
166 171 153
167 171 144
171 175 150
173 177 153
175 179 151
175 180 157
166 170 141
173 174 140
168 171 136
168 169 130
178 182 156
169 171 140
169 171 135
168 168 129
168 169 131
169 171 135
179 181 150
177 178 141
176 177 140
172 172 132
177 176 133
175 175 135
174 175 139
172 170 122
174 173 126
178 178 138
176 176 136
172 172 132
175 174 130
178 178 140
175 173 125
178 177 133
178 176 129
173 173 127
174 174 129
177 175 127
180 179 137
180 179 137
178 175 123
179 177 130
180 178 132
182 182 143
179 178 133
182 180 139
178 176 127
181 179 134
179 175 124
176 173 119
178 176 127
182 179 132
181 181 144
179 177 130
184 183 145
176 174 119
177 176 127
181 180 137
178 175 121
183 182 141
178 176 126
182 180 135
179 177 126
183 180 134
181 177 126
184 185 151
182 179 134
182 178 129
179 177 127
181 178 130
182 181 137
181 180 138
178 177 129
180 177 126
181 179 133
179 176 124
183 182 140
180 179 132
183 183 144
177 174 121
179 178 132
180 176 123
181 182 143
179 177 126
181 179 134
185 183 141
182 181 139
182 179 132
182 182 142
184 184 147
179 178 131
179 177 129
183 181 139
182 180 134
179 178 133
181 179 134
186 187 157
187 188 157
180 180 135
184 181 136
184 184 149
185 184 145
181 180 137
184 183 143
185 186 152
184 185 150
184 183 142
182 181 136
186 186 149
184 184 148
182 180 134
185 185 148
185 183 141
186 187 156
186 184 145
186 186 151
183 183 145
187 186 151
184 184 147
187 187 154
186 185 147
185 184 147
189 190 162
187 189 157
187 186 150
204 226 255
203 226 255
203 226 255
203 225 255
203 225 255
203 225 255
202 225 255
202 225 255
202 225 255
202 225 255
202 225 255
201 225 255
201 225 255
201 224 255
201 224 255
201 224 255
200 224 255
200 224 255
200 224 255
200 224 255
200 224 255
201 224 255
202 225 254
201 224 255
201 224 250
202 225 253
201 224 254
201 224 254
202 225 255
202 225 254
200 224 253
200 224 253
201 224 254
201 225 255
200 223 250
200 224 255
201 224 255
202 225 255
201 224 254
200 224 255
201 224 255
200 224 255
201 224 254
200 224 254
199 223 253
198 223 250
199 223 254
198 222 246
199 223 253
199 223 253
199 223 253
198 222 250
198 222 249
195 220 237
191 216 223
184 209 186
179 204 151
180 205 157
180 205 155
177 202 128
176 201 111
177 201 111
178 202 122
177 202 122
177 202 114
175 200 102
173 199 84
176 200 111
175 199 92
173 198 102
173 198 88
173 198 80
175 199 80
172 197 88
174 199 62
173 198 92
173 198 92
175 200 95
175 200 84
175 200 105
174 198 88
175 200 88
174 198 95
172 196 76
176 201 111
175 200 92
174 198 88
175 200 95
176 200 108
176 202 130
175 200 111
175 201 125
174 200 114
176 201 117
178 203 137
178 204 149
181 207 182
184 209 184
189 216 228
193 220 252
193 220 252
193 220 254
193 220 254
193 220 253
192 220 253
193 220 252
194 220 253
194 220 254
192 220 255
194 221 255
192 220 254
193 220 255
192 219 252
192 220 255
193 220 255
192 220 254
190 219 254
188 218 255
188 218 255
189 218 255
189 218 255
189 218 255
190 218 255
190 219 255
191 219 255
191 219 255
192 220 255
193 220 255
193 220 255
194 221 255
195 221 255
196 222 255
198 223 255
200 224 255
202 225 255
205 227 255
211 230 255
212 230 255
212 230 255
212 230 255
212 230 255
212 230 255
212 230 255
212 230 255
212 230 255
212 230 255
212 230 255
212 230 255
212 230 255
212 230 255
212 230 255
212 230 255
212 230 255
212 230 255
212 230 255
212 230 255
212 230 255
211 230 255
211 230 255
162 183 220
61 97 158
62 98 163
62 98 169
62 98 162
62 98 164
62 98 164
62 99 163
61 97 158
62 98 166
62 98 163
62 98 167
61 97 156
62 98 163
62 98 164
62 98 159
61 97 159
60 96 152
61 97 160
62 99 167
62 98 164
61 97 155
61 96 152
62 98 159
62 98 165
61 97 152
62 98 159
62 98 155
63 99 164
62 98 160
62 98 157
62 98 160
61 97 152
62 98 160
60 95 143
62 98 157
62 98 157
62 98 162
61 97 153
62 97 154
61 97 157
61 97 152
61 97 150
62 97 155
62 98 164
62 98 161
62 98 160
61 97 156
62 97 154
62 98 155
62 97 152
60 96 150
61 97 153
62 97 160
62 97 159
62 97 154
63 98 160
62 98 164
61 97 161
61 97 157
62 97 154
61 96 151
61 97 159
61 96 155
61 96 150
61 96 154
61 97 155
61 97 156
61 97 159
62 97 165
60 95 156
61 96 159
62 96 152
61 96 163
61 96 158
62 97 163
61 95 156
61 96 161
60 94 158
60 94 154
62 98 168
161 181 216
211 230 255
211 230 255
212 230 255
212 230 255
212 230 255
212 230 255
212 230 255
212 230 255
212 230 255
212 230 255
212 230 255
212 230 255
212 230 255
212 230 255
212 230 255
212 230 255
212 230 255
212 230 255
212 230 255
212 230 255
212 230 255
212 230 255
206 221 236
185 192 180
186 194 185
180 186 174
181 187 171
171 177 163
176 181 160
173 179 159
171 176 158
175 180 163
171 177 159
170 174 147
176 180 154
175 181 162
172 178 159
178 183 163
174 178 152
172 176 150
163 166 135
167 171 144
172 174 140
174 175 133
169 172 141
170 171 135
173 177 152
175 176 143
169 171 136
171 171 127
172 174 139
174 177 149
170 172 136
171 172 133
175 177 143
170 170 126
171 171 130
174 174 135
175 176 136
177 177 139
173 171 123
173 173 132
174 174 130
178 177 136
177 176 133
175 173 124
174 171 119
179 178 135
173 172 126
179 177 132
180 176 125
177 176 135
177 176 130
173 172 125
180 180 140
178 175 125
178 175 127
181 179 134
184 181 137
178 175 125
175 175 134
179 176 126
176 173 117
177 175 122
179 175 120
179 177 131
181 180 136
177 173 114
179 176 124
181 180 135
177 174 124
179 176 125
180 177 126
182 179 132
178 176 127
178 175 122
178 175 119
179 176 123
178 174 118
181 179 134
181 178 127
179 177 129
181 180 135
182 177 124
179 176 124
182 180 136
179 177 129
181 180 136
179 176 125
180 177 128
185 185 148
182 179 131
186 186 152
179 177 126
179 177 128
181 179 130
181 179 133
186 185 148
183 181 138
181 179 134
181 179 134
181 180 136
178 175 121
180 178 129
183 181 138
185 183 140
182 180 134
183 182 140
184 183 141
183 183 146
181 180 133
182 182 142
183 181 136
181 181 140
181 180 134
183 182 138
183 182 140
182 179 132
180 178 129
187 186 149
183 181 136
187 188 158
187 188 156
181 179 133
187 188 156
186 186 151
184 183 142
184 183 143
185 184 146
185 185 148
187 186 151
189 191 163
183 181 137
185 185 147
185 185 151
186 187 154
186 187 153
183 181 135
188 188 156
204 226 255
204 226 255
204 226 255
203 226 255
203 226 255
203 226 255
203 225 255
203 225 255
202 225 255
202 225 255
202 225 255
202 225 255
202 225 255
202 225 255
201 225 255
201 224 255
201 224 255
201 224 255
201 224 255
200 223 253
202 225 255
202 225 253
202 225 255
202 225 253
201 224 250
201 224 250
201 224 253
202 225 255
202 225 254
201 224 254
201 224 250
202 225 255
202 225 255
202 225 255
202 225 254
201 224 254
201 224 254
201 224 254
202 225 254
201 225 255
201 224 254
200 224 252
199 223 252
200 223 250
199 222 248
199 223 249
200 224 253
198 222 246
200 224 253
199 223 250
199 223 250
193 218 228
187 211 188
183 208 169
179 203 155
178 203 130
175 200 125
175 199 111
177 202 117
173 198 99
175 200 105
178 202 122
174 199 102
173 198 88
172 196 84
175 199 84
175 200 92
177 201 95
172 197 102
176 201 102
176 200 102
173 197 62
173 197 80
173 198 80
174 198 80
172 197 80
175 200 99
173 198 80
171 196 80
174 199 95
174 198 80
176 200 92
175 199 72
176 200 72
173 198 84
175 199 88
174 198 76
175 199 67
176 200 84
175 200 88
174 198 80
176 200 95
173 198 99
175 200 114
174 200 117
177 201 108
176 201 117
176 201 117
179 204 149
179 204 144
185 211 196
190 216 230
194 220 253
193 220 248
193 220 254
193 219 249
192 219 248
193 220 250
194 220 254
193 220 254
194 220 254
192 219 253
193 220 254
193 220 253
191 219 255
190 218 252
192 219 254
192 219 254
190 218 255
189 218 255
189 218 255
190 218 255
190 219 255
191 219 255
191 219 255
191 219 255
192 220 255
193 220 255
193 220 255
194 221 255
195 221 255
196 222 255
197 222 255
199 223 255
200 224 255
202 225 255
206 227 255
212 230 255
212 231 255
212 231 255
212 231 255
212 231 255
212 231 255
212 230 255
212 230 255
212 230 255
212 230 255
212 230 255
212 230 255
212 230 255
212 230 255
212 230 255
212 230 255
212 230 255
212 230 255
212 230 255
212 230 255
212 230 255
187 206 238
68 103 170
61 97 159
61 97 160
61 97 160
62 97 166
62 97 156
62 98 165
62 98 163
62 98 159
62 98 164
61 97 160
62 98 167
62 98 164
62 98 162
62 98 160
62 98 163
61 97 160
62 98 162
63 99 166
61 97 152
62 98 159
61 97 155
62 97 154
61 97 153
62 98 162
62 97 153
61 97 157
61 97 156
62 98 162
62 98 158
62 98 161
62 98 160
62 98 163
61 97 156
63 99 163
62 98 156
61 97 159
63 98 163
62 98 158
62 98 160
63 99 163
62 97 160
62 98 158
62 98 161
63 99 158
62 98 163
62 98 160
61 97 155
62 98 163
62 98 156
61 96 151
62 98 165
62 98 162
61 96 151
62 97 161
63 99 167
62 97 155
63 100 169
62 97 155
61 97 161
62 97 162
60 95 152
62 98 161
61 97 158
62 98 162
61 96 153
61 96 158
61 96 155
62 98 165
63 98 163
62 97 160
61 96 159
62 98 164
60 95 154
61 95 148
61 96 156
61 96 159
60 95 155
60 95 156
60 95 161
61 96 162
60 95 157
185 204 235
212 230 255
212 230 255
212 230 255
212 230 255
212 230 255
212 230 255
212 230 255
212 230 255
212 230 255
212 230 255
212 230 255
212 230 255
212 230 255
212 230 255
212 230 255
212 231 255
212 231 255
212 231 255
212 231 255
212 231 255
206 221 235
194 205 206
190 198 191
188 193 179
174 181 169
179 186 175
177 182 165
166 170 148
181 188 175
173 180 168
169 173 149
170 174 145
168 173 153
169 174 149
176 181 162
173 176 150
167 171 143
168 170 140
170 172 137
161 166 140
165 169 145
169 171 138
174 175 140
173 176 149
173 176 146
173 174 135
176 176 138
173 173 137
173 175 142
166 166 122
170 172 136
174 174 133
171 171 129
169 170 135
175 172 125
173 173 131
175 174 132
176 175 130
176 174 128
174 175 137
174 177 143
174 171 124
175 173 128
171 171 127
173 170 117
176 175 126
174 171 123
172 171 126
174 172 123
177 176 132
178 176 125
179 177 127
180 180 139
179 176 128
178 178 137
179 176 123
175 173 124
181 181 141
179 178 133
177 175 125
179 177 127
179 178 135
173 171 120
180 178 131
178 177 129
180 176 123
180 179 134
180 177 125
179 175 120
178 175 123
177 175 123
177 174 118
174 173 120
183 180 136
181 177 124
179 175 121
178 176 124
184 180 133
179 175 119
181 179 134
181 178 129
182 181 138
182 181 140
181 178 130
182 181 137
179 177 126
181 179 132
179 177 127
180 179 134
180 178 130
180 175 120
181 179 134
180 177 128
180 179 134
179 177 128
181 181 139
184 183 144
181 178 132
182 180 137
180 180 137
183 181 137
181 176 119
181 179 132
180 177 126
179 176 125
181 179 131
181 180 135
186 186 151
181 180 134
186 187 153
183 180 136
186 185 148
179 178 132
184 182 139
184 183 144
188 188 155
184 183 141
179 176 121
182 181 137
183 182 142
181 180 134
186 185 145
185 185 147
186 186 151
185 184 146
184 183 143
184 182 141
182 181 138
185 187 155
189 189 159
187 187 153
185 185 150
182 181 139
182 181 139
188 188 155
185 186 151
188 188 156
188 189 157
204 226 255
204 226 255
204 226 255
204 226 255
204 226 255
204 226 255
203 226 255
203 226 255
203 225 255
203 225 255
203 225 255
202 225 255
202 225 255
202 225 255
202 225 255
202 225 255
202 225 255
201 225 255
203 225 254
203 226 255
203 226 255
202 225 253
203 225 255
203 225 255
202 225 255
202 225 254
202 225 254
202 225 253
202 225 253
202 225 255
202 225 255
202 225 255
202 225 253
202 225 255
201 224 253
202 225 254
202 225 255
202 225 255
203 225 254
202 225 254
199 223 246
200 223 248
200 224 252
201 224 253
201 224 253
200 224 250
199 223 250
200 224 253
199 222 245
187 211 207
185 210 189
182 207 161
183 207 155
181 206 153
174 199 120
177 202 120
177 202 122
176 200 105
176 200 105
175 199 80
173 197 92
174 197 80
172 196 99
176 200 105
176 200 92
177 200 92
175 199 84
178 202 108
174 198 84
174 198 84
177 201 99
172 198 92
178 200 84
174 198 72
175 199 51
174 198 80
172 196 76
175 198 84
173 198 88
175 199 72
172 196 51
173 198 88
175 199 84
174 198 80
175 199 67
174 198 51
174 198 84
175 199 80
172 197 67
174 199 84
176 199 62
174 198 80
176 200 88
177 201 102
174 199 88
175 200 95
174 200 108
175 200 102
174 200 114
175 200 117
176 202 140
179 205 153
183 208 184
189 214 218
194 220 248
194 221 254
194 220 250
194 221 254
193 220 250
194 220 249
194 221 255
194 220 255
194 221 255
193 220 254
193 220 254
193 220 252
194 221 255
192 220 255
193 220 255
192 219 254
190 219 255
190 219 255
191 219 255
191 219 255
191 219 255
192 220 255
192 220 255
193 220 255
193 220 255
194 221 255
195 221 255
196 222 255
197 222 255
198 223 255
199 224 255
201 225 255
204 226 255
208 228 255
212 231 255
213 231 255
213 231 255
213 231 255
212 231 255
212 231 255
212 231 255
212 231 255
212 231 255
212 231 255
212 231 255
212 231 255
212 231 255
212 231 255
212 230 255
212 230 255
212 230 255
212 230 255
212 230 255
204 223 249
81 111 166
61 97 167
62 98 165
62 99 167
62 98 161
61 97 159
61 97 158
62 98 160
62 98 160
62 98 163
62 98 162
62 98 158
61 97 158
62 98 166
61 97 155
62 98 160
61 97 158
61 97 160
61 97 154
62 98 160
62 98 159
61 97 154
62 98 160
63 99 161
63 99 162
62 97 158
61 96 154
61 96 156
62 98 160
62 98 161
61 97 152
62 98 162
62 98 153
60 96 150
62 98 164
62 98 163
61 97 151
63 99 165
62 98 162
62 98 155
62 98 161
62 98 166
62 98 156
62 98 159
61 97 157
63 99 162
62 98 161
62 98 161
63 99 167
63 98 156
62 98 160
62 98 159
61 97 155
62 97 155
63 99 168
61 97 158
62 97 159
62 97 160
62 97 157
61 96 151
62 98 161
61 96 154
62 97 161
63 99 166
61 96 147
62 97 159
61 96 156
62 98 162
61 96 155
62 97 163
61 96 150
62 97 161
62 97 163
61 95 153
61 96 154
61 96 162
62 98 165
61 96 154
62 96 157
60 95 158
60 95 158
61 95 156
61 96 160
72 103 164
208 227 252
212 230 255
212 230 255
212 230 255
212 230 255
212 231 255
212 231 255
212 231 255
212 231 255
212 231 255
212 231 255
212 231 255
212 231 255
212 231 255
212 231 255
212 231 255
213 231 255
213 231 255
213 231 255
211 229 252
198 208 211
186 192 178
185 193 187
180 187 172
179 186 176
177 182 162
163 169 153
174 180 165
162 168 148
176 183 169
170 174 149
179 186 171
166 171 150
168 172 147
171 175 154
164 168 142
172 177 156
158 159 123
170 174 150
165 169 143
173 175 141
163 166 137
165 169 138
169 171 140
170 172 140
169 172 140
169 169 130
170 171 138
175 176 138
172 172 131
176 178 144
171 170 129
177 179 149
174 174 135
164 165 125
175 174 134
172 171 123
172 172 132
177 175 128
177 177 133
176 175 133
176 175 127
173 170 121
177 175 127
176 173 121
175 174 132
175 173 123
175 173 126
175 174 127
178 175 125
177 174 121
179 177 129
175 173 123
176 174 129
180 178 131
180 176 124
175 173 122
178 176 127
180 177 127
180 176 125
177 176 129
177 172 113
180 178 130
178 176 129
182 180 134
178 174 116
181 176 122
180 175 117
177 175 124
179 176 121
180 177 128
178 176 124
180 176 126
178 176 125
178 174 119
183 182 141
180 177 126
180 176 124
178 174 120
181 180 137
179 175 121
180 177 127
178 176 127
178 176 125
181 178 131
180 177 125
186 183 140
183 180 133
179 177 127
182 180 136
181 178 131
181 178 128
180 177 125
180 177 127
177 174 121
182 180 134
184 181 135
181 177 124
184 183 142
179 177 127
180 178 130
179 176 124
182 179 131
182 179 131
182 181 137
185 183 142
183 180 134
183 182 139
183 181 135
182 181 137
183 183 144
187 186 151
178 176 123
181 179 131
182 179 133
182 180 133
182 181 139
182 182 145
181 179 132
183 183 143
184 185 151
183 181 135
181 180 139
182 179 131
186 186 153
185 184 146
185 184 143
188 188 154
183 182 140
185 185 148
182 179 131
181 180 138
186 186 149
182 181 138
186 187 155
183 180 134
185 184 142
180 179 132
205 227 255
205 226 255
205 226 255
204 226 255
204 226 255
204 226 255
204 226 255
204 226 255
203 226 255
203 226 255
203 226 255
203 225 255
203 225 255
203 225 255
202 225 255
202 225 255
202 225 255
204 226 255
203 225 255
204 226 255
202 225 252
203 225 254
203 225 253
203 225 253
204 226 255
203 226 255
203 225 254
202 225 255
203 226 255
204 226 255
203 226 255
204 226 255
203 225 254
203 225 255
203 226 255
204 226 255
203 226 255
203 225 255
201 224 252
201 224 249
201 224 253
201 224 252
201 224 252
201 223 248
201 224 249
201 224 252
197 220 236
186 210 194
182 206 155
179 204 155
181 205 142
178 203 125
179 203 120
177 201 111
172 196 88
177 201 88
176 200 122
174 198 80
174 198 76
175 199 84
173 198 80
175 198 67
175 199 84
173 197 72
174 198 72
172 196 62
171 195 84
175 198 72
173 196 62
172 196 80
174 198 72
173 198 76
176 199 72
174 198 51
174 198 76
174 198 62
175 199 67
174 198 67
174 198 67
172 197 67
171 195 62
175 199 67
172 197 76
176 200 84
175 199 76
176 199 67
175 199 84
173 197 67
173 197 51
176 200 88
177 200 67
175 199 72
175 198 57
175 199 80
173 198 62
175 199 88
175 200 105
176 200 92
175 200 99
174 199 95
173 198 99
175 200 128
176 201 111
177 203 142
181 207 175
187 212 198
193 219 242
195 221 250
194 221 252
195 221 254
194 221 253
195 221 254
195 221 254
196 222 254
194 221 255
195 221 254
194 220 252
192 220 253
192 220 255
194 221 255
193 220 255
191 219 254
191 219 255
191 219 255
192 220 255
192 220 255
193 220 255
193 220 255
194 220 255
194 221 255
195 221 255
196 222 255
197 222 255
198 223 255
199 223 255
200 224 255
202 225 255
205 226 255
209 229 255
213 231 255
213 231 255
213 231 255
213 231 255
213 231 255
213 231 255
213 231 255
213 231 255
213 231 255
213 231 255
213 231 255
213 231 255
213 231 255
212 231 255
212 231 255
212 231 255
212 231 255
212 231 255
132 154 197
60 96 151
61 98 164
61 97 162
62 97 154
61 97 157
61 97 158
61 97 154
62 98 164
61 97 155
60 96 155
61 97 156
63 99 162
61 97 159
62 97 155
62 98 156
61 97 159
61 97 159
61 97 156
61 97 157
62 98 158
62 98 165
60 96 151
62 98 159
61 97 154
62 98 163
61 97 150
62 98 158
62 98 162
61 97 157
62 97 155
61 97 153
62 98 160
63 99 164
62 98 159
62 98 156
62 97 153
63 98 157
62 98 158
61 97 153
61 97 155
62 98 160
62 98 157
62 97 153
61 96 152
61 97 160
61 97 153
62 98 159
61 97 155
62 98 161
62 98 161
62 98 162
62 97 155
62 98 154
62 97 151
61 96 150
61 96 154
61 97 155
62 98 168
61 96 157
62 98 159
61 97 152
62 97 157
62 97 157
60 95 145
60 96 152
61 97 155
61 96 156
62 98 160
62 97 163
61 97 162
62 97 159
61 96 159
62 98 163
62 97 159
61 97 154
62 97 160
61 96 159
61 96 157
61 96 162
61 96 163
60 95 154
61 96 159
60 94 155
60 93 153
144 165 208
212 231 255
212 231 255
212 231 255
212 231 255
213 231 255
213 231 255
213 231 255
213 231 255
213 231 255
213 231 255
213 231 255
213 231 255
213 231 255
213 231 255
213 231 255
213 231 255
213 231 255
212 230 254
195 204 203
184 191 179
184 192 181
180 188 180
178 185 170
175 182 166
174 179 162
170 177 165
166 173 158
168 174 154
168 175 158
163 168 145
170 176 156
164 169 147
167 170 140
167 170 144
167 174 159
155 156 118
169 169 131
168 169 137
163 165 134
165 168 137
165 168 138
169 172 146
169 170 134
168 171 139
171 172 137
172 171 129
171 172 139
172 172 138
169 169 126
171 173 141
171 171 133
170 170 125
176 176 134
174 172 122
171 170 124
172 171 129
170 166 112
171 169 125
176 174 129
173 172 129
178 177 133
174 171 121
177 174 126
178 176 131
180 179 138
170 169 122
181 180 140
174 171 118
175 172 122
178 176 132
176 174 126
176 172 118
177 174 123
180 177 131
178 175 123
178 176 130
180 178 133
179 176 123
175 171 112
180 176 122
177 174 121
178 174 122
181 178 129
178 176 126
183 181 140
177 174 121
176 173 116
178 174 120
177 174 120
183 178 125
180 178 130
177 174 118
181 178 126
183 180 133
180 177 126
180 177 126
180 178 129
179 175 121
179 175 119
180 177 127
180 177 127
180 176 124
180 178 130
176 173 116
177 175 124
180 178 132
179 175 117
182 179 132
183 182 141
179 177 125
184 182 138
178 175 122
179 178 131
176 174 118
180 178 130
179 175 120
182 179 131
180 179 136
181 178 130
183 182 139
182 180 134
185 182 136
181 180 134
181 178 128
182 179 130
181 179 134
183 181 136
181 179 134
181 179 130
181 179 131
182 180 136
187 186 150
183 181 136
184 184 145
182 180 134
181 178 129
182 183 147
179 177 129
182 180 133
183 181 135
183 181 138
184 185 151
183 182 142
181 177 123
185 184 146
185 183 140
184 186 152
185 184 145
184 184 146
183 183 142
184 182 140
181 179 133
184 184 147
188 189 159
186 187 153
184 183 144
190 190 160
205 227 255
205 227 255
205 227 255
205 226 255
205 226 255
205 226 255
204 226 255
204 226 255
204 226 255
204 226 255
204 226 255
203 226 255
203 226 255
203 226 255
203 225 255
203 225 255
204 226 255
203 225 253
204 226 255
204 226 255
205 226 255
204 226 254
203 225 254
203 226 254
205 226 253
203 225 253
203 225 253
204 226 254
204 226 255
204 226 254
204 226 255
205 226 255
204 226 255
202 225 254
204 226 255
204 226 255
203 225 254
202 225 252
201 223 245
201 224 249
202 225 253
202 225 253
203 225 254
202 225 253
199 222 242
184 208 189
182 206 163
179 203 130
182 207 155
180 204 130
177 201 105
177 201 95
174 198 88
175 199 92
177 201 95
175 199 99
172 196 72
176 200 95
175 199 72
175 199 80
176 199 80
175 199 72
173 197 62
174 198 67
176 199 62
175 199 92
176 199 92
176 199 67
175 198 62
173 198 67
173 197 72
176 200 72
174 198 67
177 201 84
175 198 80
176 199 67
173 197 62
174 198 76
174 197 57
173 197 62
174 198 57
173 197 57
171 196 57
176 200 84
175 199 62
171 196 44
175 198 57
175 200 88
174 198 62
175 200 88
173 198 92
175 198 76
176 200 84
174 198 84
174 199 88
174 199 72
176 200 80
175 198 88
174 199 84
175 199 88
173 199 108
176 200 84
174 198 92
176 200 95
177 203 142
175 200 111
181 207 171
186 211 194
194 219 241
196 221 253
195 221 250
196 222 255
196 221 250
196 221 253
195 221 255
197 222 254
197 222 255
195 221 255
195 221 255
195 221 253
194 220 252
194 220 254
192 220 255
192 220 255
192 220 255
193 220 255
193 220 255
194 220 255
194 221 255
195 221 255
195 221 255
196 222 255
197 222 255
198 223 255
199 223 255
200 224 255
201 225 255
203 226 255
206 227 255
211 230 255
213 231 255
213 231 255
213 231 255
213 231 255
213 231 255
213 231 255
213 231 255
213 231 255
213 231 255
213 231 255
213 231 255
213 231 255
213 231 255
213 231 255
213 231 255
213 231 255
180 199 229
60 97 160
61 97 162
62 98 167
60 96 162
61 97 158
61 97 159
61 97 158
61 97 157
60 96 152
61 97 155
62 98 160
61 97 158
62 98 166
61 97 155
61 97 160
62 98 161
61 97 153
62 98 157
62 98 159
61 96 154
60 96 150
62 98 155
61 97 158
62 98 160
62 98 162
62 97 154
62 97 155
61 97 156
60 96 142
62 98 157
61 97 155
61 97 153
62 98 159
62 98 156
61 97 154
63 98 161
62 97 155
59 95 149
62 98 161
62 98 158
62 98 160
61 96 149
62 98 155
62 98 160
61 97 153
61 97 145
62 98 155
61 96 149
61 97 150
61 96 152
62 98 163
61 97 155
60 96 159
61 96 150
61 96 149
62 98 162
60 96 151
62 97 156
62 98 158
61 96 150
62 98 157
61 97 155
60 95 146
61 96 154
61 96 154
62 97 158
61 96 150
61 97 158
61 96 155
61 96 153
61 96 148
62 97 156
62 98 167
61 96 153
62 97 160
61 96 155
61 95 149
60 94 148
62 96 152
61 96 158
61 95 156
61 97 167
60 94 155
61 95 159
60 94 155
61 95 163
179 197 227
213 231 255
213 231 255
213 231 255
213 231 255
213 231 255
213 231 255
213 231 255
213 231 255
213 231 255
213 231 255
213 231 255
213 231 255
213 231 255
213 231 255
213 231 255
213 231 255
202 215 225
188 196 193
184 194 190
175 182 169
175 181 164
177 182 163
175 180 163
169 175 155
173 179 161
167 171 148
169 174 154
161 167 147
161 164 137
165 171 149
167 173 157
170 175 155
161 167 144
173 176 148
165 169 144
168 171 139
171 173 143
164 167 136
166 168 132
164 167 133
162 164 129
167 168 132
171 174 143
172 173 139
172 174 144
167 167 124
167 167 124
171 174 144
169 169 127
173 172 131
171 172 136
170 169 125
171 170 125
175 175 137
170 168 119
167 168 128
171 171 130
167 166 117
174 172 124
179 176 134
170 168 118
173 170 118
177 174 128
174 172 126
175 172 118
177 175 131
170 167 114
176 172 118
173 170 115
178 174 123
179 176 126
178 174 120
177 173 115
180 177 127
177 175 127
174 172 121
178 175 123
178 174 122
179 176 123
180 177 129
175 171 108
179 176 123
175 171 110
176 173 115
179 176 124
178 175 123
179 175 121
177 175 121
178 175 125
178 174 118
178 174 117
177 173 113
180 177 125
180 175 119
181 177 127
178 174 120
180 177 124
181 178 131
178 175 120
178 173 111
184 181 137
180 176 122
179 177 126
180 177 128
179 176 124
179 175 121
180 179 131
177 171 109
181 177 122
180 176 122
181 179 130
184 183 143
178 173 115
179 175 120
180 176 123
179 175 121
181 176 120
183 181 136
181 180 134
177 173 116
180 178 129
181 178 131
180 176 124
183 182 139
184 180 134
178 177 128
185 182 138
181 179 130
180 180 141
180 178 129
184 183 143
181 179 132
183 182 140
182 180 134
182 179 130
181 180 135
184 185 150
184 183 142
184 181 134
181 177 123
183 183 142
179 179 137
182 180 135
181 180 135
184 182 139
184 184 146
185 183 142
187 187 155
188 188 155
185 184 145
188 190 162
186 186 149
182 180 132
186 185 148
188 188 156
188 190 161
206 227 255
206 227 255
206 227 255
205 227 255
205 227 255
205 227 255
205 226 255
205 226 255
205 226 255
204 226 255
204 226 255
204 226 255
204 226 255
204 226 255
203 225 254
204 225 253
205 226 255
205 226 253
204 226 254
204 226 253
205 226 255
205 227 255
204 226 255
204 226 253
204 226 254
204 226 255
205 226 255
204 226 255
204 226 254
204 226 255
205 226 255
204 226 254
204 226 255
205 226 255
203 226 254
203 225 250
203 225 254
202 224 249
203 225 253
202 225 249
202 224 248
202 225 250
200 223 242
190 213 201
185 210 181
181 206 149
178 202 128
179 204 125
179 202 130
179 203 117
176 200 114
176 201 111
172 196 80
174 198 76
175 200 105
175 199 76
176 200 80
175 198 80
176 200 84
177 200 80
174 198 62
174 199 80
174 198 57
175 199 92
172 197 57
175 198 72
174 197 67
173 196 57
175 198 67
175 199 62
174 197 80
172 196 57
174 198 76
174 198 62
174 198 44
174 197 62
176 199 57
173 197 51
174 197 62
175 199 105
175 198 36
174 198 72
173 197 57
172 196 51
173 198 72
175 199 62
174 198 51
172 196 51
175 199 57
174 198 72
176 199 72
175 200 80
175 199 67
174 198 72
175 199 62
175 199 95
174 199 76
173 198 67
175 200 84
175 199 84
174 198 80
174 199 80
175 200 105
175 199 72
175 199 72
176 201 114
177 202 111
179 203 128
182 207 161
189 214 212
196 221 249
196 221 248
196 222 253
196 221 249
196 221 250
197 222 255
196 222 255
197 222 254
196 222 254
196 222 253
196 222 254
195 221 255
194 220 253
193 220 254
193 220 255
193 220 255
194 220 255
194 221 255
194 221 255
195 221 255
196 221 255
196 222 255
197 222 255
198 223 255
199 223 255
200 224 255
201 224 255
202 225 255
204 226 255
207 228 255
213 231 255
213 231 255
213 231 255
213 231 255
213 231 255
213 231 255
213 231 255
213 231 255
213 231 255
213 231 255
213 231 255
213 231 255
213 231 255
213 231 255
213 231 255
212 230 254
98 125 178
61 97 169
62 99 168
62 98 161
61 97 158
61 97 153
61 97 155
61 97 157
62 97 157
62 98 160
60 96 154
61 97 147
62 97 156
62 98 157
62 98 155
62 98 165
63 98 163
61 97 155
62 98 159
61 97 154
61 96 154
61 97 155
61 97 160
62 98 165
61 96 149
61 97 151
61 96 149
61 97 154
61 97 151
62 98 156
61 97 159
62 98 156
63 99 165
62 98 160
62 97 151
61 97 155
62 97 157
61 97 156
62 98 155
62 97 156
62 98 159
61 96 151
63 98 159
62 97 156
61 97 148
62 97 157
61 96 148
60 96 149
61 97 154
62 97 153
61 97 155
62 97 159
62 97 155
62 98 153
61 97 150
62 97 153
62 98 155
62 97 160
62 97 156
61 96 150
62 98 155
63 98 161
62 97 159
62 97 158
61 97 156
62 97 159
61 96 146
61 96 154
62 97 155
61 97 157
62 97 159
62 97 159
62 97 159
62 96 154
61 96 156
62 98 161
61 95 152
62 97 160
61 95 158
61 97 157
59 94 142
62 96 154
60 95 153
61 96 160
61 95 157
59 92 155
61 95 150
88 115 166
211 229 253
213 231 255
213 231 255
213 231 255
213 231 255
213 231 255
213 231 255
213 231 255
213 231 255
213 231 255
213 231 255
213 231 255
213 231 255
213 231 255
213 231 255
209 224 241
183 188 172
183 189 177
175 181 165
179 184 170
172 178 162
173 180 169
173 180 169
168 174 159
175 182 169
168 176 165
157 161 136
161 167 144
156 162 144
166 171 148
165 168 141
170 175 152
159 161 127
162 167 146
161 163 132
162 167 145
164 164 126
166 168 137
170 171 136
171 172 140
165 167 137
169 171 138
168 169 135
163 164 126
172 171 130
168 169 131
172 172 134
168 167 126
171 172 137
163 162 114
168 168 127
174 173 129
172 170 123
170 169 123
172 170 123
175 174 130
175 175 138
171 169 119
172 171 127
171 170 125
171 170 124
174 172 125
175 174 130
174 171 117
176 174 129
175 171 113
175 173 121
176 174 124
170 168 114
174 172 121
176 172 116
175 173 121
173 170 112
180 178 131
180 177 124
177 173 119
179 176 127
175 171 114
177 174 123
178 174 119
175 173 121
176 173 120
177 174 119
178 174 117
179 176 126
179 175 121
177 173 114
177 173 116
179 176 125
179 176 126
181 176 121
181 177 124
179 176 123
180 176 121
180 176 121
178 175 122
177 174 118
180 176 124
181 177 124
178 177 130
181 177 123
176 173 116
180 177 127
179 175 120
178 175 122
181 178 129
181 179 132
183 181 136
178 175 121
183 181 135
180 178 127
182 178 129
180 176 121
183 179 132
184 181 136
180 176 123
184 181 137
181 180 137
179 177 127
180 177 127
181 179 132
183 180 132
180 177 125
183 181 139
180 177 126
181 178 130
180 177 124
183 181 137
181 179 134
182 181 139
184 184 144
183 182 140
182 181 137
183 181 135
181 179 133
184 183 144
185 183 142
183 183 144
182 181 137
185 185 147
187 185 147
182 180 133
184 181 135
185 184 147
183 181 135
183 180 133
188 189 157
182 180 134
186 187 155
183 182 138
184 182 136
185 185 148
183 181 137
187 188 156
183 182 138
188 188 156
206 227 255
206 227 255
206 227 255
206 227 255
206 227 255
206 227 255
205 227 255
205 227 255
205 227 255
205 227 255
205 226 255
205 226 255
204 226 255
205 227 255
205 227 254
206 227 255
205 227 255
205 227 254
206 227 255
205 227 255
205 226 254
205 227 255
205 226 252
204 226 250
205 226 254
205 226 255
205 226 255
205 226 254
205 227 255
205 226 253
206 227 255
205 227 255
206 227 255
205 226 255
203 225 249
202 224 245
203 225 250
203 225 249
204 226 255
204 226 253
203 225 249
196 218 223
190 214 196
185 209 165
182 204 135
176 200 120
177 201 111
176 200 108
180 203 114
178 202 105
175 200 105
174 198 62
168 193 76
175 199 92
177 201 99
175 199 88
174 198 95
174 198 72
174 197 51
175 198 57
175 199 62
174 198 67
174 198 76
175 199 51
174 197 57
176 199 76
175 198 62
177 201 92
174 198 67
175 199 67
172 194 25
174 197 72
171 195 44
175 198 67
175 199 57
173 196 57
175 199 84
174 198 57
176 200 76
178 201 76
175 199 62
173 197 44
176 199 57
175 199 72
175 198 62
174 198 57
175 199 57
174 198 62
173 196 51
175 199 92
172 197 72
177 200 80
173 198 62
175 199 80
173 198 67
176 199 51
173 197 51
175 199 84
175 198 72
173 197 62
175 199 80
175 199 72
175 200 99
176 200 72
176 201 114
177 201 105
175 199 80
177 202 111
178 202 111
179 204 140
182 208 169
195 220 240
197 222 252
196 221 250
196 221 249
195 220 244
197 222 255
198 223 254
197 222 254
197 222 254
196 221 250
197 222 254
196 222 255
196 222 255
194 221 255
194 221 255
194 221 255
195 221 255
195 221 255
195 221 255
196 222 255
196 222 255
197 222 255
198 223 255
199 223 255
199 224 255
201 224 255
202 225 255
204 226 255
206 227 255
210 229 255
214 231 255
214 231 255
214 231 255
214 231 255
214 231 255
214 231 255
213 231 255
213 231 255
213 231 255
213 231 255
213 231 255
213 231 255
213 231 255
213 231 255
150 171 207
60 97 161
61 97 156
61 98 161
62 98 161
61 97 158
61 97 156
61 97 158
62 97 155
62 98 160
62 98 155
62 98 154
61 97 155
62 98 158
62 98 159
62 98 153
62 98 162
61 97 156
62 98 158
62 98 162
61 97 159
62 97 150
61 96 157
62 98 155
62 98 159
63 99 162
62 97 153
62 97 152
61 97 152
62 98 154
62 98 160
61 97 151
62 98 155
61 97 154
62 98 160
62 98 159
61 97 156
60 96 143
61 97 152
62 98 159
61 97 159
61 97 153
62 98 156
61 97 154
61 97 158
61 96 152
62 97 154
62 98 158
62 98 161
61 97 156
61 97 155
62 98 161
62 98 156
62 98 156
62 97 157
62 97 156
62 97 151
61 97 157
62 98 162
61 96 143
62 97 154
62 98 159
62 98 160
61 96 151
62 98 160
62 98 157
62 97 155
62 96 148
62 97 155
62 97 153
62 98 162
62 97 158
62 97 154
61 96 155
61 97 159
60 95 155
61 96 154
61 95 152
61 97 159
61 96 155
61 96 152
62 96 153
61 97 158
60 94 148
61 96 160
60 93 148
61 95 156
58 90 147
60 93 155
148 168 204
213 231 255
213 231 255
213 231 255
213 231 255
213 231 255
213 231 255
213 231 255
214 231 255
214 231 255
214 231 255
214 231 255
214 231 255
214 231 255
214 231 255
198 207 205
184 191 182
180 187 177
169 177 169
172 180 169
173 179 164
171 177 161
175 183 178
167 171 148
170 174 150
167 173 158
158 163 141
167 175 163
160 165 146
160 166 151
165 170 152
162 166 142
167 169 140
166 169 142
162 165 137
160 163 135
162 163 128
167 170 143
172 175 147
157 159 125
160 162 127
164 166 134
165 167 132
165 166 126
171 171 131
164 165 126
168 168 126
171 169 125
167 166 122
166 166 124
169 167 121
170 170 130
169 169 129
167 166 123
178 176 134
174 172 125
174 171 124
174 173 127
172 172 126
169 167 118
174 173 128
173 170 120
174 173 124
177 177 134
173 171 125
171 169 115
170 167 108
176 174 127
177 173 121
176 173 119
174 171 117
174 173 126
176 174 125
178 174 118
181 177 128
173 170 115
177 174 117
178 173 113
177 174 120
175 172 118
178 174 121
177 175 123
175 172 115
178 174 118
178 176 125
178 174 115
178 175 123
178 174 115
178 174 117
182 179 131
179 175 123
178 176 126
176 172 114
175 171 110
176 173 118
183 178 126
176 171 106
176 173 117
181 178 129
178 174 117
182 180 134
181 177 125
180 177 127
178 175 124
183 180 132
178 175 121
180 177 124
183 180 132
182 180 136
179 176 122
180 177 126
177 175 121
178 175 124
180 177 126
181 177 122
180 176 124
181 180 135
183 179 129
180 179 132
181 178 129
184 182 140
184 183 144
181 179 130
182 179 132
180 177 129
179 176 123
183 181 137
181 179 134
180 178 130
184 183 143
185 183 141
180 179 134
183 180 131
181 178 130
186 183 138
183 182 138
188 187 149
178 176 122
186 186 151
187 186 151
189 189 157
186 185 148
182 181 138
185 185 147
180 178 131
187 187 153
181 179 133
184 182 139
184 183 144
182 180 134
183 183 143
182 180 135
186 185 149
185 182 138
183 182 139
185 184 142
207 228 255
207 227 255
207 227 255
206 227 255
206 227 255
206 227 255
206 227 255
206 227 255
206 227 255
205 227 255
205 227 255
205 227 255
205 227 255
206 227 255
206 227 255
207 227 255
206 227 254
206 227 255
206 227 254
206 227 254
206 227 255
206 227 254
207 227 255
206 227 252
206 227 253
206 227 255
206 227 253
206 227 255
206 227 255
206 227 255
206 227 255
207 227 255
205 226 252
204 226 250
203 224 245
203 225 249
205 227 255
204 226 252
205 227 255
202 224 242
190 213 191
185 208 177
181 204 135
182 204 128
179 203 120
175 199 114
177 201 102
178 202 117
176 200 95
176 199 72
174 198 92
176 200 95
173 197 62
176 200 80
175 199 67
173 196 62
175 199 88
175 198 76
175 199 84
177 200 95
175 199 76
176 199 72
173 197 67
176 200 92
175 198 51
175 199 92
174 197 57
177 200 84
188 208 133
195 213 157
201 219 189
199 217 189
206 222 206
210 226 223
218 232 241
218 232 242
219 233 241
213 228 238
217 230 244
220 234 250
220 234 244
222 236 254
217 232 244
215 229 240
213 228 230
209 226 224
202 219 194
197 216 179
192 211 165
194 213 159
179 202 105
177 199 84
174 199 76
176 199 80
176 200 67
175 199 84
176 200 76
175 199 76
175 199 57
174 198 62
175 199 62
175 199 62
171 195 72
175 199 80
175 199 76
177 200 76
176 200 84
177 201 88
175 200 88
176 200 99
179 203 125
180 205 147
190 215 217
198 222 250
198 222 250
197 222 250
197 222 253
200 224 255
199 223 255
198 223 255
199 223 255
197 222 253
198 223 255
196 221 252
197 222 254
194 220 254
195 221 255
195 221 255
196 221 255
196 222 255
196 222 255
197 222 255
197 223 255
198 223 255
199 223 255
200 224 255
201 224 255
202 225 255
203 226 255
205 226 255
207 228 255
212 230 255
214 231 255
214 231 255
214 231 255
214 231 255
214 231 255
214 231 255
214 231 255
214 231 255
214 231 255
214 231 255
214 231 255
214 231 255
198 216 242
70 103 159
61 97 160
61 98 165
62 97 155
61 97 156
61 97 157
62 98 160
61 97 157
61 97 157
61 97 152
61 97 147
61 96 151
62 98 161
62 98 156
60 96 147
62 99 168
61 97 155
62 98 158
61 97 153
62 98 160
62 98 162
62 98 162
61 96 152
62 97 157
62 97 154
60 96 148
62 98 156
60 95 147
62 98 156
61 97 151
61 97 148
61 97 156
62 98 157
62 97 153
62 97 159
62 97 154
61 97 159
62 98 158
62 98 158
62 97 150
62 97 150
61 97 155
61 97 153
63 98 162
62 97 160
62 97 155
62 97 156
61 96 149
62 97 151
62 97 151
62 98 156
61 97 150
62 98 155
60 96 145
61 97 156
61 96 152
62 97 153
62 97 151
62 97 158
61 95 147
61 96 145
61 96 151
60 96 147
61 96 149
61 97 155
61 95 146
62 98 161
61 97 157
62 98 160
61 96 150
61 96 149
61 95 151
62 97 156
61 96 152
61 95 145
61 97 153
61 96 151
61 96 158
61 96 153
61 96 159
60 94 148
61 95 153
60 94 150
60 94 147
60 94 151
61 95 152
61 95 155
61 95 157
61 94 154
59 91 148
196 214 242
214 231 255
214 231 255
214 231 255
214 231 255
214 231 255
214 231 255
214 231 255
214 231 255
214 231 255
214 231 255
214 231 255
214 231 255
202 215 225
177 184 174
175 181 168
170 178 170
169 177 170
173 182 176
167 173 160
163 168 148
167 174 158
167 174 164
161 170 164
158 164 143
166 171 152
164 170 157
158 163 140
162 167 147
162 168 151
162 164 133
158 162 133
156 159 131
159 162 126
151 153 116
162 164 133
162 164 134
165 167 134
165 163 117
165 167 136
156 158 124
166 167 127
158 158 121
166 167 125
170 171 136
167 167 124
167 167 127
167 168 129
168 167 122
169 167 120
169 169 126
174 173 129
172 171 123
171 169 123
171 167 108
171 170 124
174 173 128
172 170 120
167 165 112
170 166 112
176 172 115
171 167 109
176 174 122
175 173 120
170 168 113
174 172 120
177 175 126
175 171 114
171 168 112
171 167 108
174 170 114
176 172 113
176 172 112
177 172 112
175 171 108
177 173 117
177 172 113
177 173 117
180 176 126
176 172 109
175 171 114
178 176 126
176 171 109
178 174 120
179 173 110
175 171 111
176 172 110
180 178 128
177 173 113
178 176 124
179 175 117
179 176 122
175 170 108
181 180 135
177 172 112
182 178 128
178 175 120
179 174 117
181 176 120
177 174 118
179 175 121
178 174 115
178 175 121
180 176 120
181 178 127
181 177 123
182 178 124
182 178 131
181 178 129
179 174 115
181 177 124
181 178 130
181 178 127
186 184 145
179 174 116
180 178 126
178 173 113
180 178 130
181 180 134
180 175 121
182 179 129
179 175 118
182 180 135
181 176 121
182 180 136
184 180 131
178 176 125
185 183 142
179 176 124
183 179 129
182 181 139
186 184 143
179 178 131
180 179 132
184 181 134
182 180 134
182 180 135
180 178 129
185 185 146
180 177 123
179 179 134
184 182 137
183 181 135
184 181 134
184 183 143
183 181 135
183 183 144
186 185 148
186 186 148
183 181 136
186 187 154
184 184 144
187 187 153
188 188 156
187 185 147
207 228 255
207 228 255
207 228 255
207 228 255
207 227 255
207 227 255
206 227 255
206 227 255
206 227 255
206 227 255
206 227 255
206 227 254
206 227 253
207 227 254
207 227 254
207 228 255
206 227 253
207 228 255
207 227 254
207 228 255
206 227 253
206 226 253
206 227 254
207 228 255
207 228 255
206 227 255
207 228 255
206 227 255
207 228 255
207 227 254
207 227 254
206 227 254
205 226 252
205 226 252
203 225 244
206 227 255
205 226 249
205 226 250
202 223 241
188 211 182
185 208 175
182 205 128
181 204 144
176 200 99
177 200 80
177 201 114
175 199 108
175 199 92
177 201 111
175 198 88
177 201 111
175 199 84
175 199 92
175 198 62
176 200 67
175 198 62
174 198 62
174 198 72
175 198 76
178 201 76
174 197 51
177 200 84
182 204 122
194 213 163
199 217 181
209 225 218
214 229 238
219 233 246
218 231 246
221 235 252
221 235 249
220 234 248
219 233 248
219 233 248
222 235 252
221 235 250
221 235 250
217 232 246
217 231 245
220 234 250
221 235 250
221 234 249
219 233 249
219 233 249
221 235 250
221 235 250
218 233 249
216 231 242
219 233 248
220 234 250
221 235 250
220 235 250
213 228 226
201 219 188
196 215 177
189 210 144
177 200 80
174 198 57
175 198 57
176 200 72
174 198 67
177 200 72
175 200 92
175 200 80
176 199 62
177 200 80
176 200 84
176 200 80
174 198 76
176 200 88
177 201 111
178 202 111
180 205 147
184 209 179
195 220 241
199 223 252
199 223 255
198 223 253
199 223 252
199 223 255
199 223 255
198 222 252
198 223 253
199 223 253
199 223 254
198 222 252
196 222 253
196 222 255
196 222 255
197 222 255
197 222 255
197 223 255
198 223 255
199 223 255
199 223 255
200 224 255
201 224 255
202 225 255
203 225 255
204 226 255
206 227 255
209 229 255
214 231 255
214 232 255
214 232 255
214 232 255
214 232 255
214 232 255
214 232 255
214 232 255
214 231 255
214 231 255
214 231 255
214 231 255
146 167 203
61 96 145
61 97 156
61 96 156
62 97 155
61 97 156
59 94 144
61 96 152
61 97 161
61 97 150
61 97 155
61 97 156
61 97 154
61 97 155
61 97 152
61 96 156
61 97 155
62 98 155
61 97 147
62 98 158
61 97 155
62 98 157
62 98 161
62 98 153
61 96 149
61 97 151
61 97 151
63 99 160
62 98 157
63 98 161
62 97 156
62 97 159
62 97 154
61 97 151
61 97 153
62 98 156
62 98 159
62 97 158
62 97 153
62 98 157
61 97 149
61 97 153
62 98 154
61 96 135
62 97 153
61 97 150
61 96 148
62 98 153
61 97 150
60 95 146
62 98 153
61 97 158
61 97 147
62 98 157
62 97 153
61 97 152
60 95 146
61 96 153
62 97 152
61 97 153
60 95 147
60 96 143
62 98 159
61 97 154
61 96 153
63 98 163
62 97 155
61 96 149
61 96 153
62 97 154
62 97 158
61 97 164
60 95 140
61 96 151
61 96 151
61 96 149
61 96 156
60 95 152
60 95 148
62 97 154
60 95 150
60 94 145
61 95 146
61 96 155
61 95 151
61 95 154
62 96 158
61 95 151
60 94 155
60 93 154
60 93 151
134 155 192
214 231 255
214 231 255
214 231 255
214 231 255
214 232 255
214 232 255
214 232 255
214 232 255
214 232 255
214 232 255
214 232 255
208 224 242
186 193 181
169 174 154
174 182 177
163 169 155
167 175 168
164 171 156
157 164 149
163 168 152
163 167 146
163 171 158
161 166 146
163 169 154
158 164 149
155 160 134
157 162 140
163 166 142
159 163 135
165 170 146
154 158 131
160 161 125
153 155 122
161 163 132
165 168 141
159 162 135
167 169 136
168 170 136
161 161 117
163 164 126
161 160 116
163 164 130
164 164 123
163 163 119
166 169 133
165 163 116
167 165 123
166 166 124
170 169 130
172 169 120
172 169 119
172 169 121
173 171 122
172 167 108
169 166 117
166 164 114
173 171 125
168 165 109
174 171 119
172 169 117
173 170 117
168 165 112
177 174 119
175 170 114
176 172 116
172 169 111
175 172 115
174 171 117
176 171 109
177 172 114
170 167 108
173 169 111
174 170 111
177 173 119
173 172 118
178 173 117
179 175 122
174 169 111
179 175 118
177 174 117
175 171 115
178 173 116
175 172 116
178 174 122
179 175 118
177 173 116
179 175 121
177 173 115
178 174 120
180 175 118
183 180 133
179 176 125
179 175 118
185 182 137
177 174 119
180 175 116
180 174 114
178 173 109
180 175 117
179 174 115
174 170 106
177 172 109
182 178 124
177 173 111
175 172 112
180 176 122
178 173 112
178 174 119
179 175 117
184 181 136
182 179 131
179 177 126
184 180 132
181 178 130
182 179 129
179 176 122
180 175 118
183 180 133
180 177 124
183 180 135
183 179 127
182 178 129
180 179 134
179 177 129
182 179 134
176 173 118
179 176 122
182 179 132
184 181 133
184 179 127
179 177 128
182 179 129
186 186 150
181 181 137
182 179 129
182 181 140
182 180 134
180 175 117
181 180 135
183 182 142
183 183 143
184 182 142
183 182 140
189 189 156
176 174 120
186 185 148
183 179 131
185 184 144
183 181 137
181 180 135
187 187 151
189 191 164
186 186 151
185 183 140
208 228 255
208 228 255
208 228 255
207 228 255
207 228 255
207 228 255
207 228 255
207 228 255
207 227 255
207 227 255
206 227 255
208 228 255
206 227 253
207 228 255
207 228 254
208 228 255
207 228 254
207 228 255
207 228 255
207 228 255
206 227 254
207 227 254
206 227 252
207 228 254
206 227 252
208 228 255
208 228 255
207 228 255
208 228 255
207 228 255
207 228 255
206 227 253
205 226 249
206 227 254
205 226 248
205 226 249
206 226 252
193 215 211
186 208 179
182 206 149
184 206 144
181 204 133
178 202 125
178 202 117
178 201 114
175 199 95
177 200 99
177 200 76
177 199 57
172 196 67
177 201 88
175 198 36
176 199 62
172 196 62
176 199 57
177 199 62
175 199 67
174 198 62
182 203 120
199 216 181
210 226 223
218 232 244
219 233 248
219 233 246
219 233 250
218 232 246
218 232 244
221 234 252
217 231 245
219 233 249
220 233 246
218 231 244
220 234 250
219 233 249
222 235 250
220 234 252
220 233 249
221 234 248
219 234 249
221 235 250
220 234 249
219 233 248
221 235 253
222 236 252
221 235 250
222 236 253
221 235 249
221 235 252
221 234 252
219 234 250
221 235 250
220 234 249
219 232 245
221 234 246
219 233 248
222 235 252
221 234 248
210 226 215
195 214 169
184 206 117
175 199 57
177 200 76
176 200 62
176 200 80
174 199 62
178 201 72
176 200 84
173 197 57
177 201 102
178 201 95
175 199 76
175 200 108
178 202 105
181 205 137
184 208 165
196 219 231
199 222 248
199 223 249
198 222 249
199 223 254
200 224 255
200 224 255
199 223 255
199 223 254
198 223 253
199 223 255
198 223 253
197 222 255
197 222 255
197 222 255
198 223 255
198 223 255
199 223 255
199 223 255
200 224 255
200 224 255
201 224 255
202 225 255
203 225 255
204 226 255
206 227 255
208 228 255
211 230 255
214 232 255
214 232 255
214 232 255
214 232 255
214 232 255
214 232 255
214 232 255
214 232 255
214 232 255
214 232 255
202 220 244
65 100 161
61 97 160
61 96 156
60 96 151
60 96 150
61 97 157
61 96 155
61 96 149
60 96 153
61 96 156
61 97 153
61 97 150
61 97 153
60 95 145
61 97 149
60 96 149
61 97 153
61 97 154
61 96 153
60 96 148
61 96 150
61 97 149
62 97 159
61 96 150
61 96 159
62 98 161
62 98 150
62 98 162
61 96 154
61 96 149
62 98 157
60 95 149
62 98 159
61 97 148
63 99 161
61 97 151
61 96 152
61 97 150
61 97 153
61 96 150
61 97 151
62 98 159
61 97 148
61 97 157
63 99 162
62 98 159
61 96 150
61 97 153
61 97 149
61 97 149
61 97 151
62 98 159
61 96 149
62 97 149
61 96 149
63 99 162
62 98 156
62 97 155
63 98 161
61 96 145
62 97 159
61 97 151
61 96 147
61 97 160
61 97 148
62 97 158
61 97 154
61 96 155
62 97 142
62 97 159
62 97 156
62 97 154
61 96 155
62 98 154
61 96 145
60 95 151
61 95 151
62 97 162
61 96 156
60 95 147
60 95 144
61 94 152
61 95 146
60 94 147
60 94 146
60 94 143
60 92 146
61 95 152
60 93 150
58 90 144
59 92 144
70 100 156
204 222 247
214 232 255
214 232 255
214 232 255
214 232 255
214 232 255
214 232 255
214 232 255
214 232 255
214 232 255
214 232 255
199 207 204
190 200 202
175 182 173
166 174 167
166 173 161
166 174 165
166 173 161
164 171 160
160 167 155
164 170 152
161 168 155
160 166 151
151 157 138
153 159 141
154 161 145
153 156 129
142 147 123
162 165 135
152 155 127
160 163 133
162 166 140
154 157 123
160 163 133
154 157 125
160 163 132
162 164 129
165 168 137
158 160 125
163 164 125
160 162 129
160 161 122
167 168 130
160 161 120
160 158 105
165 165 127
170 168 121
163 162 115
165 166 127
169 167 116
169 167 117
169 167 120
170 169 124
172 170 120
171 167 112
172 168 113
174 172 120
174 170 116
172 170 118
176 173 126
176 174 127
169 167 117
171 168 110
174 170 114
175 172 117
175 171 116
175 172 116
174 171 119
183 179 131
175 172 117
177 174 116
174 170 113
175 170 108
173 169 113
178 173 112
177 174 119
174 170 111
175 171 113
179 175 120
176 173 118
176 172 117
180 173 108
178 172 110
179 174 114
177 172 108
179 174 117
181 176 117
180 176 120
177 174 120
178 174 118
176 172 110
178 172 110
179 177 126
179 175 118
177 172 109
181 178 126
182 179 132
179 175 116
179 175 118
180 177 124
184 180 132
180 176 120
180 176 121
178 174 113
181 176 120
178 176 125
180 176 120
177 175 122
181 176 121
178 173 115
182 179 132
178 174 116
182 177 123
178 174 116
181 178 127
179 176 124
179 175 121
184 183 141
180 174 113
180 176 122
180 177 124
178 174 116
182 178 126
185 183 144
182 178 127
181 177 125
181 180 135
182 179 133
181 179 132
181 180 135
179 177 127
179 176 121
177 174 116
184 183 141
180 177 122
181 179 132
181 178 127
182 178 128
180 179 130
182 181 138
188 187 151
182 181 137
184 182 138
185 184 147
188 188 153
183 182 141
185 183 139
185 185 147
181 179 130
184 182 138
190 189 156
184 182 138
188 188 152
187 186 147
208 228 255
208 228 255
208 228 255
208 228 255
208 228 255
208 228 255
208 228 255
207 228 255
207 228 255
207 228 255
207 227 254
209 228 255
209 228 254
209 228 255
208 228 254
208 228 255
208 228 254
208 228 252
207 228 253
206 227 250
208 228 255
207 227 252
207 228 254
208 228 255
208 228 255
208 228 255
209 228 255
208 228 255
208 228 255
208 228 255
206 226 249
207 227 253
206 227 250
207 227 252
206 227 250
206 226 249
194 216 206
189 212 186
182 205 149
180 203 142
179 203 128
178 201 117
176 200 84
175 199 72
180 203 111
177 201 95
176 199 111
176 199 67
176 199 84
176 199 67
178 201 95
175 197 72
175 198 80
173 197 72
178 200 88
197 215 171
205 221 212
216 231 241
222 236 254
222 235 252
224 237 254
215 229 242
220 234 253
218 232 245
220 234 250
221 235 252
221 234 250
220 234 249
219 233 248
221 234 252
221 234 248
221 235 253
221 235 252
218 232 248
221 235 253
217 231 244
222 236 253
221 235 253
219 233 246
218 233 248
219 233 250
220 234 249
221 235 253
220 234 244
218 233 246
221 235 252
221 234 250
218 232 246
220 234 249
218 233 249
220 234 250
221 235 249
220 234 248
219 233 246
219 234 248
219 234 252
220 234 250
219 233 240
221 235 249
222 236 253
214 229 230
200 219 191
183 205 111
176 199 51
176 198 51
175 199 62
174 199 76
173 197 57
176 200 88
177 200 72
176 201 105
176 200 92
175 199 80
177 201 92
177 203 125
181 205 140
193 217 220
200 224 252
199 223 249
199 223 248
202 225 253
201 225 254
201 224 255
200 224 254
201 224 253
200 224 255
200 224 253
198 222 252
198 223 255
198 223 255
198 223 255
199 223 255
199 223 255
200 224 255
200 224 255
201 224 255
201 225 255
202 225 255
203 225 255
204 226 255
205 227 255
207 228 255
209 229 255
214 231 255
215 232 255
215 232 255
215 232 255
215 232 255
215 232 255
215 232 255
215 232 255
215 232 255
215 232 255
142 164 207
60 96 153
60 96 151
60 95 148
61 96 148
60 96 156
61 96 155
61 97 155
61 97 155
61 96 148
61 96 152
61 96 153
61 97 157
62 97 155
62 98 158
62 97 157
62 97 154
62 97 151
62 97 156
61 97 153
61 96 147
61 97 147
61 97 152
60 96 149
62 97 155
62 97 162
62 97 145
62 97 154
59 95 139
60 95 134
61 96 145
60 95 143
61 97 152
61 97 157
61 97 148
62 97 152
62 97 154
62 97 152
62 98 159
62 97 153
61 96 144
61 97 153
62 98 154
62 97 150
61 97 148
61 97 153
61 96 144
61 97 156
62 98 152
61 96 142
62 97 150
61 96 149
62 97 157
61 96 147
61 96 148
61 97 149
62 97 151
60 95 145
60 95 150
62 97 150
61 97 150
61 97 151
61 96 147
62 97 153
60 96 153
61 96 147
62 97 157
62 97 151
61 96 150
61 96 150
62 97 154
61 96 154
62 97 155
61 96 152
61 96 147
61 96 142
62 97 158
61 96 152
61 95 156
60 95 155
61 96 155
61 96 150
60 94 150
61 96 153
60 94 144
59 91 135
61 94 148
61 95 152
59 93 144
60 93 140
60 93 148
60 93 152
58 91 145
143 162 196
215 232 255
215 232 255
215 232 255
215 232 255
215 232 255
215 232 255
215 232 255
215 232 255
215 232 255
211 226 244
191 200 196
179 187 182
166 174 166
161 168 156
163 171 163
152 160 151
146 151 134
149 156 142
152 157 139
166 173 158
155 160 136
149 154 132
152 159 142
157 163 145
153 157 131
153 158 137
155 160 136
148 153 129
148 151 123
157 161 136
154 156 122
155 160 136
166 167 133
160 160 120
156 158 124
158 159 123
162 163 128
161 163 127
162 164 130
162 163 125
161 160 117
162 161 115
167 167 125
166 164 111
162 160 113
168 168 126
166 165 122
164 161 111
163 161 110
169 167 118
168 167 118
165 164 113
172 170 122
169 168 122
172 169 119
173 169 111
170 168 118
171 167 110
172 170 116
172 169 117
173 170 119
171 169 121
175 171 118
179 175 119
172 169 115
174 170 111
174 170 107
173 167 105
171 168 108
170 166 108
171 167 104
178 174 121
177 174 121
176 171 109
175 170 111
173 168 102
178 173 116
175 171 112
178 173 113
176 172 114
176 171 109
179 175 121
176 172 113
179 173 113
178 174 123
179 176 121
177 173 114
178 173 111
180 175 117
178 173 110
177 174 120
180 174 115
178 173 115
179 176 121
180 177 124
178 173 114
181 177 123
179 177 126
179 175 118
178 174 117
182 179 129
179 176 122
179 174 115
178 174 116
176 171 108
184 181 133
178 174 117
181 176 119
177 172 111
180 176 120
178 174 116
180 176 121
182 178 127
185 184 146
181 179 132
182 180 132
180 178 129
178 174 115
180 178 127
179 175 120
181 178 126
178 174 118
180 177 125
179 177 126
182 179 129
183 181 138
183 181 135
182 183 143
183 179 127
181 178 128
181 179 130
181 179 132
181 178 130
183 180 131
184 183 142
182 179 130
187 186 150
181 179 132
181 178 130
181 178 128
185 183 140
183 181 135
183 180 132
184 182 137
182 180 133
183 182 138
184 182 139
181 178 125
179 176 122
185 183 142
188 186 147
187 186 148
183 179 130
209 229 255
209 229 255
209 229 255
209 228 255
208 228 255
208 228 255
208 228 255
208 228 255
208 228 255
209 229 255
208 228 254
209 229 255
209 229 255
208 228 253
209 229 254
209 228 255
209 229 255
209 229 255
208 228 253
208 228 254
209 229 255
209 228 254
209 228 254
209 229 255
209 228 254
209 229 255
209 228 254
209 229 255
209 229 255
208 228 254
206 226 246
206 226 246
207 227 252
206 227 249
206 226 246
192 214 200
187 209 180
185 208 149
179 202 128
176 199 114
177 201 88
175 198 88
173 196 67
178 201 95
176 199 67
176 199 80
177 200 84
174 197 80
178 202 102
175 198 76
173 197 80
179 201 88
199 216 179
213 228 227
216 230 245
220 234 250
220 233 249
215 229 241
217 231 245
219 232 246
221 235 252
219 233 248
218 232 246
219 233 249
221 235 252
218 233 246
219 234 250
219 233 250
220 234 248
220 234 249
219 233 252
219 233 249
216 231 242
220 234 252
219 232 246
218 232 249
217 231 246
220 234 248
219 233 248
216 230 244
219 233 252
220 234 250
219 234 250
218 232 245
218 232 245
216 231 245
219 233 248
221 235 253
218 232 248
219 233 249
218 233 249
221 235 250
216 231 244
218 232 241
220 234 246
220 234 249
219 234 248
219 234 250
220 235 249
219 233 244
220 233 248
220 234 248
222 235 249
219 233 241
196 215 175
179 202 92
176 199 57
176 200 76
175 199 62
176 199 67
176 200 84
175 199 80
176 200 80
177 201 92
178 201 102
180 204 135
184 208 167
190 214 196
201 224 252
200 223 248
200 223 248
202 225 255
202 225 255
202 225 255
201 224 255
200 224 253
201 224 254
200 224 254
191 215 249
160 185 228
151 176 222
141 167 216
166 191 233
176 200 237
198 221 254
201 225 255
202 225 255
202 225 255
203 226 255
204 226 255
205 227 255
207 227 255
208 228 255
212 230 255
215 232 255
215 232 255
215 232 255
215 232 255
215 232 255
215 232 255
215 232 255
215 232 255
204 221 247
70 103 165
60 96 151
61 96 152
61 97 158
60 95 145
62 97 156
62 98 150
60 95 150
61 97 151
60 96 152
61 96 156
60 96 152
62 97 145
60 95 141
62 98 156
62 98 159
61 96 151
61 97 158
61 97 152
60 96 151
61 96 149
62 97 153
62 97 151
61 96 152
61 97 152
61 97 152
61 96 143
61 97 154
60 95 141
61 97 154
61 97 144
61 96 150
61 97 151
61 96 142
62 98 158
62 97 150
62 98 158
61 97 153
61 96 145
60 96 142
61 97 152
62 98 157
61 97 152
62 97 150
62 98 159
61 97 157
61 96 150
62 98 156
61 96 144
61 96 148
61 97 150
62 98 153
61 96 148
61 97 150
61 96 143
61 97 153
61 97 151
62 98 159
61 97 156
61 96 144
62 97 150
61 96 152
61 96 143
60 95 146
61 96 153
61 97 151
61 96 147
61 96 150
62 97 153
61 96 155
61 96 153
61 97 154
61 96 145
61 96 152
61 96 152
61 96 151
61 96 151
61 95 148
62 97 152
61 95 150
61 96 149
60 94 148
62 97 156
62 96 149
60 94 147
60 93 144
63 97 155
60 93 150
60 94 146
60 94 148
59 92 147
60 93 150
59 91 148
57 87 132
205 222 247
215 232 255
215 232 255
215 232 255
215 232 255
215 232 255
215 232 255
215 232 255
215 232 255
191 202 207
177 180 162
167 175 167
176 183 174
164 172 161
156 163 149
162 168 154
157 164 154
156 164 156
157 165 154
144 150 135
162 169 155
147 153 135
153 160 145
148 155 141
152 157 135
154 158 132
161 165 141
153 156 125
155 158 127
150 154 128
144 146 104
157 160 128
162 163 124
156 158 122
152 154 123
160 160 120
157 157 115
165 168 138
164 165 125
166 165 119
169 169 130
163 164 125
166 163 116
157 157 115
163 162 116
166 163 116
167 165 116
161 160 112
170 168 117
168 164 109
169 165 110
173 169 119
162 162 121
172 170 119
169 166 110
168 166 113
173 169 111
172 169 112
168 166 118
172 168 106
169 165 104
172 169 115
176 173 123
172 169 115
175 170 108
171 169 115
174 169 110
172 168 107
172 169 111
173 169 109
176 174 123
171 168 110
179 174 121
173 169 105
179 175 120
173 169 108
181 176 122
176 172 115
178 172 111
178 172 110
179 173 110
177 172 111
177 173 115
177 174 117
178 174 118
180 175 118
179 173 110
174 170 109
178 173 110
176 173 114
179 174 117
181 178 127
178 175 120
178 173 115
178 173 114
179 175 118
177 172 112
181 177 126
180 175 121
181 176 120
180 177 125
178 174 119
180 176 120
179 176 121
180 176 120
181 176 120
179 175 120
181 177 124
182 180 133
179 175 120
180 175 116
179 175 121
180 177 126
181 178 125
181 175 116
182 179 132
179 176 122
179 176 123
179 176 124
176 172 113
180 178 130
182 177 126
183 181 135
183 179 132
183 182 139
180 177 123
181 178 127
182 179 129
181 179 133
182 179 132
184 182 138
186 183 139
184 183 142
184 183 139
180 177 123
182 181 136
182 180 131
187 186 147
180 177 126
180 177 126
180 176 123
182 181 136
184 184 147
183 182 140
187 186 148
184 182 137
181 179 128
181 179 130
182 178 126
183 182 139
183 181 136
185 183 143
183 183 142
209 229 255
209 229 255
209 229 255
209 229 255
209 229 255
209 229 255
209 229 255
209 229 255
209 229 255
210 229 255
210 229 255
209 229 254
210 229 254
209 229 254
209 228 253
210 229 255
209 229 253
209 229 254
209 228 253
209 228 253
209 228 252
210 229 255
209 229 255
208 228 253
210 229 255
209 229 254
209 229 255
210 229 255
209 229 254
208 228 253
208 228 250
207 228 252
207 227 249
206 226 246
193 214 200
181 203 156
183 205 156
178 201 120
178 201 102
176 199 108
178 201 108
176 200 102
176 200 80
176 200 92
175 198 72
173 197 92
176 199 88
172 195 51
178 200 88
191 211 165
211 227 218
220 233 250
220 233 248
220 233 250
220 233 249
221 235 250
222 235 250
218 233 248
218 231 248
221 235 249
220 234 248
217 231 241
217 231 246
220 234 249
216 230 246
221 236 254
220 234 250
218 232 248
219 234 252
218 232 248
217 231 244
221 235 252
221 235 252
219 233 248
219 234 248
219 233 252
219 233 249
221 235 253
216 231 244
219 233 248
219 234 249
220 235 250
217 232 245
219 234 250
219 234 252
217 231 245
220 234 250
219 233 248
220 234 249
218 232 246
218 232 245
219 234 252
220 234 248
219 233 248
220 234 249
221 235 252
219 234 249
220 234 249
219 234 249
220 234 248
220 234 245
222 235 250
219 234 248
222 236 253
219 233 245
222 235 248
202 220 196
183 205 117
176 199 57
175 199 67
174 198 62
174 198 51
176 199 62
174 197 51
174 198 57
177 201 102
180 204 120
186 209 169
194 217 217
202 225 252
201 224 250
201 224 249
203 225 254
202 225 253
202 225 254
202 225 254
200 223 251
199 222 253
199 222 254
116 143 197
61 98 171
61 98 173
62 98 173
61 98 171
72 106 176
119 145 199
168 192 229
203 225 255
204 226 255
204 226 255
205 227 255
206 227 255
208 228 255
210 229 255
214 232 255
215 232 255
215 232 255
215 232 255
215 232 255
215 232 255
215 232 255
215 232 255
157 176 211
59 95 144
60 96 144
60 96 145
61 96 144
60 96 154
59 94 139
60 96 148
62 98 160
62 98 159
61 97 155
61 97 154
60 96 147
61 97 152
60 96 144
60 95 146
61 97 149
61 96 149
61 97 148
61 96 148
61 97 152
62 97 154
61 97 153
62 98 155
61 97 156
62 98 156
61 97 145
62 98 161
61 97 150
61 97 151
62 98 153
62 97 150
61 97 151
61 97 155
60 96 141
62 97 154
61 97 150
62 97 152
62 98 156
62 97 149
61 96 142
61 97 150
62 98 152
61 96 147
61 97 145
60 95 139
62 98 154
63 98 157
62 98 154
61 97 154
62 97 151
61 96 148
61 96 151
61 95 137
60 95 140
62 98 158
61 97 159
62 97 156
61 97 151
61 96 148
61 96 150
61 96 150
62 97 154
60 96 150
61 96 147
61 96 145
61 96 150
61 96 142
61 96 152
61 96 152
61 97 157
61 96 145
62 97 154
61 96 149
62 96 154
61 96 150
60 94 141
60 95 148
61 95 148
61 96 152
61 95 146
60 95 149
60 94 143
61 94 148
60 94 141
60 94 150
59 93 145
60 94 149
61 95 151
60 93 151
59 92 143
58 90 137
59 92 147
60 93 151
58 90 141
163 181 210
215 232 255
215 232 255
215 232 255
215 232 255
215 232 255
215 232 255
215 232 255
207 221 236
180 185 171
180 188 182
164 169 154
167 174 164
156 163 156
156 166 166
164 170 155
160 166 150
150 158 147
147 155 144
157 164 152
151 159 146
145 149 121
148 152 131
152 157 132
143 146 118
149 153 128
150 155 132
148 152 128
158 162 138
155 159 133
150 152 123
157 160 131
160 163 133
157 159 127
153 155 121
154 154 114
148 149 108
156 156 115
164 165 126
160 161 125
156 156 113
157 157 117
164 163 114
164 162 110
157 157 112
164 163 118
166 166 123
171 169 117
165 163 108
161 158 102
165 164 119
165 162 109
171 166 112
170 168 115
168 165 109
168 165 109
173 167 103
179 175 118
169 167 115
172 170 124
173 169 115
168 166 118
169 165 101
174 170 112
175 171 109
172 169 111
172 169 120
175 171 113
174 169 109
173 170 114
173 168 104
173 170 115
175 171 113
177 172 115
177 171 109
176 171 109
174 169 107
180 175 116
176 170 103
174 169 103
175 170 106
179 174 114
175 171 111
176 171 108
180 175 116
178 173 109
176 172 112
177 171 108
176 171 111
175 170 103
182 177 121
179 174 115
175 170 106
180 175 116
180 176 122
177 173 110
180 175 116
180 174 113
180 174 115
181 177 125
179 174 118
176 170 104
179 176 121
177 173 112
177 172 115
179 173 109
175 171 107
177 174 116
178 174 117
178 175 117
181 175 115
180 176 120
179 175 120
181 176 120
179 174 115
177 171 107
179 175 116
180 176 121
182 181 138
182 178 127
182 178 127
181 178 129
179 176 122
181 179 132
178 174 116
180 178 127
180 177 124
182 179 131
181 179 133
184 182 139
184 181 134
181 177 123
183 181 135
181 179 133
180 178 127
177 174 121
182 180 134
177 175 123
182 180 133
183 179 129
179 178 129
179 177 124
179 175 120
185 183 140
185 184 143
180 179 131
184 184 146
183 182 139
187 186 150
183 182 139
180 178 128
187 188 153
183 181 136
210 229 255
210 229 255
210 229 255
210 229 255
210 229 255
209 229 255
209 229 255
209 229 255
210 230 255
210 229 255
210 229 255
210 229 255
211 230 255
210 229 254
210 229 255
210 229 255
209 229 254
210 229 254
210 229 255
210 229 254
210 229 255
210 229 255
210 229 255
210 229 254
210 229 255
210 229 254
210 229 255
210 229 255
208 228 250
208 228 252
208 228 250
209 229 254
208 228 252
192 214 191
190 212 187
182 205 143
178 201 128
181 204 130
174 197 99
174 197 82
174 197 84
173 196 67
174 197 92
171 195 82
173 196 76
173 196 57
182 203 125
202 218 188
216 230 238
221 235 252
220 234 248
222 235 250
218 232 245
217 231 245
217 232 246
220 234 250
220 234 250
222 236 252
217 231 246
218 233 248
213 227 242
217 231 246
221 235 252
218 232 248
216 231 244
217 231 245
219 233 250
219 234 252
220 234 252
219 233 249
217 232 246
220 234 252
217 232 245
219 234 253
219 232 248
218 233 246
217 232 249
219 233 249
216 231 246
220 234 252
219 234 246
221 235 253
220 234 249
218 233 249
219 233 246
220 234 249
222 236 254
220 235 253
219 234 249
218 232 245
218 233 245
219 233 242
220 234 246
219 234 248
219 234 246
220 234 246
218 232 246
221 235 252
220 234 250
220 234 249
220 234 250
221 235 249
220 234 246
219 234 246
219 234 246
220 233 246
223 236 250
222 235 249
206 222 201
187 208 133
176 200 67
176 200 88
174 198 44
176 199 67
177 201 95
175 199 67
179 203 105
178 203 128
183 207 144
196 219 223
202 224 246
203 225 253
203 226 255
204 226 254
203 225 254
203 225 255
199 221 251
202 225 255
199 222 252
187 210 243
85 115 177
62 98 170
61 97 163
61 97 164
61 97 168
61 97 164
61 98 171
124 150 202
192 214 246
205 226 255
206 227 255
207 227 255
208 228 255
210 229 255
213 231 255
216 232 255
216 232 255
216 232 255
216 232 255
215 232 255
215 232 255
213 230 254
84 113 160
60 95 149
60 95 140
60 96 156
59 95 140
60 95 147
61 96 149
61 97 151
60 96 153
60 96 149
62 97 151
61 97 153
60 96 152
61 96 145
61 97 148
61 96 147
61 97 153
62 97 149
61 97 153
61 96 155
62 98 158
61 96 152
61 97 159
62 98 154
61 97 151
61 96 142
61 97 150
61 97 148
60 96 141
61 96 148
61 97 152
61 97 158
62 97 155
61 97 150
60 96 145
61 96 148
60 96 144
62 97 157
61 97 149
61 96 150
62 98 159
62 97 149
61 97 150
62 97 158
61 97 148
61 97 153
61 97 151
61 97 155
62 97 151
61 96 149
62 97 152
60 95 145
60 95 141
61 96 150
62 97 154
61 96 141
61 96 150
60 95 142
61 97 147
61 96 145
60 96 141
60 95 146
59 95 140
62 98 152
62 97 150
61 96 149
59 94 135
62 97 154
62 97 154
61 97 148
61 96 150
62 97 154
61 96 143
61 95 145
60 94 144
60 96 151
61 96 150
61 96 150
60 95 145
62 96 156
61 95 146
60 94 148
61 96 151
60 93 145
60 94 147
60 95 148
60 93 150
60 94 146
60 93 145
60 93 147
60 92 140
59 92 145
60 94 153
60 93 146
60 93 151
92 116 159
212 229 252
215 232 255
216 232 255
216 232 255
216 232 255
216 232 255
216 232 255
189 199 199
183 192 187
165 171 157
169 176 170
162 170 167
159 166 155
152 159 146
144 152 140
157 165 157
143 151 140
150 156 141
154 162 153
149 155 137
150 156 140
157 161 138
154 159 136
144 149 127
146 153 136
148 152 130
149 152 125
149 151 121
156 159 130
152 153 119
150 151 116
147 149 112
150 150 105
160 161 121
159 161 124
158 158 120
151 152 112
162 163 123
163 162 116
160 160 114
156 155 107
160 159 111
159 157 105
157 156 108
160 159 115
156 154 101
163 162 111
169 165 111
166 165 116
165 163 111
168 164 108
165 163 108
173 169 114
168 166 112
169 165 110
170 165 106
173 170 114
168 165 104
172 167 107
174 170 113
172 168 106
175 169 108
176 172 114
171 168 109
172 167 103
176 173 121
171 167 108
175 172 115
173 168 106
173 169 109
176 171 112
180 176 122
174 170 109
177 174 120
172 168 107
179 174 116
177 172 111
176 170 104
179 174 113
177 173 113
175 171 107
176 172 110
175 171 111
179 176 121
178 174 117
179 172 108
175 169 101
177 172 109
176 170 103
177 171 109
178 174 118
179 177 125
177 172 108
180 177 124
183 179 131
177 172 109
179 174 114
179 175 119
177 173 111
174 171 109
178 175 120
179 176 121
179 175 116
181 177 123
181 177 122
177 172 109
181 177 124
179 173 115
177 174 116
182 177 122
182 178 124
178 174 117
180 177 124
177 174 118
184 180 132
175 172 113
181 176 117
177 175 121
182 180 131
180 178 127
175 170 106
183 181 135
184 182 139
178 176 121
180 177 124
180 177 124
181 179 132
181 178 130
181 179 130
182 179 129
178 174 118
181 180 132
180 176 122
181 179 130
182 179 128
185 181 130
185 184 145
183 181 138
187 187 151
180 178 131
184 184 144
186 184 145
184 183 143
184 183 142
184 183 140
184 184 146
184 182 138
186 186 148
187 187 152
185 185 149
180 178 127
185 185 147
211 230 255
210 230 255
210 229 255
210 229 255
210 229 255
210 229 255
210 229 255
210 230 255
210 229 254
211 230 254
210 230 255
211 230 255
210 229 254
211 230 255
210 229 254
211 230 255
210 229 255
209 229 253
211 230 255
210 229 254
211 230 255
210 229 255
211 230 255
210 229 255
211 230 255
211 230 255
211 230 255
210 229 254
208 228 248
208 228 248
209 228 252
208 227 249
197 218 211
184 207 152
185 207 147
180 204 114
178 200 120
179 203 111
178 201 95
177 199 102
174 197 97
177 200 95
175 199 86
170 194 60
187 207 147
207 223 207
218 231 250
219 232 250
220 234 253
216 230 245
211 225 238
220 233 252
217 230 246
217 231 246
217 230 246
220 233 249
219 233 248
218 232 249
217 231 249
215 229 244
218 233 250
220 235 250
221 235 252
220 234 250
220 233 250
219 233 252
222 235 252
217 232 244
216 230 246
220 234 252
222 235 254
216 230 248
218 233 249
219 234 249
220 234 253
218 233 249
219 233 249
221 236 255
219 233 249
217 232 248
219 233 248
221 235 252
218 233 250
218 232 249
221 235 253
222 236 253
221 235 252
219 234 250
216 231 246
218 233 248
219 233 248
220 234 249
219 234 250
219 234 252
221 234 249
219 233 248
220 234 250
221 235 250
219 233 248
219 234 249
218 232 245
217 232 245
222 236 254
218 232 245
220 234 248
222 235 252
220 234 249
220 234 245
220 234 246
220 234 245
209 225 212
184 205 117
176 199 67
178 200 67
176 200 67
175 199 67
176 200 92
177 201 92
180 204 122
186 209 165
196 219 227
204 226 253
203 225 252
202 224 252
205 226 255
202 224 254
202 224 252
201 223 250
200 222 252
201 223 254
156 179 220
61 97 165
60 97 164
61 96 161
60 96 160
60 96 157
61 97 165
61 97 166
77 109 173
163 185 225
206 227 255
207 228 255
208 228 255
209 229 255
211 230 255
215 232 255
216 233 255
216 233 255
216 233 255
216 232 255
216 232 255
168 187 214
60 96 150
61 96 147
60 96 149
60 96 153
59 94 147
61 97 155
60 95 145
61 97 157
61 96 145
62 97 152
61 96 147
60 96 144
62 97 155
61 97 153
62 98 154
61 97 153
61 97 153
62 97 157
60 96 147
61 96 148
59 95 136
61 97 150
62 97 155
60 96 143
62 97 149
61 96 149
61 97 148
62 97 143
62 97 153
62 97 155
61 96 149
61 97 148
62 97 153
61 96 140
61 96 149
61 96 145
61 96 148
62 97 149
61 96 144
62 97 149
62 97 149
62 97 150
62 98 160
62 98 159
61 97 150
62 97 150
60 95 141
62 97 153
61 96 145
62 97 152
62 97 158
62 97 151
61 96 148
61 96 148
61 96 144
62 97 152
61 96 145
62 98 158
61 96 147
61 96 147
62 98 154
61 96 144
61 97 146
61 97 149
60 95 144
60 95 141
60 95 139
61 96 152
61 95 146
62 98 159
62 97 155
62 97 155
60 95 147
61 96 144
60 95 144
60 95 146
61 96 153
60 95 141
60 94 151
61 95 149
61 95 145
61 96 148
60 95 145
61 95 146
60 94 146
61 95 148
59 93 151
60 94 147
61 95 147
60 93 145
59 91 141
60 93 144
60 94 149
59 92 144
58 90 137
58 89 134
181 198 227
216 232 255
216 232 255
216 233 255
216 233 255
216 233 255
208 221 236
179 188 184
175 185 187
163 171 166
159 167 159
160 167 155
157 166 161
147 153 134
145 152 141
134 143 134
145 153 144
156 164 159
147 153 136
143 149 136
149 158 148
150 156 142
144 149 131
152 159 148
148 152 126
144 147 117
146 150 131
153 156 126
139 141 108
149 153 125
154 157 126
156 157 122
152 154 117
151 151 109
156 158 122
146 147 108
152 154 117
158 161 127
154 153 106
162 160 115
155 153 104
162 162 118
161 161 117
164 161 108
163 161 106
160 157 105
159 156 105
166 165 118
162 159 104
168 165 109
167 165 111
161 159 105
168 165 114
169 165 105
165 162 106
166 162 105
167 163 103
166 163 106
170 166 106
172 169 116
170 167 107
171 167 107
172 168 111
174 168 104
172 167 110
168 165 107
173 169 108
173 170 110
174 169 108
171 167 108
174 169 108
173 168 105
175 170 108
173 168 98
175 170 110
177 171 104
177 171 109
175 171 112
179 174 115
179 173 112
173 168 101
176 171 104
177 171 106
176 173 120
174 169 104
179 174 113
179 173 110
178 173 114
178 173 113
179 174 116
180 175 117
176 172 114
177 174 120
176 170 105
179 174 114
179 175 121
177 172 110
182 178 127
179 175 116
175 170 104
179 176 123
176 171 109
179 175 116
180 176 122
177 173 111
181 178 131
178 173 111
179 174 114
182 176 121
178 173 108
182 177 125
178 174 117
184 181 134
181 177 124
179 176 122
177 174 117
181 177 123
179 175 119
177 173 115
178 176 127
183 180 133
183 177 122
178 174 117
182 180 132
176 172 107
176 172 113
178 173 110
184 182 137
181 178 124
183 180 132
181 179 131
187 186 147
184 181 134
184 184 147
180 176 120
182 179 129
181 179 132
183 180 132
185 182 140
179 175 121
179 175 120
182 179 130
180 176 121
184 182 141
184 182 137
182 180 134
182 181 136
183 182 137
185 181 135
183 182 140
183 184 146
183 180 132
211 230 255
211 230 255
211 230 255
211 230 255
211 230 255
211 230 255
211 230 255
211 230 254
212 230 255
211 230 254
211 230 254
211 230 254
211 229 253
212 230 255
212 231 255
211 230 255
211 229 253
211 230 254
212 230 255
212 230 255
212 230 255
211 230 255
211 230 254
211 230 254
211 230 255
211 230 255
211 230 254
210 229 252
210 229 254
209 228 248
208 227 248
199 219 213
187 208 166
185 207 149
184 207 145
182 204 125
174 197 80
173 196 92
174 198 99
173 196 76
176 199 86
175 199 82
198 216 184
210 224 230
224 237 254
220 234 252
216 230 249
213 227 244
218 232 248
218 232 249
215 229 247
219 233 252
216 230 245
218 232 248
219 232 250
220 234 248
214 228 242
214 228 244
218 232 250
219 234 253
220 234 249
219 233 252
217 231 246
213 227 240
217 231 246
217 232 248
219 232 250
218 233 250
214 229 241
217 232 246
221 235 252
220 234 249
217 232 249
220 234 249
218 233 246
215 229 244
218 232 249
218 233 248
220 234 252
219 234 248
216 231 241
218 232 250
221 235 253
218 232 246
217 232 244
220 234 252
218 232 248
217 232 250
221 235 253
219 233 250
219 233 248
220 234 249
221 235 253
221 235 253
221 235 253
218 232 248
220 234 250
219 233 248
220 234 248
217 232 245
221 236 254
220 234 250
220 234 250
220 234 248
222 236 253
219 233 246
218 233 241
222 236 254
221 235 249
219 233 244
221 234 246
220 234 246
205 221 194
180 203 102
177 200 72
177 201 88
176 199 72
176 200 88
179 203 114
179 203 114
186 209 159
198 220 225
204 226 252
202 224 253
202 223 252
203 224 254
202 224 254
203 224 252
203 224 251
203 224 254
193 216 246
101 128 183
61 97 164
61 98 164
60 96 155
60 96 162
61 97 162
60 96 159
60 96 161
60 96 162
148 171 210
206 227 254
208 228 255
209 229 255
211 230 255
214 231 255
216 233 255
216 233 255
216 233 255
216 233 255
216 233 255
123 145 182
60 95 153
60 96 151
60 95 140
60 95 145
60 95 148
60 95 143
62 98 156
60 96 153
61 96 145
61 97 151
61 96 152
61 97 155
61 96 141
61 97 157
61 96 149
60 95 139
63 98 161
60 96 149
61 96 147
61 96 149
61 97 159
61 96 148
60 96 144
61 97 149
61 97 149
62 97 156
60 95 141
61 96 145
61 96 151
60 95 143
60 96 145
62 97 149
62 98 158
61 96 145
62 98 159
62 98 158
61 97 143
60 96 141
61 96 153
62 97 154
62 97 151
61 96 143
62 97 152
61 96 144
61 96 149
61 96 153
60 95 143
62 97 147
61 96 143
61 97 152
60 95 144
61 96 153
61 96 150
61 96 149
62 97 150
62 97 148
62 97 153
61 97 148
61 96 150
61 96 144
62 97 152
61 96 150
62 98 155
61 96 150
61 97 149
61 96 150
61 96 148
61 96 142
60 95 136
60 95 145
61 96 148
60 95 146
62 98 155
61 96 152
61 96 151
60 94 146
60 95 147
60 95 149
59 93 134
61 95 150
59 94 146
61 96 145
61 96 149
61 95 150
60 94 150
60 95 145
60 94 146
60 95 139
59 92 138
61 95 147
60 93 152
60 93 143
60 92 149
58 90 141
58 89 139
58 90 141
131 151 187
216 233 255
216 233 255
216 233 255
216 233 255
216 233 255
192 202 205
160 164 149
172 180 173
150 159 155
154 161 152
150 158 153
153 162 157
147 155 143
146 154 146
162 170 161
141 148 136
150 158 150
146 153 140
130 137 122
153 160 147
149 156 148
157 160 134
146 148 116
142 147 128
145 151 131
149 151 117
147 151 126
151 154 124
154 157 127
159 162 135
153 154 116
153 154 114
157 158 123
147 148 114
153 153 107
153 152 110
150 149 94
161 160 112
159 158 106
157 158 123
160 159 114
161 160 118
168 166 120
155 155 108
163 162 116
159 156 102
169 167 117
159 155 98
171 165 108
164 162 109
165 161 101
167 163 102
170 166 111
163 159 101
167 164 109
166 163 103
167 163 98
167 164 113
171 165 100
171 166 100
168 166 112
176 170 107
171 167 103
168 164 99
172 168 109
171 167 102
170 166 103
173 169 104
172 167 104
172 169 112
175 171 111
174 169 104
172 166 99
175 170 102
176 171 110
172 167 100
176 172 114
173 168 102
178 173 112
177 173 114
179 173 109
179 174 112
176 170 106
175 172 112
175 171 109
174 169 100
175 172 112
177 172 110
178 173 112
179 174 113
180 175 115
179 173 112
180 173 109
181 177 124
177 171 103
177 173 114
178 173 110
180 177 123
180 175 119
180 175 117
176 171 106
179 176 125
180 176 125
178 172 111
181 177 122
177 172 106
177 172 107
180 175 115
179 175 119
175 170 105
182 177 121
180 177 127
179 176 125
181 177 122
177 173 113
181 176 120
176 172 113
178 173 112
184 180 129
179 175 118
179 174 113
182 180 134
179 176 120
180 177 124
180 176 122
182 179 127
181 178 126
183 180 134
182 182 139
181 177 123
182 181 135
183 181 135
178 175 121
180 178 130
180 175 116
186 184 142
184 181 134
183 180 134
181 177 124
186 185 144
181 180 135
183 181 135
184 182 136
183 183 142
182 181 138
182 180 134
183 180 132
182 180 132
187 186 149
184 183 141
185 184 144
212 230 255
212 230 255
212 230 255
211 230 255
211 230 255
211 230 255
211 229 254
212 230 255
212 230 255
212 230 255
212 230 255
211 230 254
212 230 255
212 230 254
212 231 255
211 230 254
212 230 255
212 231 255
212 230 255
212 230 255
212 230 254
212 230 255
211 230 255
211 230 255
212 230 255
212 230 255
212 230 255
211 230 255
211 230 253
210 229 250
204 224 233
190 211 173
186 208 148
181 204 135
180 203 122
176 199 107
177 200 92
171 193 78
175 198 94
180 203 111
192 211 182
213 227 238
220 233 252
212 226 244
213 226 244
215 228 246
218 232 251
216 229 245
218 231 249
217 231 249
218 231 248
216 229 247
215 228 245
219 232 250
215 229 246
220 234 253
220 233 252
217 231 248
221 235 252
217 231 250
215 229 240
218 233 249
217 232 248
217 231 245
217 231 245
220 235 253
220 234 253
216 231 245
219 233 248
219 233 249
218 232 249
219 233 250
219 234 252
217 232 252
220 234 253
220 234 250
219 233 249
219 234 248
218 233 250
216 230 245
219 233 246
219 234 250
219 234 249
220 234 252
220 234 248
220 234 250
219 234 246
219 234 249
217 232 246
217 232 246
222 235 253
218 233 249
217 232 248
215 230 240
220 235 252
219 234 252
218 233 250
219 233 249
217 231 241
219 234 250
217 232 244
218 233 249
220 235 252
220 235 249
219 233 244
219 234 246
218 233 244
220 234 252
219 233 246
220 234 249
219 233 245
220 235 250
220 234 248
222 236 252
191 212 155
176 199 67
177 200 88
177 201 95
178 201 92
176 200 105
178 202 108
185 209 173
199 221 238
202 223 250
202 223 251
206 227 254
204 225 253
205 226 254
204 225 251
204 225 254
200 222 250
145 168 207
72 105 166
61 97 161
61 97 164
60 96 158
60 96 157
59 95 157
60 96 161
60 96 163
60 96 158
146 169 210
209 228 255
210 229 255
211 230 255
213 231 255
216 233 255
216 233 255
216 233 255
216 233 255
209 226 250
86 113 161
60 96 142
60 96 150
60 95 145
62 98 154
62 97 159
60 96 142
60 95 142
61 96 150
61 97 147
60 95 147
61 97 156
60 95 145
61 97 150
61 97 154
60 95 141
61 96 150
61 96 149
60 95 147
61 96 151
60 95 142
60 95 150
62 97 152
61 97 149
60 95 145
61 96 140
60 95 139
61 96 144
61 96 142
62 98 159
60 95 141
61 96 144
61 97 150
62 97 152
60 96 148
61 96 145
61 96 142
61 97 145
61 97 153
61 96 152
61 96 150
61 96 149
61 97 154
62 98 155
61 97 150
61 96 147
61 96 144
61 96 148
61 96 140
61 97 148
61 96 149
61 96 144
60 95 144
61 96 139
61 97 147
60 95 139
60 95 145
61 96 148
60 94 131
61 96 144
60 95 144
60 95 136
61 96 150
61 97 147
59 94 140
61 96 146
61 95 139
61 96 147
62 97 148
62 97 149
61 96 145
62 97 152
61 96 153
60 95 148
60 95 146
61 96 148
62 97 159
61 95 148
60 95 145
60 94 144
60 94 144
60 94 143
61 95 143
61 95 145
60 94 144
61 96 151
61 95 152
59 93 142
60 93 147
59 93 140
59 92 136
60 92 137
58 89 133
60 93 142
57 88 130
57 87 132
56 87 132
68 97 148
210 227 250
216 233 255
216 233 255
216 233 255
212 226 243
178 184 173
175 183 180
162 170 165
163 171 168
156 164 159
152 161 156
139 147 142
144 152 144
147 157 152
151 159 149
136 143 132
143 149 136
138 142 121
155 161 147
148 153 135
156 160 137
139 144 123
150 154 129
144 149 127
146 151 129
151 154 124
136 139 104
147 152 128
152 155 127
152 154 119
150 153 120
160 160 121
160 160 117
160 160 121
158 159 123
153 154 113
150 149 104
156 155 106
157 155 103
162 160 109
165 164 119
165 163 112
158 157 109
160 159 108
163 161 106
158 157 114
162 160 104
160 157 101
159 157 99
171 167 114
167 164 108
169 165 103
167 164 108
166 161 97
168 164 108
170 166 109
170 165 106
173 168 107
166 162 97
179 174 115
171 167 104
172 169 109
171 167 100
170 166 104
176 171 111
174 169 106
168 163 95
171 167 105
169 164 96
174 169 103
176 173 116
175 171 110
173 168 102
174 169 102
175 170 104
175 169 102
174 169 103
177 172 108
175 171 110
175 170 105
177 172 111
178 172 109
178 172 108
179 173 112
176 171 105
176 171 110
177 172 110
180 175 116
177 172 107
176 171 109
177 173 113
179 174 117
178 173 115
178 173 115
175 170 107
178 173 111
181 176 118
177 172 109
174 170 105
180 174 114
178 176 122
176 171 110
176 173 118
180 176 122
178 173 116
179 176 124
181 175 116
175 171 108
178 172 106
179 175 121
180 176 122
180 177 125
177 172 110
180 176 121
180 176 120
181 178 127
180 175 116
180 176 121
179 174 114
177 172 108
177 175 120
180 178 127
180 175 116
178 173 111
184 181 136
179 175 122
180 176 125
179 177 126
181 177 122
180 177 124
177 174 117
181 177 124
183 179 131
182 180 133
187 188 158
182 181 134
183 180 132
180 176 122
182 181 137
181 178 127
181 179 131
181 179 134
181 179 131
183 181 137
184 181 134
187 185 143
184 184 143
184 183 142
187 186 150
184 182 137
186 185 145
212 231 255
212 230 255
212 230 255
212 230 255
212 230 255
212 230 255
213 231 255
212 230 254
213 231 255
212 231 254
213 231 255
212 231 254
212 231 255
213 231 255
212 230 254
212 231 255
212 230 253
213 231 255
211 230 253
212 230 255
212 230 255
212 230 254
213 231 255
212 230 254
212 231 255
213 231 255
212 230 255
211 230 253
211 229 252
210 229 249
192 213 174
189 211 169
190 211 171
179 201 137
178 200 111
174 197 108
178 201 100
176 199 86
195 214 175
216 230 242
216 229 246
222 235 253
214 227 243
217 231 250
222 235 254
219 232 250
216 230 249
218 232 251
217 231 250
215 229 248
217 230 248
210 224 242
218 232 251
214 228 246
216 230 248
214 228 246
219 232 250
220 234 253
219 232 252
216 230 245
220 234 253
216 230 246
214 228 242
218 232 250
217 232 248
217 231 246
218 233 249
219 233 249
219 234 253
219 232 249
216 231 245
219 234 252
217 232 246
218 232 246
219 234 252
218 233 249
218 232 248
218 233 250
217 232 249
221 235 254
219 233 249
219 233 248
218 232 248
218 233 249
219 234 248
215 229 241
219 234 250
219 234 250
219 234 250
218 233 248
220 234 250
220 234 249
217 232 248
218 233 248
219 233 248
218 233 246
216 231 242
219 234 250
220 234 250
219 233 252
219 234 248
218 233 248
220 234 249
218 233 248
218 232 244
219 233 245
220 235 249
220 234 249
219 234 246
220 234 250
220 235 250
221 235 248
219 233 245
223 236 253
223 236 254
211 226 217
185 206 117
178 202 95
176 200 80
176 200 84
179 202 95
180 203 125
193 215 204
205 225 252
204 225 249
205 226 254
207 227 255
207 227 255
205 226 254
205 225 252
200 221 250
183 204 238
104 130 175
59 95 154
59 95 155
59 96 153
60 96 153
59 95 155
59 95 160
59 95 147
58 94 156
59 94 150
160 181 215
210 229 255
211 230 255
212 231 255
216 232 255
217 233 255
217 233 255
217 233 255
193 210 236
58 93 137
60 95 154
60 95 145
61 96 150
61 96 149
60 95 144
61 97 151
61 96 143
59 95 142
60 94 135
61 96 152
61 96 145
61 96 143
60 96 149
62 98 151
61 97 147
61 97 150
61 96 148
61 96 153
60 94 135
62 98 155
61 96 144
62 98 153
61 97 145
61 96 148
61 97 149
60 95 142
60 95 142
61 96 144
61 97 149
62 97 150
61 97 148
61 97 152
62 97 148
61 96 148
62 97 152
61 96 143
61 96 144
61 97 149
62 97 147
61 96 148
61 96 148
60 95 147
60 96 147
61 96 152
60 96 142
59 95 141
62 97 150
60 95 139
62 97 147
62 98 159
61 96 150
62 97 149
61 96 138
61 97 150
61 95 139
61 96 141
60 95 133
61 96 146
61 97 150
62 97 150
62 97 149
60 95 136
61 95 144
60 95 140
60 96 141
61 96 148
62 97 149
60 95 140
61 96 149
61 96 148
62 97 153
60 94 140
60 95 144
61 96 150
61 96 149
61 96 148
61 96 144
61 96 149
62 96 147
61 96 151
61 95 148
61 95 146
60 94 142
61 96 154
61 95 148
60 94 142
61 96 152
60 94 145
60 94 140
61 96 152
59 91 142
56 87 124
60 92 143
58 90 140
58 90 140
57 88 139
58 88 141
179 195 217
217 233 255
217 233 255
217 233 255
205 218 232
168 176 168
173 181 181
164 173 171
156 165 160
149 157 147
145 154 147
146 155 154
145 153 143
140 148 142
127 136 128
144 153 148
138 146 132
135 144 136
142 149 134
164 169 150
137 145 133
143 149 132
140 146 126
150 155 136
150 152 124
137 140 109
146 150 123
141 145 116
140 143 114
142 142 100
151 153 117
146 147 105
154 154 111
157 156 113
160 160 118
158 156 106
148 148 108
161 160 113
156 155 110
157 156 109
162 160 119
157 154 100
159 157 102
153 151 96
161 161 111
163 161 108
168 165 115
167 164 111
161 157 100
161 158 103
162 159 107
165 162 107
168 164 108
163 161 105
165 161 106
167 163 106
168 164 102
167 164 106
167 164 107
170 166 105
174 169 111
172 167 97
168 164 102
169 165 104
171 167 108
172 167 101
171 166 101
175 170 107
175 168 99
175 170 109
170 166 103
172 168 106
173 168 98
173 168 104
177 172 109
175 170 109
174 170 104
174 169 105
172 168 104
176 171 106
177 171 106
174 169 100
174 167 96
175 170 107
174 169 104
175 168 99
174 168 99
174 168 100
175 171 112
176 171 107
178 174 116
178 173 111
181 177 122
174 169 101
176 170 105
180 175 118
176 172 112
177 171 106
175 169 103
177 172 112
178 172 109
175 169 99
177 172 110
177 173 113
181 176 118
176 172 110
181 177 122
182 178 125
176 173 119
179 175 117
177 171 103
180 175 118
178 176 122
178 176 123
175 171 111
176 172 109
175 171 106
180 176 119
179 176 123
179 175 118
177 172 108
175 171 110
178 175 118
180 176 119
180 176 122
180 176 122
180 177 125
181 178 127
178 175 123
182 179 126
180 176 122
183 179 129
181 179 131
184 182 137
181 179 130
183 181 138
182 179 130
182 178 127
185 183 141
182 181 135
181 179 131
185 183 138
184 183 143
183 179 129
182 180 133
182 181 140
186 186 149
185 184 144
182 179 131
183 180 130
185 184 142
213 231 255
213 231 255
213 231 255
213 231 255
213 231 255
213 231 255
213 231 254
213 231 254
213 231 254
213 231 254
213 231 254
213 231 255
212 230 253
213 231 255
213 231 255
213 231 254
213 231 255
213 231 255
213 231 254
213 231 255
213 231 255
213 231 255
213 231 254
213 231 255
213 231 255
214 231 255
212 230 250
212 230 253
212 230 252
198 218 198
189 210 166
182 204 141
185 206 135
177 200 117
176 198 95
170 193 110
193 212 183
211 226 237
219 232 251
218 232 250
216 229 248
220 234 252
212 226 245
216 230 248
217 230 248
218 232 251
221 235 254
215 229 246
223 237 255
217 231 248
218 232 250
219 233 252
215 229 246
216 230 249
214 228 246
215 229 246
216 230 249
217 231 250
217 231 250
215 229 244
214 228 246
216 230 248
219 233 250
217 230 245
218 232 250
215 230 246
220 235 252
218 232 249
217 231 249
219 233 250
216 231 245
220 234 252
217 231 248
215 229 245
215 229 245
220 235 252
217 232 248
220 234 250
218 232 245
217 232 248
218 233 248
219 233 253
217 232 250
218 232 248
216 231 245
216 231 242
219 233 246
219 234 250
218 233 248
218 233 249
221 235 254
218 232 245
218 232 246
220 234 252
220 234 252
219 233 249
217 232 244
219 234 250
218 233 245
220 234 249
218 233 248
221 235 254
219 233 249
220 234 252
219 233 246
220 234 249
218 233 246
219 233 246
220 234 252
219 234 249
221 235 252
219 234 248
216 231 237
219 234 250
220 234 248
223 237 254
214 229 238
194 213 157
179 202 76
175 198 74
176 199 60
181 204 129
184 207 151
194 216 213
203 223 247
201 222 246
208 228 255
202 222 250
206 226 253
208 228 255
207 227 254
207 227 254
129 153 196
59 94 152
60 96 155
60 96 148
59 95 156
60 96 155
59 95 160
59 94 149
58 94 150
59 95 149
69 102 162
187 207 237
211 230 255
212 231 255
215 232 255
217 233 255
217 233 255
217 233 255
150 170 199
60 95 146
59 95 148
59 94 140
60 95 143
61 96 148
60 95 152
60 96 142
61 96 144
61 96 151
62 97 148
61 96 140
61 97 145
60 95 145
61 96 145
60 96 140
62 97 154
61 96 151
62 97 149
61 96 149
62 97 150
61 96 144
61 96 142
60 95 140
61 97 145
61 96 142
60 96 143
60 95 142
60 96 143
61 97 145
59 93 130
61 97 152
61 96 143
60 95 143
62 98 156
62 97 152
61 96 152
61 96 142
61 97 150
61 96 145
61 96 145
62 97 151
62 97 157
62 97 152
61 96 147
61 96 149
61 97 143
61 96 142
61 96 145
61 96 147
62 97 148
62 97 149
61 97 145
61 96 145
61 97 154
61 97 155
61 97 150
61 97 148
62 97 145
62 97 156
61 96 145
61 96 146
62 97 149
60 96 142
62 97 155
60 95 139
60 95 143
61 96 151
61 96 148
61 95 140
60 94 132
60 95 145
61 96 144
62 97 153
60 94 138
61 96 139
61 96 146
60 95 141
62 97 154
61 95 144
60 93 139
61 95 146
61 95 140
61 96 147
60 93 139
60 94 142
61 95 138
60 94 144
61 95 152
60 94 141
61 95 141
58 90 132
59 92 137
60 94 151
61 94 146
58 89 133
61 94 145
59 91 141
58 89 135
135 153 183
217 233 255
217 233 255
217 233 255
185 194 193
170 179 175
148 156 149
157 165 160
149 157 151
147 155 151
143 153 151
138 147 142
155 164 159
153 162 161
135 141 127
140 149 143
140 147 133
141 148 135
140 148 136
144 152 139
137 141 114
138 144 122
151 155 133
133 138 115
142 146 121
141 145 118
138 141 107
142 146 119
150 152 117
140 143 111
156 159 128
154 154 114
147 147 106
152 153 110
156 157 116
152 153 111
151 153 112
152 151 100
155 154 106
156 154 102
158 156 106
165 162 106
157 155 103
157 154 94
159 156 96
162 159 106
154 152 96
156 154 100
159 157 105
163 160 103
160 157 98
169 166 107
168 165 109
164 162 102
162 159 97
173 166 103
170 165 100
166 161 98
166 164 107
169 165 104
173 169 108
168 164 99
172 169 112
170 165 98
171 166 99
171 166 102
170 166 104
174 169 102
172 167 101
176 170 102
176 170 103
172 167 104
172 166 96
173 168 101
173 168 104
175 170 104
175 169 101
174 169 110
176 172 110
174 168 97
173 168 98
174 170 104
175 170 107
173 168 98
177 171 107
177 172 110
179 174 112
177 171 103
177 173 112
177 171 101
181 175 116
176 171 107
178 171 105
177 173 116
179 173 112
176 172 112
178 174 116
177 172 109
179 174 115
181 176 117
181 174 111
180 175 115
180 176 117
179 174 113
182 176 118
182 177 120
178 173 115
179 174 116
177 172 109
174 170 106
178 173 114
179 174 117
183 180 131
178 174 116
181 178 126
179 176 121
181 177 124
182 180 133
177 172 109
179 175 118
184 180 130
176 172 109
176 172 110
179 175 118
180 176 122
180 178 127
180 176 123
178 174 119
185 184 143
182 180 133
181 177 122
179 177 129
180 177 124
180 178 131
184 180 130
183 182 146
179 177 125
183 179 129
183 181 137
180 177 126
179 174 116
181 179 132
183 180 133
183 182 139
184 183 142
185 185 147
183 183 145
183 184 145
187 186 148
182 179 132
182 181 134
213 231 255
213 231 255
213 231 255
213 231 255
213 231 255
214 231 255
214 231 254
214 231 255
214 231 255
214 231 255
213 231 253
214 231 255
214 231 255
213 231 254
213 231 254
214 231 255
214 231 255
213 231 254
214 231 255
213 231 253
213 231 254
214 231 255
214 231 255
214 231 255
214 231 255
214 231 255
213 231 253
210 229 244
208 226 236
193 213 184
189 210 161
179 201 121
178 199 121
178 200 124
185 205 155
211 227 226
214 228 246
220 233 252
215 229 248
219 233 253
214 228 246
217 230 248
218 231 250
214 228 246
214 229 247
218 232 252
218 232 250
211 225 244
218 232 249
216 230 248
219 233 252
217 231 250
213 227 246
218 232 252
219 233 252
216 230 248
218 232 251
216 230 250
214 229 246
218 232 250
217 231 248
217 231 248
219 233 253
214 228 245
218 233 252
221 235 253
216 231 248
218 232 250
219 233 250
216 230 246
217 232 248
221 235 253
218 233 248
219 233 250
220 234 253
218 232 246
218 233 248
219 234 252
218 232 250
216 230 244
218 233 246
219 234 250
218 233 246
218 233 249
217 232 246
219 233 249
217 232 248
221 235 253
218 232 248
215 231 240
219 234 248
219 233 249
218 233 249
220 234 250
219 234 252
217 232 248
220 234 250
218 232 246
220 235 253
219 234 250
219 234 249
219 234 248
221 235 253
220 234 248
219 234 248
221 235 252
221 235 252
220 235 250
218 233 246
221 235 253
218 232 246
221 235 252
220 234 245
219 233 250
213 227 241
213 226 248
218 231 248
218 232 246
205 221 197
173 195 84
176 200 86
176 200 99
182 205 120
186 208 171
205 225 242
205 225 245
207 226 250
206 226 254
207 227 251
207 226 252
204 224 251
207 226 252
151 173 209
100 127 172
59 95 149
60 96 159
59 95 147
59 94 144
60 96 153
59 94 145
58 93 150
58 93 150
59 95 150
94 121 170
211 229 255
213 231 255
214 232 255
217 233 255
217 233 255
217 233 255
103 129 173
60 95 143
60 95 148
61 96 152
62 97 148
61 96 145
60 95 150
61 96 147
60 95 147
61 96 152
60 95 145
62 98 157
61 97 151
61 96 144
59 94 136
60 95 133
61 96 151
61 96 143
61 97 160
61 96 145
59 94 134
61 97 151
61 96 144
62 97 152
61 95 145
61 97 147
61 96 149
60 96 145
61 96 148
61 96 149
61 96 139
61 96 142
61 97 143
61 96 142
61 95 142
62 97 153
60 94 131
61 96 141
61 96 141
61 96 150
61 96 147
62 97 151
61 97 148
61 97 143
62 97 149
60 95 142
61 96 149
60 94 142
61 96 151
62 97 154
61 96 147
61 96 145
61 97 150
61 96 141
60 96 150
59 94 135
60 95 142
58 93 130
59 94 135
61 96 142
61 96 145
61 96 148
61 95 141
62 97 156
62 97 155
61 97 149
62 98 155
61 96 149
61 95 149
61 95 142
61 96 146
61 95 138
60 95 140
61 96 143
59 94 142
60 95 139
60 94 137
60 93 134
62 97 157
59 92 133
61 95 148
61 96 145
61 95 143
60 94 145
60 94 146
60 94 140
60 94 145
60 95 141
59 92 128
59 93 140
60 94 141
58 92 141
59 91 137
60 94 144
58 89 128
60 93 142
59 91 143
59 91 143
57 88 137
86 108 141
216 232 254
217 233 255
211 226 244
186 195 193
165 173 170
161 168 164
153 162 158
157 167 171
118 127 122
132 142 141
121 128 121
134 143 139
140 149 144
146 154 145
144 153 147
139 147 140
133 140 128
129 134 115
132 138 121
138 143 125
141 145 121
132 136 108
132 136 113
137 139 109
138 142 116
145 147 113
151 155 129
140 144 115
142 142 98
154 153 113
145 149 120
147 146 97
149 149 104
151 153 120
162 161 115
156 153 103
149 148 96
151 150 100
156 153 100
154 153 100
158 156 101
159 156 100
161 160 111
160 157 101
165 162 105
158 155 99
162 159 98
165 161 103
161 159 102
165 162 105
163 160 97
165 161 100
163 161 104
171 166 102
165 160 96
167 163 105
168 164 98
170 166 103
167 163 100
165 161 94
168 165 106
164 160 89
168 164 103
164 161 97
172 166 101
171 167 104
171 166 103
172 167 103
177 171 103
171 167 103
172 167 101
170 164 98
171 166 96
177 172 109
171 166 98
176 170 102
174 168 102
177 172 114
169 165 99
175 169 97
172 167 99
175 170 107
174 169 103
176 170 100
177 172 108
173 168 101
176 170 103
176 171 112
176 171 109
175 170 106
176 170 104
178 172 109
171 168 99
175 170 105
173 169 108
176 169 98
174 169 103
179 174 117
177 172 106
179 174 117
174 172 113
179 174 115
177 173 111
177 172 115
179 175 117
176 169 101
174 168 100
180 175 121
180 176 121
181 177 123
179 173 110
177 172 112
178 174 116
177 172 109
179 175 121
178 174 113
177 173 110
178 175 117
181 176 120
176 170 103
179 175 121
184 181 134
178 175 120
183 181 135
184 181 135
181 178 126
183 181 134
179 176 124
180 175 123
179 177 124
181 178 128
180 175 118
180 177 122
180 176 123
180 176 122
184 183 140
182 181 135
181 180 135
182 179 130
180 177 123
183 181 137
182 179 130
185 183 143
183 179 125
183 180 130
182 178 124
180 177 126
183 183 143
186 185 147
180 178 129
214 232 255
214 231 255
214 231 255
214 231 255
214 231 254
214 232 255
214 232 255
215 232 255
214 232 255
214 232 255
215 232 255
214 231 254
214 232 255
214 232 255
213 231 253
214 232 255
214 232 255
214 231 254
214 232 255
215 232 255
214 231 254
214 231 254
214 231 253
214 232 255
214 232 255
214 232 255
213 231 253
213 231 253
197 217 193
192 213 176
185 206 151
182 203 122
184 206 141
203 219 212
223 237 255
217 230 249
214 229 248
216 230 247
215 228 247
218 232 251
215 228 248
217 230 250
216 230 249
219 233 252
214 228 246
218 232 249
219 233 252
216 230 252
216 230 248
218 233 252
220 234 253
217 231 249
217 231 250
219 233 252
217 232 251
217 232 251
217 232 250
215 230 248
217 231 250
215 229 248
215 230 250
216 230 247
219 233 250
219 233 250
217 232 246
214 228 241
220 234 254
217 231 249
215 229 244
218 232 246
218 233 250
216 230 245
217 231 249
219 233 252
217 232 246
220 234 250
217 231 248
218 233 249
220 234 250
218 232 248
221 235 253
218 233 245
217 232 249
217 231 249
217 232 245
218 233 245
219 233 249
219 234 249
220 235 252
218 233 249
219 233 248
217 232 246
219 234 252
216 231 244
219 233 248
220 234 252
219 234 250
219 234 249
218 233 246
218 233 249
217 232 245
218 233 252
219 233 246
219 233 248
219 233 249
219 233 248
216 231 240
219 234 250
221 235 253
219 233 246
221 235 252
217 231 248
219 233 249
216 230 248
214 228 242
217 231 250
211 225 240
215 229 244
211 225 240
202 218 209
170 193 105
172 197 82
176 199 102
184 206 147
198 219 211
207 226 252
208 227 252
205 224 250
208 227 251
206 225 251
207 226 252
207 226 252
177 198 228
120 144 187
60 96 149
58 93 140
60 95 150
58 94 143
58 94 147
59 94 145
58 94 146
60 95 152
58 93 147
58 94 154
157 178 214
213 231 255
214 232 255
217 233 255
218 234 255
198 215 240
60 95 144
60 96 149
58 93 136
61 96 152
61 96 139
61 96 141
58 93 134
60 96 147
61 96 150
61 97 154
61 97 152
61 97 151
61 97 145
62 97 143
64 99 160
61 96 143
59 94 133
60 96 136
61 95 149
61 97 147
61 96 139
60 95 142
59 94 141
61 96 147
60 95 147
62 98 151
60 95 137
61 97 151
61 96 147
61 96 145
60 96 141
61 96 144
61 96 142
61 96 144
59 94 133
61 96 141
61 96 150
61 97 151
61 95 141
60 94 143
60 94 131
61 96 144
60 94 135
60 95 148
61 96 139
62 97 143
61 97 150
61 96 143
60 95 148
61 96 145
62 97 149
61 97 154
60 95 142
61 96 149
60 95 135
61 95 143
62 97 151
61 96 145
62 97 151
60 95 137
60 95 134
61 96 148
59 93 128
61 96 149
61 95 146
62 97 151
61 96 150
61 96 142
61 95 141
61 97 154
61 95 145
59 94 134
61 95 143
61 96 149
61 96 150
60 95 142
62 97 150
61 95 144
61 97 152
61 96 151
60 94 141
60 94 145
60 94 138
59 94 144
58 91 135
60 93 137
60 93 143
59 93 143
58 91 124
59 92 126
58 90 133
60 94 148
58 91 130
59 92 142
58 90 134
58 88 134
58 90 137
57 87 135
56 87 131
56 86 127
198 214 238
218 233 255
202 213 222
174 181 172
155 165 166
160 167 157
152 161 158
136 144 141
133 142 140
135 142 136
137 147 146
137 147 143
136 143 132
134 143 138
128 138 135
133 139 124
125 131 112
146 152 137
136 143 129
138 143 124
129 133 107
135 139 114
129 135 117
137 139 109
145 147 107
137 140 102
146 148 118
153 156 128
146 147 108
154 155 118
146 146 98
157 158 116
154 155 117
150 151 115
143 143 96
162 162 122
160 159 109
160 159 106
148 148 104
150 149 100
149 148 100
165 161 107
159 156 97
165 163 110
164 160 100
158 155 100
166 163 103
163 161 107
168 163 98
162 160 105
160 158 99
166 162 99
164 160 96
171 166 103
168 163 94
163 158 100
164 160 94
168 163 102
166 161 96
169 163 95
172 167 106
173 168 104
171 166 100
169 164 97
172 168 101
170 165 102
169 165 99
173 168 108
173 167 97
173 168 101
174 169 106
173 168 98
170 165 91
172 168 99
173 168 98
175 169 101
177 170 100
173 168 103
173 167 102
176 170 104
174 168 98
176 171 105
175 169 103
177 171 107
173 167 95
173 167 99
177 170 103
175 169 98
175 171 106
177 171 101
174 170 108
177 173 115
173 167 95
177 171 104
175 169 104
175 169 100
176 172 111
177 172 104
175 170 102
175 171 106
176 170 103
176 170 109
179 175 119
176 171 103
174 168 98
180 174 114
178 174 113
176 171 107
176 171 106
177 173 115
178 173 113
181 177 125
178 173 111
181 176 118
181 176 121
180 176 122
180 176 122
181 179 134
182 178 127
177 175 123
182 180 130
183 179 129
180 176 123
180 176 120
183 180 130
183 180 132
176 171 104
181 177 124
181 180 134
177 174 117
182 181 136
179 176 122
181 178 127
182 180 132
184 182 139
182 178 125
178 176 123
184 182 136
185 184 143
187 186 147
178 176 124
185 185 146
178 175 119
182 179 129
187 187 150
184 182 139
180 178 127
185 181 133
182 180 133
186 185 145
215 232 255
215 232 255
215 232 255
214 231 254
215 232 255
215 232 255
215 232 255
215 232 255
215 232 255
215 232 255
215 232 255
215 232 254
215 232 255
215 232 255
215 232 254
214 231 252
215 232 254
215 232 255
215 232 255
215 232 255
215 232 255
215 232 255
215 232 255
214 231 254
215 232 255
215 232 255
215 232 255
207 225 236
196 215 187
183 204 139
185 207 136
203 220 202
217 232 246
214 228 245
220 233 252
221 235 253
216 231 248
219 233 250
220 234 253
218 232 250
216 230 248
218 231 251
216 230 249
216 230 249
220 234 252
218 232 251
217 231 250
216 231 249
215 229 249
217 231 250
220 234 253
217 232 250
213 227 247
218 232 253
219 233 253
220 235 254
219 233 250
216 230 249
219 233 252
217 231 250
213 227 246
214 228 247
216 230 247
214 229 248
216 230 247
215 229 246
216 231 248
219 234 252
220 235 252
217 232 246
219 233 250
218 232 249
220 234 252
219 234 249
221 235 254
217 232 248
219 233 252
216 231 244
218 233 246
218 232 245
217 232 245
218 232 248
218 232 246
220 234 252
218 233 249
218 233 249
218 233 249
219 234 250
220 235 252
218 233 249
219 234 249
217 232 245
218 233 246
219 233 250
218 233 249
220 234 252
217 232 245
218 232 246
218 233 249
220 234 252
220 235 252
218 233 246
221 235 253
219 234 249
221 235 252
219 234 250
219 233 248
219 233 246
221 235 253
220 234 250
213 228 244
216 230 244
215 230 242
217 231 247
217 231 244
220 234 251
213 227 242
214 228 243
216 229 245
216 229 243
211 225 233
179 199 135
174 197 78
185 207 142
189 210 161
205 225 238
208 227 251
208 227 252
209 228 252
209 228 254
209 228 253
205 224 250
196 215 244
125 148 190
75 107 157
59 94 145
59 95 153
60 95 150
57 92 141
59 95 149
57 93 147
57 91 142
59 94 146
58 93 148
80 110 153
207 225 251
214 232 255
216 233 255
218 234 255
181 198 222
61 96 148
59 94 137
59 95 144
60 96 150
60 95 136
60 95 144
61 97 152
60 96 144
60 95 142
62 97 152
59 94 134
61 96 150
61 96 142
61 97 147
59 94 140
61 96 144
61 96 141
61 96 151
60 95 134
61 95 142
61 96 147
61 97 145
62 97 150
61 96 144
62 98 155
63 98 157
62 97 157
61 96 139
61 96 150
62 97 151
61 96 142
61 96 142
59 94 134
60 95 142
62 97 141
60 95 142
61 96 143
60 95 140
61 97 149
60 95 141
61 96 149
61 96 140
61 96 145
59 94 137
62 97 148
61 97 148
61 96 147
61 97 142
60 95 141
61 96 143
61 95 142
61 95 141
61 96 147
61 96 146
61 96 144
61 96 143
60 94 138
60 95 143
60 95 142
62 97 155
60 95 142
59 94 137
61 96 140
61 96 145
62 97 147
62 97 152
61 96 145
60 95 144
61 96 136
61 96 149
61 96 147
60 95 144
61 96 142
60 94 130
62 97 147
60 95 141
61 95 144
61 95 145
62 96 150
61 95 148
61 95 142
60 94 137
60 95 148
60 94 139
61 95 149
60 93 136
61 95 150
59 91 137
61 95 147
60 93 131
59 92 140
59 92 131
58 91 136
60 92 141
60 93 139
60 93 141
59 91 137
56 87 129
57 88 131
56 86 135
181 197 219
218 234 255
188 197 197
167 176 175
144 152 152
141 150 150
131 139 135
132 142 143
137 146 146
137 146 147
130 138 132
138 147 142
121 129 118
121 130 124
128 137 134
141 148 137
130 138 125
131 137 121
129 134 111
136 142 124
125 130 109
133 139 123
148 153 131
129 134 112
146 149 117
140 142 111
140 140 106
145 145 104
149 149 106
146 147 107
146 147 104
154 155 118
151 151 104
150 148 98
150 150 101
151 150 105
148 148 101
149 149 98
157 155 105
156 154 101
165 163 111
159 158 110
157 155 99
163 159 99
162 159 109
156 154 101
164 161 106
163 160 101
162 159 101
155 154 101
162 159 96
160 156 94
168 164 101
162 157 90
168 163 104
166 162 106
158 155 93
164 159 94
171 165 103
170 164 95
168 165 103
168 164 102
171 166 95
170 165 100
167 163 97
173 166 101
170 164 91
174 170 112
173 167 97
175 169 103
166 161 93
175 168 100
170 165 94
171 166 93
175 168 94
176 170 99
174 168 97
170 165 100
174 168 102
172 167 99
172 166 97
172 167 93
179 172 107
174 169 104
176 170 104
176 170 102
171 166 98
173 167 97
177 172 108
175 171 103
172 167 99
176 170 103
178 171 103
181 175 114
178 173 112
176 169 95
179 172 106
177 172 108
179 172 106
176 170 102
182 177 121
175 171 108
178 173 112
174 168 97
177 173 114
179 175 116
176 170 101
179 175 116
178 174 114
179 173 110
179 175 120
176 172 108
179 173 110
180 177 124
176 173 114
177 173 113
183 180 130
178 174 117
179 173 108
179 176 122
179 175 121
182 179 127
180 178 126
186 183 140
182 178 127
180 175 117
181 178 125
183 178 124
180 176 121
181 179 131
182 180 130
181 177 124
183 180 135
180 177 123
180 178 126
179 176 121
183 179 130
184 181 134
184 182 137
183 181 137
184 182 137
189 189 154
181 176 118
181 178 126
181 178 127
181 179 130
181 179 134
184 183 140
185 182 139
183 180 134
215 232 255
215 232 255
215 232 255
215 232 255
215 231 254
216 232 255
216 232 255
216 232 255
216 232 255
215 232 254
215 232 255
216 232 255
216 232 255
215 232 255
215 232 254
215 232 254
215 232 255
216 232 255
216 232 255
215 232 254
215 232 254
216 232 255
216 232 255
215 232 255
215 232 255
216 232 255
215 232 255
201 220 208
190 211 161
192 212 172
211 227 228
219 233 252
218 232 251
211 226 246
217 231 250
217 231 250
220 234 253
217 231 251
216 230 249
217 231 250
218 232 251
217 231 250
218 232 252
217 231 250
215 229 248
214 228 246
216 230 248
216 231 250
215 228 246
220 234 253
213 228 246
219 233 252
218 232 251
218 232 250
217 231 250
211 225 244
217 232 251
214 229 246
215 230 250
219 234 254
215 229 249
215 229 248
215 229 248
215 230 248
212 227 244
215 229 248
217 232 249
215 229 246
219 233 248
220 235 252
219 234 248
219 233 252
219 234 250
219 234 250
218 232 248
218 232 252
216 230 246
218 233 249
217 232 249
217 232 245
214 230 238
216 231 242
217 232 245
219 234 250
220 234 250
218 233 250
217 232 246
220 234 250
219 234 250
218 233 246
218 233 248
218 233 248
220 234 253
219 233 248
219 234 249
219 234 253
217 232 244
219 233 250
217 232 242
218 233 248
220 235 252
220 234 249
218 233 246
220 234 250
216 231 237
218 233 245
218 233 246
218 233 246
219 234 248
218 232 246
214 229 243
218 232 250
211 226 238
220 234 253
217 232 246
216 230 246
220 234 250
215 229 245
216 230 244
216 229 246
216 229 242
211 225 238
180 200 139
175 198 86
182 204 135
200 220 216
209 228 252
207 226 252
210 229 252
211 230 254
209 228 253
210 229 255
207 225 248
129 151 188
108 133 177
57 92 137
60 95 151
58 94 151
59 93 142
58 93 145
60 95 142
58 92 147
58 93 148
57 91 146
58 93 141
154 174 204
215 232 255
216 233 255
218 234 255
128 149 188
61 96 148
62 98 150
59 95 139
61 96 144
60 95 147
61 96 148
60 95 139
61 97 152
60 95 143
62 97 151
61 96 149
61 96 144
61 96 144
59 94 137
60 95 140
61 97 149
61 97 152
61 96 144
61 96 147
61 95 144
60 96 141
61 97 142
61 96 152
61 96 150
61 96 144
60 95 139
61 96 143
61 95 136
60 96 143
59 94 137
61 96 147
60 95 144
60 95 140
62 97 147
61 96 144
60 95 142
62 97 153
61 96 141
62 97 156
62 97 148
60 95 139
61 96 148
61 96 147
61 96 142
61 96 144
61 96 142
61 97 147
61 96 148
62 97 151
61 97 149
61 96 156
61 95 141
60 95 143
62 97 147
61 96 141
61 96 147
62 97 145
61 96 148
61 96 140
60 95 136
61 96 140
62 97 151
61 96 146
60 94 138
60 95 145
62 97 152
61 95 141
60 95 132
61 95 144
60 95 136
60 95 143
61 96 149
61 96 148
63 98 158
60 95 139
60 94 142
61 96 141
61 96 147
61 95 147
61 96 144
61 96 151
60 95 143
59 94 136
61 94 144
59 92 134
61 94 146
60 94 142
60 93 139
60 93 140
59 93 130
60 93 130
59 92 139
57 89 128
58 91 137
60 92 138
59 91 125
58 90 136
58 90 135
56 87 131
57 87 127
147 164 193
216 231 250
180 188 184
163 172 172
166 176 181
149 157 158
154 164 166
149 159 160
129 139 139
133 142 140
131 139 131
125 133 126
133 143 139
137 144 136
124 132 123
116 122 103
119 127 118
138 143 126
132 137 117
138 141 108
139 144 119
135 141 126
136 139 113
126 130 105
130 133 104
137 141 108
138 142 116
149 152 122
139 141 106
140 141 101
138 140 100
143 143 97
142 143 102
151 151 110
146 145 97
157 156 113
150 149 100
156 155 106
152 151 102
151 150 96
150 149 99
153 152 96
162 159 102
154 154 106
157 155 100
160 157 96
158 156 107
167 162 98
159 155 96
159 156 92
167 163 100
165 160 94
164 160 99
164 159 96
171 165 101
170 164 95
168 163 99
163 159 91
169 163 95
170 163 96
165 161 96
163 159 90
174 167 99
169 165 101
165 161 92
168 163 98
164 160 93
175 168 103
171 166 99
177 171 106
172 167 97
171 165 94
170 165 98
168 163 96
176 169 98
172 167 96
172 167 98
173 166 94
174 169 101
176 170 104
172 167 101
177 172 109
173 168 101
179 173 107
174 169 102
175 169 100
174 170 108
174 170 104
175 170 104
178 171 104
176 172 109
173 168 98
177 171 104
176 169 97
178 173 111
174 169 103
176 171 104
178 172 106
177 172 114
178 173 113
178 173 112
177 172 108
178 173 110
176 172 112
180 176 121
176 170 102
175 170 101
178 172 106
175 170 106
181 175 115
175 171 108
177 173 111
177 174 115
179 175 116
178 175 120
178 174 115
178 175 120
178 174 118
181 178 127
183 179 131
183 179 126
182 180 134
179 173 109
180 175 118
178 172 107
178 177 125
182 178 127
173 171 113
180 174 112
181 178 125
177 172 114
180 177 124
172 168 100
178 174 117
183 182 137
184 181 136
182 178 125
185 182 135
178 174 116
183 182 138
187 185 142
186 184 143
183 179 128
184 182 136
181 179 130
182 181 137
181 179 132
182 181 137
184 182 138
182 182 140
216 232 255
216 232 255
216 232 255
216 233 255
216 233 255
216 233 255
216 232 254
216 232 254
216 233 255
216 233 255
216 233 255
216 233 255
216 233 255
216 233 255
215 232 253
216 233 255
216 232 254
216 233 255
216 233 255
216 233 255
216 232 254
216 233 255
216 233 255
216 233 255
216 233 255
216 233 255
212 229 240
195 215 180
201 219 210
218 233 252
220 234 254
219 233 251
217 231 248
218 232 252
222 236 254
219 232 249
216 230 246
212 226 245
218 232 251
216 230 248
215 229 247
217 231 250
219 234 254
219 233 252
218 232 250
220 234 253
219 233 252
216 230 248
218 232 251
218 232 251
215 229 248
218 233 252
216 230 249
216 231 251
215 230 249
218 233 253
212 226 246
213 227 246
208 223 243
219 233 252
218 232 252
213 227 246
217 231 250
219 234 254
213 228 247
218 232 249
217 231 249
214 229 247
214 229 244
218 232 246
220 234 253
219 233 249
220 234 250
218 233 250
219 233 252
218 233 250
217 232 245
218 232 248
220 235 252
220 234 252
219 234 250
219 233 249
219 234 250
216 231 244
218 232 245
218 233 249
220 235 254
220 235 252
218 233 248
219 233 248
219 233 249
218 233 246
217 232 244
218 233 246
217 232 242
218 233 248
217 232 245
219 233 248
218 233 249
220 234 250
216 231 244
218 233 248
218 233 248
219 234 250
219 234 250
219 234 248
220 234 250
218 233 245
215 230 244
210 225 244
214 229 246
218 232 246
210 225 240
217 232 248
213 227 246
212 227 236
209 224 236
215 229 243
212 226 245
213 227 243
212 226 238
215 228 243
206 220 238
191 209 176
179 201 108
197 217 194
212 230 252
210 228 253
208 226 249
209 227 252
213 231 254
208 226 250
210 228 252
144 163 194
130 152 186
59 94 139
60 95 140
61 96 148
58 93 150
58 93 143
59 95 150
59 95 148
58 93 153
58 93 150
56 90 139
86 114 170
215 232 255
216 233 255
218 234 255
105 129 171
58 93 142
59 94 140
61 97 151
62 98 154
61 96 150
61 96 147
60 96 137
60 96 141
61 95 139
61 96 147
61 97 148
60 95 142
60 96 143
61 96 149
61 95 135
60 95 143
61 96 149
59 94 135
62 97 148
59 94 140
60 95 139
62 97 147
60 95 145
61 96 144
59 93 131
61 96 147
61 96 147
60 95 137
61 96 144
60 94 137
61 96 144
62 97 149
60 95 139
60 95 141
61 96 142
60 95 148
61 97 145
61 96 147
60 95 143
61 97 148
59 93 135
61 96 147
60 95 143
61 96 145
61 96 147
61 97 147
61 96 145
60 95 133
60 95 133
61 96 131
61 95 141
60 95 136
61 96 147
62 97 150
59 94 136
61 96 147
61 96 139
62 98 157
60 95 138
62 97 147
61 95 146
60 95 140
60 95 140
60 95 137
62 97 147
61 96 143
60 94 130
61 95 142
60 95 144
59 93 137
61 95 141
61 96 142
60 94 138
60 95 143
60 95 140
60 95 142
61 96 145
61 94 142
61 96 148
59 93 134
60 93 145
62 97 149
61 94 138
59 93 129
59 93 132
60 94 140
59 92 138
59 92 138
59 92 137
60 93 140
59 91 129
60 94 139
59 92 131
58 90 133
59 92 139
58 90 134
58 91 131
57 88 133
57 89 132
56 85 128
102 122 151
210 224 241
170 176 168
157 166 163
150 158 155
138 147 148
150 158 157
133 142 141
135 144 142
132 142 145
125 134 128
119 128 126
131 139 130
137 145 138
131 140 137
132 139 131
135 141 124
121 128 112
118 124 104
135 141 122
137 142 122
131 134 104
135 139 112
147 150 119
134 139 110
136 141 116
133 136 101
137 138 97
147 148 111
146 148 111
142 144 110
149 150 108
151 152 110
144 144 101
147 147 97
151 150 100
148 147 100
152 151 100
147 146 92
145 146 96
157 154 99
156 152 95
157 155 97
159 156 93
158 156 97
161 158 103
158 155 103
165 163 109
165 162 99
158 155 93
159 155 93
157 155 93
163 159 101
165 161 99
169 164 96
164 159 94
166 161 93
165 161 97
169 163 95
165 160 93
168 163 96
165 160 92
170 165 98
167 163 95
167 162 92
171 165 90
169 164 98
173 167 98
172 166 94
172 167 98
174 168 99
170 166 97
170 165 95
169 164 86
169 164 89
175 169 101
173 168 97
176 170 99
172 166 93
174 169 97
172 168 103
173 167 97
173 167 96
173 168 99
173 168 98
173 168 97
176 170 105
175 169 100
174 168 99
174 169 99
176 170 103
174 168 97
175 169 101
179 174 112
176 171 104
177 173 111
175 169 98
176 172 109
176 172 115
175 169 102
172 168 100
175 169 100
179 173 110
174 168 97
178 172 107
173 170 106
178 173 112
174 168 101
177 174 116
179 174 113
178 175 117
178 175 120
175 171 109
175 172 114
179 175 118
178 173 106
179 175 118
173 169 101
177 174 118
178 174 116
178 173 114
178 174 115
180 176 120
179 174 116
183 180 134
174 171 106
182 178 124
182 178 123
180 178 127
177 173 115
179 174 113
181 178 126
183 178 124
181 178 124
180 174 113
183 181 137
180 177 122
187 184 140
181 178 127
179 176 122
185 186 151
185 183 141
185 184 142
185 184 142
183 182 139
182 178 127
181 178 128
186 186 149
186 184 140
185 184 141
216 233 255
216 233 255
216 233 255
217 233 255
217 233 255
217 233 255
217 233 255
217 233 255
216 233 254
216 233 254
216 233 254
217 233 255
217 233 255
217 233 255
217 233 254
216 233 254
216 233 254
217 233 255
216 233 254
216 233 255
217 233 255
217 233 255
217 233 255
217 233 255
217 233 255
217 233 255
206 224 220
210 226 231
219 234 252
218 232 250
219 233 252
219 233 251
214 228 248
216 231 246
216 230 248
218 232 250
213 227 244
216 230 250
219 233 252
217 231 251
215 229 249
219 233 252
216 231 249
220 234 254
213 227 246
215 230 251
218 232 250
214 228 247
214 229 248
215 229 248
220 235 254
214 228 246
218 232 252
217 231 251
220 235 254
216 231 249
216 230 250
212 226 246
216 230 250
216 231 251
213 227 247
217 231 250
219 233 253
215 229 249
216 231 249
217 232 251
218 232 252
214 229 245
216 231 248
216 230 245
219 234 252
220 234 252
220 234 250
216 231 245
220 235 252
217 232 246
217 232 245
219 233 248
218 233 252
219 234 250
220 234 252
219 234 252
218 233 245
220 234 250
219 234 250
220 234 252
216 231 244
219 234 250
219 234 249
218 232 245
218 233 249
219 233 248
220 234 250
219 233 246
217 232 246
221 235 254
219 234 249
220 234 250
218 233 245
219 233 246
219 234 250
218 233 249
218 233 248
220 234 252
219 234 252
219 233 246
218 233 245
216 231 245
218 233 249
215 230 250
217 232 249
220 234 250
214 229 243
217 232 244
215 229 246
216 230 244
216 231 248
215 229 243
209 223 238
218 232 243
215 229 244
211 225 243
211 225 245
207 220 240
187 206 174
187 208 145
207 225 233
211 228 252
208 225 251
213 231 255
212 230 254
210 228 250
211 228 252
151 171 201
142 163 202
72 103 146
60 95 152
61 96 149
56 90 147
57 92 134
59 94 143
57 92 147
58 93 145
58 93 148
55 89 136
57 91 145
191 208 235
217 233 255
218 234 255
84 112 155
60 95 147
60 96 155
60 94 139
60 95 143
60 95 145
61 96 148
60 95 149
61 96 143
61 97 148
59 94 131
61 96 147
60 95 137
59 94 136
61 97 148
60 95 143
61 96 139
61 96 139
61 97 147
61 96 140
59 94 135
62 97 147
62 98 151
60 95 131
61 97 152
61 96 143
62 97 152
60 95 140
60 95 134
60 95 137
60 95 139
61 96 145
61 96 152
61 96 147
61 96 136
61 97 144
60 94 136
61 96 142
61 97 148
61 96 143
59 94 137
61 96 140
61 96 141
60 95 145
61 95 137
61 96 142
59 94 137
60 95 144
60 95 129
62 97 149
62 98 154
60 96 145
61 96 140
61 96 149
62 98 152
60 95 136
61 96 145
61 97 150
60 95 148
61 96 143
61 95 144
60 94 138
61 95 140
60 94 136
58 92 124
60 94 140
61 96 147
60 95 141
61 96 146
60 95 138
61 96 140
61 95 142
60 95 141
62 96 149
60 94 133
60 95 137
62 97 151
60 93 134
59 93 133
60 93 135
62 96 143
60 95 141
60 94 144
60 93 135
59 93 132
60 93 132
59 93 135
59 92 136
60 95 140
61 95 149
59 92 137
59 92 138
58 90 128
56 87 116
59 92 136
59 90 136
59 90 134
57 89 132
58 88 133
56 86 125
55 85 118
76 98 125
203 215 227
158 164 155
153 160 156
146 153 151
139 148 149
130 139 136
143 151 151
120 130 128
139 149 150
123 133 129
128 138 138
128 136 132
130 140 140
120 129 118
114 120 103
127 134 120
118 126 118
123 129 114
128 134 116
128 133 105
133 139 118
121 125 99
141 145 128
131 135 107
132 134 98
139 140 107
139 142 115
143 144 108
145 145 101
149 149 111
139 140 98
141 142 99
137 137 91
151 150 104
148 147 93
154 151 90
151 149 95
152 151 102
145 143 93
160 158 106
159 156 98
154 151 91
153 149 96
160 156 94
163 160 104
158 155 94
164 160 99
161 157 97
162 158 96
160 155 94
162 157 89
162 157 91
169 164 104
167 164 99
165 160 87
164 159 87
164 160 94
162 158 90
171 165 96
163 158 85
166 161 89
174 167 98
173 166 93
165 159 92
169 163 92
167 161 85
170 165 97
173 167 96
168 163 94
170 164 96
171 165 93
170 165 93
168 162 93
170 164 88
168 163 90
170 165 95
175 168 95
172 166 95
173 167 93
176 170 99
174 168 98
175 168 97
170 165 96
173 168 99
176 169 97
181 174 110
177 172 108
173 168 99
176 170 103
177 171 102
174 168 96
178 172 106
176 170 101
176 170 104
174 168 99
173 167 91
177 171 104
176 172 109
176 170 104
178 172 106
175 169 99
176 171 104
177 172 112
179 175 117
175 170 105
178 174 118
177 173 110
178 172 108
174 168 98
173 168 102
176 170 106
176 171 108
175 171 104
180 175 118
180 176 121
180 176 122
176 171 107
177 174 121
176 171 105
179 176 121
181 177 122
181 178 127
178 174 117
184 179 127
178 175 118
175 170 104
181 179 129
180 176 122
178 176 124
176 172 116
177 172 106
181 176 121
182 181 138
179 175 119
180 178 128
182 180 135
184 181 134
180 175 117
177 173 112
176 172 112
177 176 124
181 178 125
185 181 132
181 180 136
184 182 136
183 181 134
183 179 128
179 176 120
183 182 139
217 233 255
217 233 255
217 233 255
218 233 255
218 233 255
217 233 255
217 233 255
217 233 255
217 233 255
217 233 255
217 233 254
217 233 255
217 233 255
217 233 255
217 233 255
217 233 254
217 233 254
217 233 254
217 233 255
217 233 254
216 232 253
217 233 254
217 233 255
217 233 255
217 233 255
217 233 255
213 229 241
217 231 249
221 236 255
217 232 250
219 234 252
217 232 252
217 231 250
217 231 249
216 230 250
219 233 253
215 229 248
217 231 249
219 233 252
217 231 250
216 230 250
212 226 244
218 233 252
216 230 248
217 231 250
217 231 250
215 230 248
218 232 252
212 226 245
216 230 250
219 234 254
216 231 250
221 235 255
216 230 250
219 234 254
221 235 255
212 226 244
216 230 250
214 229 250
214 229 248
219 233 253
214 228 247
214 228 248
213 228 248
218 232 252
220 234 253
217 231 249
216 230 249
217 231 250
215 229 249
219 234 250
219 233 248
219 234 249
219 233 250
219 234 249
217 232 245
219 234 249
217 232 244
221 235 253
217 231 244
218 233 249
220 235 252
220 235 253
219 234 249
218 233 248
220 235 253
219 234 249
220 235 253
219 233 248
216 231 241
220 234 252
219 234 250
218 233 248
218 233 248
219 234 250
220 235 252
219 234 250
220 234 252
220 234 250
218 233 245
217 232 248
220 235 252
220 234 253
220 235 253
220 235 253
218 233 246
219 234 250
217 232 244
215 230 245
215 230 244
215 230 246
213 228 244
216 230 242
216 230 246
214 229 242
221 235 255
216 231 246
219 233 249
219 233 249
210 225 233
211 225 243
213 227 242
215 228 244
206 220 232
205 219 236
200 218 188
197 217 202
215 232 255
212 229 252
213 230 254
210 228 252
211 228 253
213 230 253
168 187 216
135 155 183
100 126 170
59 94 148
59 95 144
58 92 145
59 93 146
57 91 142
58 93 140
57 91 142
58 92 146
56 89 148
57 92 145
151 171 201
217 233 255
208 224 246
60 94 145
60 95 149
60 95 139
60 95 133
61 97 149
60 95 145
61 96 144
60 95 143
61 96 147
60 95 143
60 95 141
60 96 141
60 94 137
61 95 143
60 95 141
61 96 141
60 95 141
62 98 153
60 95 144
61 96 151
61 96 142
60 94 135
60 96 140
60 95 140
60 95 140
62 98 155
61 95 140
60 95 141
61 95 133
60 95 134
60 94 131
61 96 141
60 95 137
61 96 140
60 94 139
60 95 137
59 94 134
60 94 137
59 94 133
61 96 148
61 96 136
61 96 148
61 96 142
60 95 136
61 96 145
61 95 139
61 95 139
60 94 131
61 96 148
60 95 136
60 94 138
60 95 139
61 96 143
61 96 145
62 97 143
61 96 142
61 96 145
60 94 141
61 95 135
60 95 134
59 94 135
61 96 145
62 97 154
61 96 148
61 96 145
60 94 136
59 94 126
60 94 132
60 94 132
61 96 141
61 96 135
61 95 141
60 95 133
61 95 142
60 95 135
59 93 137
61 96 140
61 95 140
59 93 141
62 97 158
60 95 134
60 93 144
61 96 145
59 93 136
59 92 129
59 92 127
60 94 138
59 93 133
59 92 130
60 93 136
59 93 138
57 90 130
58 91 132
57 89 130
58 91 139
60 93 140
58 90 135
59 91 132
59 91 133
56 86 128
57 87 127
52 80 121
187 198 205
175 183 181
153 162 160
144 153 155
140 150 153
137 146 146
128 137 135
120 130 131
131 141 142
132 143 146
123 133 129
126 134 129
122 130 122
135 145 146
134 142 134
120 127 116
136 143 132
120 125 102
138 143 122
137 140 114
127 131 100
135 139 113
124 129 108
143 146 117
133 135 100
146 148 119
144 145 111
139 139 95
137 138 91
145 146 101
150 150 106
142 142 101
151 149 96
145 145 97
154 153 109
149 149 96
152 151 103
146 144 92
158 156 103
137 136 77
156 152 92
147 145 89
156 153 88
157 153 94
162 158 93
159 155 91
160 156 95
155 152 90
158 154 87
161 159 96
164 161 103
163 158 88
160 156 88
162 159 100
160 156 93
165 161 89
171 165 97
167 162 93
166 161 92
165 161 94
168 162 85
168 162 94
170 164 92
169 164 99
166 161 93
169 164 92
174 167 88
166 161 86
172 166 92
169 163 95
173 167 95
173 167 97
175 169 103
171 166 99
170 165 94
172 166 90
170 164 93
173 167 96
169 164 88
173 167 96
172 165 90
170 165 94
174 169 101
173 167 93
172 169 105
174 168 97
173 167 91
177 172 109
177 170 99
174 170 106
177 171 103
174 170 104
173 168 95
171 165 90
174 169 99
175 168 97
180 175 118
173 167 93
173 170 106
177 171 103
175 169 101
178 173 109
177 172 108
174 170 100
174 170 103
178 173 108
179 174 112
174 168 99
177 172 106
179 173 109
180 176 120
177 171 104
178 174 120
178 173 110
178 175 116
179 174 118
177 173 111
177 174 117
177 172 109
181 177 118
177 171 105
179 174 112
180 177 124
178 175 119
179 175 120
182 179 127
178 175 120
180 178 126
181 180 135
182 179 127
179 175 120
177 174 117
182 178 126
179 175 118
179 178 127
175 171 106
179 176 123
180 177 125
179 174 116
182 180 134
179 175 118
181 179 133
180 178 129
180 176 121
182 179 129
178 176 123
182 181 136
182 181 134
182 182 139
218 234 255
218 233 255
218 234 255
218 234 255
218 234 255
218 234 255
218 234 255
218 234 255
218 234 255
218 234 255
218 234 255
218 234 255
218 234 255
218 234 255
218 234 255
218 234 255
217 233 254
218 234 255
218 234 255
218 234 255
218 234 255
218 234 255
217 233 254
217 233 254
218 234 255
218 234 254
217 233 250
218 233 252
219 233 252
220 234 254
217 232 252
219 233 252
216 230 248
215 229 250
217 231 252
220 234 254
215 229 247
213 227 246
218 232 252
218 232 252
219 233 253
215 229 248
217 231 250
218 232 251
216 230 249
220 234 254
216 230 250
217 232 251
213 228 249
212 227 248
213 228 246
213 228 247
218 233 253
212 226 248
214 229 250
216 230 251
211 225 246
214 228 248
218 233 252
215 230 250
217 231 250
217 231 252
214 228 249
213 227 246
215 230 249
217 231 251
215 229 249
217 232 251
216 231 251
217 231 248
216 231 248
218 233 249
219 234 250
217 232 244
218 233 250
220 235 252
219 234 249
221 235 254
218 233 248
218 233 248
216 232 241
220 234 252
219 233 250
216 231 242
217 232 245
218 233 248
220 234 250
218 232 248
219 234 250
221 235 254
219 234 249
217 232 244
218 233 249
220 235 253
220 234 252
218 233 246
220 234 250
219 233 249
218 233 248
219 233 249
220 234 250
219 234 250
217 231 242
220 235 253
219 234 249
219 234 250
218 233 248
214 229 243
219 234 248
218 232 247
216 231 246
218 233 247
216 231 248
218 233 246
216 231 247
215 229 248
207 221 236
211 226 240
211 226 243
211 226 240
210 224 240
210 225 241
212 227 242
205 219 240
203 218 238
211 226 243
200 219 193
214 231 254
214 231 254
216 232 255
213 230 252
214 230 254
213 230 254
178 196 219
137 158 201
108 132 175
58 93 140
60 95 142
57 91 139
59 94 141
58 92 142
56 90 132
60 94 144
59 94 151
56 90 143
57 91 134
107 131 173
217 233 255
190 207 231
60 96 151
59 94 136
60 94 145
61 96 144
61 96 146
59 93 132
61 96 149
60 95 148
60 95 137
61 96 146
61 96 144
60 94 139
60 95 136
59 93 133
60 96 141
60 95 140
60 95 139
62 98 153
60 94 134
62 97 149
61 96 143
61 97 148
61 97 151
60 95 143
60 95 131
61 96 144
59 94 130
60 95 141
61 96 140
61 97 147
61 97 144
61 97 152
60 95 139
62 97 144
60 95 135
60 96 149
60 95 143
61 97 144
61 96 141
61 96 147
60 95 139
61 96 141
61 96 143
62 97 148
61 96 147
61 95 145
61 96 135
61 96 141
59 94 130
62 97 148
60 95 140
59 94 134
59 94 135
60 95 135
61 96 142
61 96 144
60 95 136
61 96 148
61 96 142
60 95 137
60 95 134
60 95 140
61 96 142
61 95 145
60 95 142
61 96 149
61 96 147
61 95 142
61 96 145
59 94 134
59 93 121
60 95 142
60 95 143
61 96 145
61 95 144
61 96 143
61 95 143
60 95 145
60 94 136
61 95 142
60 94 142
60 95 144
59 92 141
60 94 140
60 95 145
59 94 142
60 95 144
60 93 140
60 95 142
59 93 133
59 92 133
58 91 133
60 93 145
58 90 124
59 91 133
59 91 129
59 91 135
57 89 129
58 89 133
56 86 122
55 86 134
52 79 109
152 162 164
155 164 164
143 151 150
147 157 163
127 136 142
117 127 129
107 117 117
121 130 130
116 125 123
120 130 131
132 142 138
119 127 120
124 134 131
117 126 121
117 124 116
133 140 125
134 140 127
127 134 117
110 114 89
131 135 107
137 142 122
137 139 110
139 143 117
124 129 104
137 139 104
128 131 99
139 142 107
136 139 104
137 137 94
144 145 109
140 142 102
155 153 101
143 141 88
133 134 91
149 149 115
148 148 105
151 150 99
152 150 91
150 148 96
154 151 90
144 142 78
154 151 93
139 137 79
162 158 94
149 146 84
156 153 94
157 152 90
164 160 98
161 158 95
155 151 89
158 154 92
158 155 82
158 155 83
165 161 94
160 155 89
168 163 95
162 157 95
163 159 86
164 159 86
163 158 87
170 164 91
164 160 92
171 165 96
168 163 87
168 163 91
168 163 94
167 161 86
169 164 94
171 165 90
168 162 84
170 164 93
169 163 93
171 165 94
167 162 86
175 169 99
176 170 102
169 164 89
177 168 95
172 165 89
174 168 97
173 168 100
173 167 94
174 166 90
170 165 91
172 167 95
173 166 90
172 167 94
176 171 103
173 167 94
176 171 110
172 166 90
175 170 104
176 170 102
177 170 102
178 173 112
176 170 102
177 170 98
176 171 108
173 168 95
175 171 108
175 169 103
174 169 101
178 173 110
175 170 104
175 169 99
180 176 118
177 172 106
173 168 104
174 169 104
177 171 105
178 173 109
182 177 117
176 171 104
177 174 114
177 171 103
175 170 101
178 173 112
176 173 115
173 168 95
180 177 123
179 177 125
183 180 131
173 168 101
176 170 99
182 178 125
180 176 123
176 173 112
179 176 122
176 174 121
181 175 116
179 176 123
181 179 132
181 179 127
181 180 132
180 176 123
179 175 119
182 181 137
179 176 121
183 180 132
177 173 113
184 183 140
178 176 122
181 178 125
183 179 127
184 181 134
179 177 126
183 181 134
186 184 142
178 178 133
218 234 255
218 234 255
218 234 255
218 234 255
218 234 255
219 234 255
218 234 255
218 234 255
218 234 255
218 234 255
218 234 254
218 234 255
218 234 255
218 234 255
218 234 255
218 234 255
218 234 255
218 234 255
218 234 255
218 234 255
218 234 255
218 234 255
218 234 255
218 234 255
218 234 255
219 234 254
219 233 252
218 232 251
216 231 250
214 229 248
217 231 251
218 233 251
220 234 253
216 231 252
219 233 252
219 233 252
219 233 253
218 232 252
213 228 247
220 234 254
222 236 255
216 230 250
214 229 248
218 232 251
219 233 252
214 229 248
218 232 252
215 229 249
215 230 250
214 229 249
218 233 253
216 230 249
215 230 248
214 228 247
215 229 249
213 227 247
216 231 251
215 230 250
219 234 254
215 230 251
216 230 251
215 229 249
216 230 250
214 228 248
217 231 251
216 231 250
216 231 249
216 230 250
216 231 251
216 230 250
217 232 250
216 231 246
219 234 249
221 235 254
219 234 250
219 233 248
217 232 244
218 233 245
219 234 249
220 234 250
220 235 253
218 233 248
218 233 248
220 234 252
218 233 249
219 234 250
218 233 249
219 234 249
218 233 246
218 233 245
220 234 252
219 234 249
218 233 248
218 233 245
217 232 244
220 234 252
219 234 249
219 233 249
217 232 245
217 232 244
219 234 249
220 234 250
218 233 246
219 234 250
219 233 249
220 234 252
218 233 245
216 231 248
215 230 244
216 231 246
211 226 240
217 232 246
216 230 248
214 229 242
215 229 242
211 226 239
213 228 238
211 225 241
213 227 242
213 227 241
212 226 244
219 233 247
211 226 239
214 228 245
210 224 243
209 222 241
215 230 244
215 231 252
216 232 254
214 230 252
216 232 255
217 233 255
215 231 254
194 212 236
122 142 177
134 154 195
59 94 151
57 91 144
58 92 141
59 93 145
58 93 144
56 90 138
57 91 144
57 91 144
56 90 146
56 89 148
61 93 143
208 224 247
180 197 223
60 95 136
60 95 148
60 94 145
60 95 137
60 95 144
61 96 151
60 96 143
61 96 148
61 96 145
59 94 139
60 95 141
60 95 141
62 97 146
60 95 143
61 96 144
60 94 135
62 97 150
61 96 145
60 95 139
61 96 150
60 95 141
60 95 137
60 95 137
60 95 141
59 93 121
60 95 140
62 97 150
60 95 136
60 95 133
61 96 142
62 97 147
61 96 142
60 95 140
61 96 140
59 94 129
60 95 135
60 94 133
60 94 137
60 95 140
61 96 144
60 95 147
61 96 147
59 94 139
60 95 133
60 95 134
59 94 128
61 96 136
61 97 147
61 97 147
60 94 135
60 95 136
61 96 147
59 93 125
60 94 135
61 96 136
60 95 136
61 96 142
61 96 147
60 94 136
59 93 126
61 96 151
60 95 139
60 95 142
61 96 145
60 95 137
61 96 144
61 97 143
60 94 128
61 95 138
60 94 141
61 96 145
60 94 133
60 94 134
60 93 137
61 96 143
61 96 145
60 94 139
60 94 143
60 94 135
61 94 142
60 94 139
61 95 138
60 95 140
59 93 136
61 94 136
60 94 139
58 91 136
58 91 124
60 95 143
58 91 128
61 94 148
59 93 128
59 92 138
58 91 132
58 91 124
58 90 130
57 88 124
56 87 123
57 87 133
57 87 123
53 81 116
53 81 121
152 163 168
174 183 181
133 142 141
136 145 148
127 135 135
128 138 141
124 134 139
116 125 125
128 138 141
124 134 135
116 127 129
118 127 121
114 123 118
106 116 109
136 144 134
124 130 114
110 119 108
121 127 110
128 135 122
128 134 115
127 131 108
129 133 102
125 130 102
132 134 93
138 141 107
137 140 103
143 142 97
133 134 89
136 136 90
150 150 103
146 146 106
147 146 94
143 143 94
145 145 96
148 146 93
147 146 97
157 154 94
150 148 90
161 159 104
147 147 94
153 151 97
154 151 87
149 147 95
148 146 81
163 157 87
163 158 94
160 156 94
165 160 95
156 154 97
161 157 91
163 158 94
155 152 85
159 155 91
167 162 91
163 159 95
159 155 88
163 158 91
165 159 87
168 162 97
170 164 92
165 159 84
166 161 91
165 160 89
167 162 93
164 159 90
172 164 87
167 162 90
172 165 94
167 161 89
170 164 90
170 165 89
163 159 84
172 165 93
169 163 91
168 162 89
173 167 91
173 166 92
168 163 94
176 169 98
174 169 101
172 166 93
177 170 100
173 168 95
174 168 95
174 168 101
175 168 95
170 166 95
176 170 101
173 167 93
173 167 94
174 168 93
175 168 95
175 169 98
172 168 99
173 168 100
174 168 99
175 168 94
174 168 101
174 169 99
178 172 107
176 170 102
174 168 103
175 169 102
174 168 101
177 172 109
175 169 97
177 174 115
179 176 121
178 172 108
176 172 109
175 168 99
174 171 111
179 174 113
175 171 106
179 174 116
179 175 116
176 172 108
178 174 112
178 175 119
179 177 124
175 171 112
180 176 121
179 176 120
176 174 116
175 171 107
182 180 129
178 175 118
181 176 115
179 175 118
179 175 117
181 178 124
179 176 122
184 182 136
183 180 135
178 176 127
182 181 135
181 178 130
181 177 124
183 180 130
178 175 117
181 179 133
182 178 126
181 181 139
181 180 134
176 172 109
184 181 133
180 179 129
186 186 148
181 178 126
219 234 255
219 234 255
219 234 255
219 234 255
219 234 255
219 234 255
219 234 255
219 234 255
219 234 255
219 234 255
219 234 255
219 234 255
219 234 255
219 234 255
219 234 255
219 234 255
219 234 255
219 234 255
219 234 255
219 234 255
219 234 255
219 234 255
219 234 255
219 234 255
219 234 255
220 235 255
218 232 253
220 234 253
218 233 253
220 235 254
218 233 254
213 228 249
219 233 254
221 235 255
211 226 245
216 231 250
217 231 252
216 231 250
216 231 251
214 229 249
219 233 252
213 228 246
216 231 251
218 233 253
217 232 252
215 230 250
214 228 248
214 229 248
217 232 252
219 233 252
217 231 251
218 232 253
219 233 253
214 228 248
218 233 254
216 230 251
213 227 248
219 233 254
217 232 252
215 229 250
216 231 252
221 236 255
216 230 250
219 234 254
218 232 252
219 234 254
219 234 254
218 233 250
215 230 249
217 231 251
215 230 248
215 230 247
219 234 249
218 233 245
218 233 246
220 234 252
220 234 250
219 234 249
220 234 250
219 234 250
218 233 249
218 233 246
219 234 250
220 234 252
218 233 245
219 234 249
219 234 250
219 234 249
218 233 246
219 233 248
219 234 249
219 234 249
219 234 249
218 233 246
219 234 249
220 234 250
219 234 249
219 234 249
219 234 249
219 234 249
217 232 242
218 233 245
219 233 248
218 233 245
217 232 244
218 233 246
217 232 248
217 232 247
217 232 249
216 230 246
215 230 246
214 229 243
212 227 239
217 231 246
215 230 246
213 228 243
215 230 246
214 229 243
213 227 243
213 228 247
215 229 245
214 229 245
214 229 244
202 217 231
205 220 236
204 219 233
218 233 252
219 234 255
212 228 251
215 231 252
216 232 254
215 231 254
216 232 254
201 217 241
114 136 173
123 144 181
59 94 137
59 94 147
61 95 152
57 92 143
58 93 145
59 93 136
59 93 138
58 92 146
56 90 145
57 90 146
55 88 147
179 196 226
178 195 224
60 94 140
59 94 136
59 94 143
62 97 154
61 96 144
61 96 144
60 95 141
60 94 139
59 93 140
59 94 139
60 95 137
61 96 147
59 93 126
60 95 137
59 94 129
61 96 144
60 94 129
61 96 140
59 94 137
60 95 137
61 96 144
61 97 147
62 98 150
60 95 135
62 97 142
61 96 145
60 95 140
60 95 139
60 94 131
60 94 137
59 93 130
60 95 135
59 94 131
61 96 144
62 96 143
57 91 118
60 94 129
60 95 137
60 94 128
60 96 143
61 96 136
60 95 142
61 96 141
59 94 125
59 94 134
60 94 129
60 94 136
61 96 140
60 95 140
59 93 125
61 95 141
60 94 134
61 96 144
59 93 128
60 95 136
60 94 134
61 96 148
61 95 141
59 93 128
61 96 147
60 95 135
60 94 129
60 94 135
61 96 142
61 96 151
59 94 140
59 93 133
61 96 148
61 95 135
59 92 121
60 95 146
59 94 136
59 93 129
60 94 134
60 95 139
61 95 148
60 94 142
61 95 144
59 94 137
59 93 139
61 96 146
61 94 136
60 93 131
59 92 132
60 94 142
59 92 125
59 93 138
59 92 136
59 93 131
58 91 126
60 93 143
59 92 138
57 90 123
59 93 141
58 90 122
58 90 128
60 93 144
57 88 126
55 85 123
55 84 119
56 86 125
54 84 121
132 143 151
155 164 162
142 150 151
135 145 149
145 155 163
128 137 142
129 139 145
113 123 122
121 130 132
138 148 149
122 131 126
117 125 118
120 129 125
127 137 137
111 120 110
127 135 127
119 126 113
123 129 107
127 131 113
127 133 116
110 117 93
125 129 104
137 142 119
134 137 109
143 145 118
129 132 97
142 143 102
128 132 102
140 140 98
144 144 102
141 142 100
138 140 107
149 148 104
147 144 91
142 141 87
145 144 93
144 143 96
144 142 88
160 156 94
158 155 95
157 154 92
160 156 91
152 149 85
152 150 86
162 158 100
154 151 91
155 152 90
160 156 96
158 154 88
154 151 77
162 158 89
157 153 87
162 158 93
160 156 85
163 157 89
157 154 84
164 159 88
160 156 84
166 161 87
170 164 91
165 160 86
158 154 80
170 164 100
166 160 87
165 159 92
168 162 90
172 165 91
169 163 90
175 168 91
167 161 89
173 166 93
167 162 89
171 164 87
169 163 89
168 162 87
172 166 94
175 169 101
170 164 90
172 166 91
174 168 95
171 165 87
175 170 103
172 166 90
170 165 94
169 164 89
175 169 97
172 166 98
175 169 99
179 173 110
176 169 95
173 167 99
176 171 109
174 168 97
177 170 102
176 171 106
174 167 93
174 169 106
174 168 93
176 170 105
175 169 99
179 174 113
172 166 91
173 168 98
176 169 100
175 169 103
175 171 108
179 176 121
176 172 108
177 172 108
178 173 110
174 169 100
178 173 110
173 169 101
172 167 96
178 174 112
179 174 115
174 170 102
177 174 115
175 170 101
183 179 131
175 170 106
176 172 110
173 169 99
180 176 118
180 175 117
180 176 120
180 176 118
182 179 130
184 182 137
175 171 111
184 180 131
180 177 123
181 177 124
184 180 129
179 175 119
178 176 128
177 174 117
182 178 124
177 174 118
178 176 123
181 178 126
182 180 132
180 178 131
183 180 133
181 178 127
183 179 127
180 177 125
183 180 130
181 179 130
219 235 255
218 233 254
220 235 255
220 235 255
220 235 255
220 235 255
220 235 255
220 235 255
219 235 255
220 235 255
220 235 255
220 235 255
219 235 255
219 235 255
220 235 255
220 235 255
220 235 255
219 235 255
220 235 255
220 235 255
220 235 255
220 235 255
219 235 255
219 235 255
219 235 255
221 235 255
220 235 254
218 233 252
221 235 254
219 233 253
217 232 252
217 232 250
214 229 250
220 234 254
219 233 254
216 231 252
217 232 252
220 235 254
217 232 252
221 235 255
216 230 250
214 229 248
214 228 247
218 233 253
215 229 249
219 234 253
217 232 252
219 233 254
218 232 252
213 228 249
216 230 250
215 230 249
220 235 255
214 228 249
216 230 250
217 232 251
215 230 250
216 230 250
219 234 254
218 233 253
213 228 250
218 233 252
217 231 251
216 230 251
217 231 251
213 227 248
216 230 251
218 232 252
218 232 252
217 232 252
219 234 254
220 234 255
220 235 254
220 234 252
221 235 253
220 235 253
221 235 254
221 235 254
219 233 246
219 234 249
220 234 250
221 235 254
221 235 254
220 235 253
221 236 255
220 235 253
220 235 252
220 234 252
219 234 249
219 234 249
219 233 248
218 233 246
220 234 252
219 234 248
218 233 245
219 234 250
219 234 249
219 234 250
220 235 253
220 235 252
220 235 252
221 235 254
220 234 252
220 235 252
218 233 248
221 235 253
214 229 246
217 232 246
210 225 241
218 233 248
218 233 252
219 234 254
217 231 250
216 231 247
216 230 249
213 227 247
213 228 245
208 223 242
216 230 250
215 230 243
214 228 248
214 228 243
210 225 245
213 227 248
208 223 243
208 222 243
217 231 252
218 233 253
215 231 253
217 233 255
217 233 254
214 230 253
216 232 254
214 230 252
138 158 188
131 150 183
59 93 141
60 95 148
58 93 139
57 91 138
60 96 150
59 93 147
58 91 140
56 90 132
55 88 141
56 88 137
55 88 137
161 179 208
164 181 209
60 95 146
60 94 139
58 92 135
60 95 139
60 95 135
59 94 134
61 96 140
62 97 149
59 93 142
60 94 134
60 95 130
60 94 140
60 94 135
59 94 131
60 95 140
60 95 139
57 92 129
60 95 140
60 96 143
61 95 139
60 95 136
59 94 129
61 96 139
59 93 133
61 96 142
60 94 128
61 96 145
59 94 128
60 95 142
61 96 144
60 94 133
62 97 150
61 96 142
61 96 139
61 96 151
59 93 137
61 95 140
60 95 147
61 96 137
61 96 140
61 96 139
60 95 139
61 96 140
61 96 142
60 95 137
61 96 135
61 96 150
60 95 139
60 94 134
61 96 140
61 96 142
60 95 142
60 95 140
59 94 126
61 96 143
60 95 135
60 94 140
61 96 137
59 93 131
60 94 141
61 95 142
58 92 126
62 97 151
60 94 136
60 95 139
60 95 139
59 94 134
60 94 130
60 94 133
59 94 135
61 95 133
58 92 121
61 95 140
61 95 142
60 95 128
59 93 138
58 92 126
61 96 146
60 94 142
58 92 128
60 93 133
60 94 139
61 95 148
60 94 139
60 93 138
60 93 140
59 93 133
58 91 135
60 94 136
59 92 132
57 90 123
61 95 139
58 91 132
59 91 132
56 88 126
58 90 130
59 91 133
58 88 124
57 89 130
56 86 128
54 83 108
53 82 119
131 142 148
148 155 154
149 159 161
144 152 156
130 141 146
136 147 155
136 146 149
119 130 135
129 138 138
114 123 122
122 132 132
116 126 125
114 123 119
116 124 113
111 121 115
128 134 117
121 127 109
128 132 112
124 129 107
123 126 100
131 133 97
128 130 97
124 128 99
120 124 97
132 135 103
132 133 96
132 134 100
134 134 91
130 132 93
141 142 97
141 142 99
147 145 88
148 148 104
149 148 97
150 148 98
143 141 86
143 142 98
151 148 96
144 143 89
149 145 83
150 148 94
150 147 93
150 147 84
153 149 79
158 154 93
158 155 98
148 147 82
161 157 94
155 153 93
171 165 92
157 153 80
163 159 91
161 156 88
164 159 87
164 159 91
159 154 84
167 162 92
164 159 87
168 163 88
169 163 97
168 162 84
166 161 89
167 162 94
164 159 85
171 165 92
166 161 86
170 163 87
171 164 90
164 158 84
166 160 81
165 160 84
172 165 92
173 167 93
169 163 83
171 164 91
170 164 90
171 166 93
172 166 90
173 167 93
173 168 95
172 166 91
174 167 96
169 164 87
170 164 91
176 169 97
176 170 103
174 168 98
174 168 94
176 170 104
177 171 102
176 169 100
177 172 106
173 165 87
172 166 90
170 166 91
178 172 101
172 167 97
172 168 100
178 171 105
176 171 108
172 168 95
180 174 111
178 174 115
175 169 99
174 168 99
174 168 99
173 166 90
174 168 104
176 172 113
174 168 95
175 169 102
180 174 114
177 172 109
180 175 113
176 172 113
179 175 120
173 169 99
173 169 102
177 173 112
183 179 128
181 179 130
176 173 115
175 173 123
174 171 110
176 172 110
178 173 114
177 173 114
177 175 115
182 180 134
179 174 116
180 176 121
177 173 112
179 175 116
177 175 120
180 178 128
179 175 118
183 178 123
184 180 130
178 172 110
176 173 117
182 180 136
179 178 127
180 177 123
181 179 131
179 176 121
182 181 137
184 182 135
180 177 122
183 182 141
220 235 255
220 235 255
220 235 255
220 235 255
220 235 255
220 235 255
220 235 255
220 235 255
220 235 255
220 235 255
220 235 255
220 235 255
220 235 255
220 235 255
220 235 255
220 235 255
220 235 255
220 235 255
220 235 255
220 235 255
220 235 255
220 235 255
220 235 255
220 235 255
220 235 255
221 235 255
220 235 255
220 235 255
217 232 251
215 229 249
216 231 251
214 229 250
213 228 250
216 231 250
218 233 253
218 233 252
218 233 252
217 231 251
217 232 252
212 227 248
212 226 246
213 228 249
216 231 251
217 232 252
211 225 246
216 231 252
218 233 253
217 232 253
218 232 252
219 234 254
220 235 255
214 229 249
213 227 249
217 232 252
212 226 246
215 229 250
214 228 249
216 230 250
214 228 250
219 234 254
219 233 253
214 228 248
217 232 253
219 233 253
220 235 255
216 230 251
216 231 252
217 232 253
218 233 253
219 234 254
217 232 252
217 232 252
221 235 255
221 236 255
221 236 255
221 236 255
221 235 255
221 236 255
221 236 255
222 236 255
221 236 255
221 236 255
221 236 255
221 236 255
221 236 255
221 236 255
221 236 255
220 234 252
220 235 253
221 236 255
221 236 255
221 236 255
220 235 253
221 235 254
221 236 255
221 236 255
221 236 255
221 236 255
221 236 255
221 236 255
221 236 255
221 236 255
221 235 254
221 235 254
221 235 254
221 236 255
221 236 255
216 231 251
214 229 248
219 234 254
214 229 250
216 231 252
219 233 252
212 226 247
217 232 252
221 235 254
214 229 250
216 231 252
210 225 245
213 228 248
217 231 252
220 234 254
215 229 249
209 223 242
210 225 245
198 213 236
214 228 248
220 234 255
218 234 255
216 232 252
218 234 255
219 234 255
214 230 252
211 226 248
112 135 175
141 159 187
59 93 137
58 92 136
58 92 146
58 91 137
59 92 140
59 93 137
59 92 137
56 89 144
54 86 140
54 86 139
55 87 138
153 170 200
168 185 215
60 95 140
61 95 146
58 93 134
60 95 141
59 94 134
58 92 129
60 94 136
60 95 140
61 96 141
60 94 143
60 94 137
61 97 143
61 96 143
62 97 143
61 96 144
58 92 130
60 94 137
60 95 139
59 94 130
59 93 131
59 94 131
59 93 124
61 96 141
59 94 134
60 94 137
60 95 130
60 95 137
60 95 133
59 94 130
60 95 140
60 95 136
61 96 140
61 96 143
59 93 124
60 95 139
60 95 133
61 96 139
60 95 142
61 96 144
60 94 134
61 95 143
61 96 142
61 96 142
60 94 131
62 96 140
59 93 126
60 94 133
61 96 141
60 95 136
62 97 145
61 95 140
61 95 143
60 95 136
61 95 135
60 95 136
60 94 141
60 94 136
58 91 134
61 96 138
61 96 140
61 96 144
59 93 131
60 94 135
60 94 133
60 94 133
60 94 139
61 95 143
60 94 134
61 96 144
59 93 124
59 94 129
59 93 133
59 93 125
61 95 141
60 94 138
58 92 131
60 94 128
59 93 130
60 94 139
60 95 140
61 96 145
60 94 137
60 93 133
61 94 136
59 93 131
60 93 136
60 93 131
59 92 132
59 93 131
60 93 132
58 92 131
59 91 131
59 92 129
58 90 127
59 92 134
58 90 128
56 86 115
58 89 129
58 88 126
55 84 112
56 86 125
54 82 113
116 127 137
143 151 152
143 151 154
129 137 139
141 151 156
132 142 147
123 133 139
106 115 115
121 131 133
114 123 120
106 115 108
128 138 138
107 116 113
105 113 104
118 125 115
114 119 97
112 118 99
122 128 115
121 128 108
127 132 110
112 116 89
113 118 96
135 139 116
126 127 89
142 145 115
137 141 111
128 130 95
135 136 100
133 133 85
139 138 82
137 138 93
142 141 95
157 156 106
128 128 74
146 144 90
142 141 95
144 142 90
149 148 96
156 153 95
148 145 91
148 145 87
158 155 91
151 149 91
147 145 83
154 152 101
149 146 80
163 158 88
157 152 88
154 151 88
155 152 80
154 150 80
156 152 85
154 150 87
160 156 88
162 157 90
164 159 89
157 152 80
164 160 87
163 158 93
165 158 91
167 162 89
164 158 91
166 161 83
170 164 88
159 153 82
163 158 83
167 161 89
171 166 95
167 162 83
173 166 95
166 161 87
169 163 91
171 165 89
171 164 86
171 166 97
174 168 95
174 167 91
172 166 90
169 164 89
168 162 86
172 166 93
172 165 84
169 163 90
171 165 90
174 167 94
175 169 99
173 168 96
174 169 96
177 171 103
173 168 96
172 166 93
173 167 92
172 166 91
173 166 92
169 162 80
170 165 89
175 170 106
172 168 99
173 168 94
172 167 97
175 169 95
174 168 95
178 174 115
176 173 113
174 169 101
176 171 105
179 174 114
179 174 116
174 170 104
173 168 96
174 169 100
175 170 106
179 174 110
178 174 113
174 171 109
182 179 130
176 173 117
184 181 131
173 168 97
177 173 109
179 175 117
179 178 132
181 175 113
174 170 110
177 173 112
176 172 107
177 172 108
181 178 125
177 173 112
181 179 127
177 174 117
178 175 118
180 177 125
183 181 134
178 173 115
178 175 121
177 174 114
179 176 121
179 175 118
182 180 132
185 182 135
183 179 128
181 179 130
183 181 134
183 180 134
180 178 133
178 174 120
188 188 151
177 173 112
221 235 255
221 235 255
221 235 255
221 235 255
221 235 255
221 235 255
221 235 255
221 235 255
221 235 255
221 235 255
221 235 255
221 235 255
221 235 255
221 235 255
221 235 255
221 235 255
221 235 255
221 235 255
221 235 255
221 235 255
221 235 255
221 235 255
221 235 255
221 235 255
221 235 255
219 233 254
220 234 254
219 234 254
219 234 254
219 234 254
214 228 249
216 230 251
217 232 252
219 233 254
217 232 252
218 233 253
217 231 252
211 226 246
219 234 254
214 228 250
219 233 254
214 229 250
210 224 245
213 228 249
218 232 253
216 230 251
219 233 254
219 234 254
219 234 254
214 229 250
211 226 246
215 229 251
216 231 252
218 232 253
217 232 252
218 233 253
216 231 251
216 230 250
216 230 250
215 229 250
215 229 249
217 232 252
217 232 252
214 229 250
215 230 252
217 232 252
214 228 247
220 235 255
221 236 255
216 231 251
221 236 255
219 234 254
217 232 251
221 236 255
221 236 255
221 236 255
221 236 255
221 236 255
221 236 255
221 236 255
221 236 255
221 236 255
221 236 255
221 236 255
221 236 255
221 236 255
221 236 255
221 236 255
221 236 255
221 236 255
221 235 255
221 236 255
221 236 255
221 236 255
221 236 255
221 236 255
221 236 255
221 236 255
221 236 255
221 236 255
221 236 255
221 236 255
221 236 255
221 236 255
221 236 255
221 236 255
218 232 251
221 236 255
215 230 250
218 233 252
219 234 254
217 232 252
217 232 252
213 228 248
214 228 248
218 232 251
214 229 249
214 229 250
210 225 248
209 223 244
218 233 254
215 230 250
208 222 242
214 228 249
214 228 248
207 221 242
211 226 248
221 235 255
218 233 254
220 235 255
219 234 255
219 234 255
219 234 255
218 233 254
108 131 172
133 151 185
68 101 160
57 91 140
61 96 155
58 92 135
55 87 135
57 90 134
59 93 148
58 91 149
55 89 142
53 85 129
50 81 130
128 147 177
140 160 191
60 94 140
59 93 132
60 95 143
59 93 140
61 95 143
59 93 137
59 93 126
61 95 139
61 96 142
60 94 136
60 94 136
60 94 131
60 95 130
60 95 141
61 96 147
60 94 130
59 93 125
62 97 152
61 95 133
61 96 143
61 96 141
61 96 145
60 95 141
59 94 128
60 95 139
61 96 143
59 94 131
61 96 139
60 96 136
60 95 135
60 95 136
60 94 126
60 95 126
61 96 140
59 94 129
61 96 145
60 95 137
61 96 144
60 94 130
61 96 144
61 96 143
60 94 139
58 92 134
61 95 136
60 94 134
60 95 131
61 97 148
60 95 133
58 92 122
61 96 142
61 96 135
60 95 139
60 95 141
61 96 139
60 95 135
60 94 134
61 95 137
59 94 130
61 96 144
60 94 136
59 93 141
61 96 141
62 97 149
59 93 135
61 95 138
62 97 143
60 95 144
60 94 131
60 95 137
60 95 138
60 93 135
59 93 129
60 94 130
60 94 138
59 93 134
60 94 136
59 93 135
57 90 118
59 93 134
59 93 133
59 93 127
59 93 135
61 96 139
59 93 126
58 91 131
60 94 136
60 94 141
59 93 132
59 92 132
59 91 135
59 91 127
59 92 131
58 90 133
58 90 126
58 90 123
58 90 129
56 86 114
57 87 126
57 88 134
56 87 124
55 84 120
55 83 119
118 130 144
154 162 161
137 146 149
148 156 159
128 138 144
132 143 149
119 129 131
120 130 132
114 123 123
109 119 121
114 123 118
106 116 114
129 137 132
118 128 123
119 128 123
113 121 110
102 110 90
120 127 111
126 131 113
133 139 122
115 121 99
139 144 123
122 124 87
127 130 94
123 125 88
132 134 97
134 134 95
132 134 98
125 127 86
144 142 91
134 135 97
136 135 84
146 145 101
149 149 98
140 138 86
150 149 96
144 143 86
153 152 98
146 144 91
148 147 86
149 147 80
162 159 100
156 153 90
152 149 88
153 149 83
148 146 79
154 150 83
156 152 85
150 148 84
161 156 93
153 150 81
156 152 79
156 153 84
160 155 83
157 153 84
162 156 84
162 156 80
160 156 86
165 159 83
164 158 88
163 158 85
163 158 81
159 156 81
166 160 88
160 156 80
170 164 94
165 160 83
165 160 84
167 161 89
167 161 86
170 164 91
169 163 80
168 163 88
168 162 87
168 163 85
168 162 87
170 165 87
173 166 89
173 167 96
171 165 87
169 163 84
172 166 94
173 168 91
173 167 92
174 168 98
171 166 93
170 165 89
171 164 86
170 164 82
173 167 91
171 165 84
176 169 99
176 171 103
174 167 91
176 170 100
173 167 93
169 163 87
177 172 108
174 170 106
174 170 106
175 170 106
173 169 103
178 172 110
171 165 89
173 169 104
175 171 108
178 173 109
175 168 99
172 169 104
177 171 104
178 173 109
175 170 105
174 169 100
178 171 103
175 169 103
176 171 102
181 176 120
180 177 124
178 174 111
172 167 93
181 177 123
173 168 101
177 172 109
176 173 116
174 171 104
178 174 121
180 177 124
181 179 128
175 171 109
174 171 107
182 180 134
177 174 118
181 177 120
180 176 120
176 173 116
177 172 111
182 180 133
185 182 136
180 175 117
178 175 120
181 180 135
182 180 137
185 184 142
181 178 127
183 179 130
181 179 131
179 177 127
181 179 132
180 178 126
221 236 255
221 235 255
221 236 255
221 236 255
221 236 255
221 236 255
221 236 255
221 236 255
221 236 255
221 236 255
221 236 255
221 236 255
221 236 255
221 236 255
221 236 255
221 236 255
221 236 255
221 236 255
221 236 255
221 236 255
221 236 255
221 236 255
221 235 255
221 236 255
221 236 255
220 235 255
219 234 254
219 234 254
215 230 250
218 232 252
218 233 254
219 234 254
217 231 251
215 230 250
216 230 251
213 227 249
216 231 252
215 230 250
216 230 250
216 230 250
218 232 253
215 230 251
216 231 250
215 229 249
212 226 246
217 231 251
211 226 246
219 234 254
212 227 248
216 231 252
212 227 248
216 231 252
216 230 251
217 231 252
217 231 252
215 229 250
215 229 249
217 231 253
215 229 250
217 232 252
214 228 249
216 230 252
209 223 245
216 230 252
218 232 253
218 233 252
214 229 250
216 230 251
216 231 251
218 232 252
218 233 254
216 230 250
220 235 255
221 236 255
221 236 255
221 236 255
221 236 255
221 236 255
221 236 255
221 236 255
221 236 255
221 236 255
221 236 255
221 236 255
221 236 255
221 236 255
221 236 255
221 236 255
221 236 255
221 236 255
221 236 255
221 236 255
221 236 255
221 236 255
221 236 255
221 236 255
221 236 255
221 236 255
221 236 255
221 236 255
221 236 255
221 236 255
221 236 255
221 236 255
221 236 255
221 236 255
220 235 254
217 231 251
213 228 249
215 229 250
218 232 252
217 232 253
216 231 251
213 228 248
217 232 252
213 228 248
215 229 250
212 226 246
212 227 247
208 223 245
215 229 250
214 228 249
210 225 246
208 223 246
211 225 247
209 224 246
208 223 244
221 236 255
217 232 252
219 234 254
219 234 254
218 233 254
220 235 255
215 229 250
102 124 157
134 152 184
72 102 141
58 92 135
57 91 129
61 95 147
58 92 139
57 91 128
59 93 143
54 86 132
52 83 132
54 85 133
52 83 129
155 171 198
171 188 214
59 93 140
60 95 137
60 95 137
59 94 139
60 95 141
60 95 134
59 94 133
59 93 136
60 95 139
59 93 137
61 96 137
60 95 136
60 94 141
61 95 139
60 94 139
61 96 149
61 96 134
61 95 139
60 94 135
59 94 135
61 96 140
59 93 124
59 93 124
60 94 133
60 94 140
59 94 140
59 94 135
61 95 142
60 94 137
59 94 135
60 94 136
60 95 136
59 94 128
61 96 134
60 95 144
60 96 142
61 96 142
58 92 128
60 94 135
59 94 122
60 95 135
61 96 142
60 94 131
59 93 130
60 95 137
60 95 140
60 95 141
58 93 125
60 94 136
61 96 145
59 93 125
60 95 140
60 94 134
59 93 128
59 94 130
60 94 133
61 96 140
60 95 132
58 92 122
61 95 139
60 95 140
59 93 131
59 93 134
60 94 137
59 93 130
58 92 125
60 94 133
58 93 131
61 95 140
58 92 123
59 93 125
59 92 130
59 94 139
59 93 133
60 94 141
59 93 126
60 94 136
59 93 130
60 94 128
59 92 126
59 93 128
59 93 123
61 95 134
60 93 135
60 94 137
58 90 125
58 91 125
59 92 135
60 95 139
58 90 126
59 92 130
59 92 128
59 92 130
58 90 129
57 88 120
58 89 119
58 89 121
57 88 115
56 86 116
55 83 106
55 84 115
52 78 102
120 132 142
149 157 159
150 159 164
138 147 151
129 139 145
119 127 128
119 129 134
112 122 122
131 142 145
121 131 132
104 113 111
111 120 116
99 109 106
111 118 105
103 111 96
107 115 101
122 129 116
123 129 106
119 123 94
127 132 110
128 135 123
129 132 99
122 127 98
131 134 105
141 142 103
136 137 93
134 136 95
118 119 74
143 143 102
134 136 93
143 143 97
140 140 92
145 144 93
137 136 88
138 138 92
142 141 91
152 147 82
146 145 93
149 147 93
148 146 86
146 143 80
161 157 97
153 151 96
140 138 75
153 149 82
155 151 85
156 152 84
158 154 88
159 155 88
148 145 76
156 152 80
158 154 81
161 156 85
159 154 81
156 152 78
159 155 81
163 158 88
158 154 83
160 155 79
166 160 85
162 157 74
166 161 83
168 162 90
169 162 88
166 160 83
169 163 85
165 159 83
168 161 89
172 165 91
170 164 86
167 160 85
172 165 87
169 163 78
167 162 84
169 163 91
172 166 94
170 165 94
168 162 90
171 165 89
173 166 90
169 164 90
175 168 90
168 164 89
172 166 90
171 166 92
177 171 101
172 168 101
170 165 86
175 169 93
174 167 95
177 169 97
176 170 102
177 171 104
176 169 95
177 171 106
172 166 92
173 168 98
171 165 90
173 166 89
172 166 91
173 167 95
174 167 99
173 168 98
177 172 109
174 169 100
169 165 90
176 171 106
180 175 113
176 172 110
175 169 99
169 165 94
174 170 101
177 173 110
177 171 104
175 171 103
179 172 103
178 175 118
182 177 124
178 174 117
179 176 120
179 173 114
176 170 103
176 172 115
177 173 112
177 175 117
176 175 123
178 173 108
178 177 126
176 172 108
180 177 125
176 174 117
179 178 129
178 174 115
181 180 137
181 180 135
177 174 115
180 178 129
183 178 125
183 182 139
180 177 124
177 175 124
179 177 124
180 177 125
175 171 112
182 180 130
179 176 126
177 174 119
183 179 127
184 182 137
222 236 255
221 235 254
222 236 255
222 236 255
222 236 255
222 236 255
222 236 255
222 236 255
222 236 255
222 236 255
222 236 255
222 236 255
222 236 255
222 236 255
222 236 255
222 236 255
222 236 255
222 236 255
222 236 255
222 236 255
222 236 255
222 236 255
222 236 255
222 236 255
222 236 255
219 234 253
219 233 254
220 234 255
215 230 251
218 233 252
218 233 253
217 231 252
220 234 255
216 230 250
216 231 252
217 231 251
213 227 249
214 228 249
213 227 247
218 232 252
215 230 250
216 231 252
216 230 251
216 231 252
211 225 248
217 231 252
220 235 255
219 233 253
218 233 253
219 233 254
215 229 250
219 234 254
216 230 251
217 231 252
220 235 255
216 230 252
214 228 248
215 230 250
217 232 253
215 229 250
218 233 254
214 229 249
220 235 254
219 234 254
213 228 249
214 228 250
219 233 254
219 234 254
217 232 252
218 232 252
219 234 253
218 233 253
218 233 253
221 235 255
221 236 255
221 236 255
221 236 255
221 236 255
221 236 255
221 235 255
221 235 255
221 235 255
221 235 255
221 236 255
221 236 255
221 236 255
221 236 255
221 235 255
221 236 255
221 235 255
221 236 255
221 236 255
221 236 255
221 235 255
221 235 255
221 236 255
221 236 255
221 235 255
221 235 255
221 235 255
221 236 255
221 235 255
221 236 255
221 235 255
221 235 255
221 235 254
217 231 251
218 232 252
215 230 250
214 228 250
221 235 255
219 233 254
217 231 252
219 233 254
218 232 251
215 229 248
217 231 252
213 227 249
215 229 250
215 229 249
216 230 252
213 227 249
217 231 251
211 226 248
204 218 240
204 219 242
210 225 246
221 235 255
222 236 255
219 233 253
220 234 254
220 234 254
218 232 252
219 233 253
122 143 176
125 144 182
66 98 141
58 91 133
57 89 141
58 92 137
59 93 141
60 94 147
55 87 121
55 88 137
53 85 127
53 84 130
54 86 137
153 170 195
160 177 197
60 95 147
59 93 134
62 97 147
60 95 142
61 95 137
59 94 131
60 95 141
61 96 141
61 96 136
59 94 133
60 94 139
61 96 144
60 95 136
60 95 133
61 96 141
59 93 133
60 95 134
61 95 137
62 96 145
61 96 136
60 95 142
60 95 135
61 96 137
61 96 147
59 94 126
60 95 130
59 94 135
60 95 142
61 96 139
60 95 139
60 94 131
59 94 131
59 93 128
60 94 131
60 95 141
60 95 134
59 93 121
60 95 131
61 96 136
60 94 131
59 93 128
59 93 135
60 95 137
58 92 120
59 94 131
58 91 126
60 95 134
61 96 145
61 95 135
60 95 134
60 94 134
58 93 124
59 94 133
59 94 130
60 94 143
60 94 130
60 94 134
60 95 136
59 94 136
59 94 131
59 93 130
60 94 126
61 96 137
60 95 142
60 94 134
61 96 140
59 93 128
60 95 136
60 94 138
57 90 116
58 91 125
60 95 148
60 95 135
60 94 128
60 94 136
61 95 136
58 92 132
61 96 146
61 95 135
61 94 138
59 93 134
60 94 146
61 94 130
59 94 132
58 91 123
59 93 136
59 92 135
58 91 123
59 93 128
59 92 129
60 93 129
58 90 136
58 90 119
59 92 132
56 87 119
58 90 126
58 89 125
58 91 131
56 85 117
55 83 115
56 86 127
55 83 118
112 126 137
152 161 164
141 150 152
134 142 141
130 139 144
130 139 142
123 131 134
120 130 134
119 128 130
122 130 130
112 121 120
122 130 125
108 117 110
113 122 115
123 132 129
118 126 116
114 120 100
116 122 105
133 139 118
115 120 100
122 126 97
126 129 104
137 140 112
125 129 98
134 137 107
134 135 93
129 130 89
132 133 84
125 126 74
135 135 86
129 130 88
141 139 90
141 141 95
145 146 101
144 143 90
150 149 97
143 143 103
147 145 89
146 145 86
149 145 82
148 146 92
155 151 94
148 144 73
145 144 81
157 153 88
159 154 87
158 154 87
158 154 88
153 149 86
158 154 80
155 150 82
157 153 80
166 159 87
160 156 84
156 152 78
161 156 83
160 156 78
162 157 83
167 162 88
156 152 75
163 158 82
162 157 78
167 161 79
167 161 79
163 158 84
168 162 91
162 157 78
164 158 75
169 162 87
163 159 83
166 160 85
166 161 87
167 161 86
169 163 81
168 162 84
166 160 80
160 156 82
171 165 90
167 162 86
169 163 92
166 161 85
171 164 87
170 163 84
173 167 90
169 164 81
169 164 83
171 166 89
171 165 88
170 164 87
171 165 90
172 166 97
174 169 95
174 169 100
175 168 95
176 169 93
176 171 104
175 170 104
177 170 103
173 167 90
170 165 88
171 166 90
171 166 91
175 169 98
172 165 87
175 170 109
177 171 102
181 175 116
171 167 96
175 171 106
177 172 110
174 169 96
172 168 99
175 170 100
178 174 113
172 167 95
173 168 98
177 172 109
175 171 108
176 171 110
177 173 113
171 167 99
174 171 107
177 172 109
174 169 104
174 170 109
179 177 124
173 170 110
179 174 113
177 175 118
175 171 108
177 175 118
181 178 125
182 180 133
180 177 124
174 170 108
181 178 127
181 179 129
180 176 121
179 176 124
182 180 132
176 174 118
179 176 124
178 176 119
180 178 127
183 181 131
173 170 104
180 177 124
185 184 142
183 181 137
222 236 255
222 236 255
222 236 255
222 236 255
222 236 255
222 236 255
222 236 255
221 235 255
222 236 255
222 236 255
222 236 255
222 236 255
222 236 255
222 236 255
222 236 255
222 236 255
222 236 255
222 236 255
222 236 255
222 236 255
222 236 255
222 236 255
222 236 255
222 236 255
222 236 255
220 234 254
216 231 251
219 234 254
218 232 253
218 232 254
217 231 252
216 230 252
214 228 248
219 233 254
214 228 249
219 233 254
217 231 252
218 232 254
215 229 251
216 231 252
214 228 249
214 228 249
213 227 249
217 231 252
211 226 248
221 235 255
217 231 252
211 225 247
218 232 253
217 231 252
218 232 253
210 225 245
216 230 252
214 228 249
215 229 249
216 230 251
215 229 250
216 231 251
211 226 247
216 230 251
217 232 252
212 226 248
213 228 250
218 233 253
219 233 253
217 231 250
216 231 252
220 234 254
220 234 254
217 232 252
218 233 254
216 230 250
220 235 255
221 235 255
221 235 255
221 235 255
221 235 255
221 235 255
221 235 254
221 235 255
221 235 254
221 235 255
221 235 254
221 235 255
221 235 254
220 235 253
220 234 252
221 235 254
221 235 254
220 235 253
220 235 253
220 234 252
221 235 254
220 234 252
221 235 255
221 235 255
221 235 254
220 234 252
220 235 253
221 235 255
221 235 254
221 235 255
221 235 254
221 235 255
221 235 254
221 235 255
218 233 252
219 233 254
215 229 250
219 233 254
218 232 252
221 235 255
218 232 253
219 233 254
214 229 247
216 230 250
214 229 250
208 223 243
216 230 252
210 225 248
214 229 250
215 230 250
214 229 250
210 224 244
211 226 248
200 216 238
209 224 245
219 233 253
221 235 254
222 236 255
222 236 255
223 237 255
221 234 254
217 230 250
109 132 168
131 148 178
65 96 137
56 89 134
58 92 140
58 92 131
56 88 128
58 91 133
54 87 135
56 88 135
56 88 141
56 87 135
52 83 120
165 181 210
149 166 190
61 96 145
59 93 137
60 95 135
60 95 147
58 93 136
60 94 139
59 94 132
60 95 136
58 92 133
60 94 128
61 96 137
59 93 133
60 95 140
60 95 134
60 95 130
60 95 139
60 95 140
59 94 134
59 94 124
59 93 130
60 94 136
59 93 128
59 94 130
58 92 120
61 96 137
60 95 135
60 94 129
61 96 144
60 94 133
60 94 134
60 94 125
59 94 128
59 93 134
58 93 122
60 94 129
59 94 137
60 95 135
60 95 131
59 93 126
60 95 134
61 96 148
59 93 130
60 94 126
59 94 136
59 93 131
61 96 140
60 94 141
60 95 139
61 95 142
61 96 141
61 96 140
60 95 139
61 95 144
60 95 131
60 95 128
60 95 134
61 96 144
59 93 123
61 96 144
59 94 132
60 94 126
60 94 134
60 94 132
60 95 137
59 94 129
61 96 142
60 95 137
59 92 129
58 92 128
60 95 132
60 94 128
60 94 130
59 93 135
58 91 117
59 93 124
60 94 132
61 95 148
59 94 138
61 95 140
60 94 135
59 93 125
58 92 121
59 93 129
59 91 128
58 90 120
59 92 134
60 93 135
59 92 136
58 91 119
59 92 132
60 93 134
60 93 134
58 91 126
58 91 128
56 86 120
58 90 122
57 89 124
57 89 133
56 85 117
56 86 125
54 82 108
52 79 99
117 128 135
163 172 173
132 140 137
134 143 148
125 134 138
125 134 140
129 139 140
101 110 109
122 131 131
125 135 140
119 129 131
113 122 115
106 115 109
109 117 107
105 112 95
105 110 87
98 104 83
119 124 100
102 107 83
127 132 114
137 143 131
120 126 102
124 127 95
130 134 104
129 129 86
132 134 100
143 144 106
137 139 101
131 132 84
140 140 93
135 135 93
140 138 81
147 145 88
144 143 94
156 152 98
135 135 83
145 144 87
144 142 83
144 142 85
153 150 83
152 148 83
147 145 79
147 144 70
142 140 74
159 153 88
145 143 77
156 152 78
158 154 87
153 149 83
154 150 80
152 148 76
158 153 87
157 153 81
156 152 77
163 157 83
158 152 77
166 159 85
158 153 75
161 156 84
157 153 78
159 154 77
161 156 79
164 158 80
167 161 87
172 165 91
165 159 83
166 160 82
169 162 86
166 160 88
169 163 85
169 163 87
163 157 76
165 158 83
165 159 83
172 165 89
171 166 94
164 158 84
169 162 87
171 165 90
171 165 85
170 164 89
170 165 82
171 165 89
171 166 93
172 166 95
174 168 98
175 170 99
170 163 84
172 166 87
173 168 99
170 165 91
172 166 94
166 161 82
169 164 90
170 165 91
173 167 91
173 168 101
174 170 108
167 162 91
172 165 92
177 171 108
174 169 104
173 168 95
171 166 93
173 168 101
169 163 82
171 165 89
174 170 106
173 169 101
174 170 104
174 168 95
178 174 111
176 173 115
174 171 109
170 166 97
177 174 116
174 169 104
172 168 99
174 168 103
176 172 105
170 166 94
176 170 103
178 173 113
174 172 114
176 172 110
174 171 106
178 174 117
182 179 127
176 171 108
176 172 108
181 177 123
179 175 117
177 172 108
178 176 124
178 176 122
180 177 122
179 176 120
177 173 115
179 175 118
181 179 134
178 175 119
184 182 137
180 177 125
180 177 122
177 173 113
184 180 130
180 176 120
181 178 129
180 176 122
223 237 255
223 237 255
223 236 255
223 236 255
223 236 255
223 236 255
222 235 255
223 236 255
223 236 255
223 236 255
223 236 255
223 236 255
223 236 255
223 236 255
223 236 255
223 236 255
223 236 255
223 236 255
223 236 255
223 236 255
223 236 255
223 236 255
223 236 255
223 236 255
223 236 255
222 236 255
220 234 254
216 231 250
219 233 254
215 229 252
215 230 252
216 230 251
218 232 252
214 228 250
219 233 254
218 232 254
215 229 249
214 228 250
215 229 251
217 231 252
215 229 250
215 230 251
218 232 253
216 230 251
219 233 253
217 231 252
214 229 250
217 231 252
216 230 250
219 233 254
216 231 251
211 226 246
216 231 248
216 231 250
213 228 246
215 229 247
216 231 250
213 227 245
211 226 243
216 230 250
216 231 250
220 234 252
216 231 248
214 229 246
212 227 244
214 229 247
215 230 249
216 231 246
217 231 246
213 228 247
218 233 252
219 233 253
220 235 254
220 234 252
220 235 253
218 233 249
218 233 248
218 233 250
219 234 250
220 234 252
220 234 252
220 235 253
218 233 246
219 234 250
220 235 253
220 234 252
219 233 248
220 234 252
218 233 248
220 235 254
219 233 249
219 234 249
219 234 249
219 234 250
219 234 250
218 233 248
219 234 249
219 234 250
219 234 250
219 234 249
219 234 250
219 234 250
217 232 246
218 233 246
219 234 249
217 232 245
218 233 253
218 233 252
215 230 250
216 231 250
219 233 254
216 231 251
215 229 246
215 230 248
216 231 250
214 229 248
212 227 246
215 230 251
215 230 251
215 230 251
215 230 252
214 229 250
211 226 246
213 228 248
205 220 243
201 217 238
208 224 227
218 232 246
221 234 252
222 235 254
222 235 253
224 237 255
219 232 252
214 228 244
124 144 170
134 152 183
57 89 123
58 91 131
58 92 136
56 89 127
57 90 134
58 91 136
56 88 143
56 88 126
55 87 131
52 83 131
56 88 133
167 182 205
168 184 212
60 94 143
61 95 147
58 92 128
60 95 137
59 93 135
60 94 133
59 93 133
59 93 129
60 94 131
58 92 126
60 94 137
59 94 135
60 95 139
59 94 126
62 97 144
59 94 128
61 95 140
60 94 135
60 95 141
59 94 136
60 94 130
58 92 129
59 94 125
59 93 134
59 94 131
60 96 136
60 95 137
59 94 124
58 92 120
59 94 128
60 94 128
60 95 133
59 93 133
59 94 134
60 95 134
59 94 131
62 97 148
60 95 145
59 94 121
59 94 133
59 94 131
61 96 143
59 94 124
60 95 134
60 95 134
59 93 128
60 94 136
59 93 131
61 95 133
60 94 126
60 94 134
60 94 135
59 92 122
61 96 143
60 94 126
60 94 134
59 93 135
61 95 131
60 95 136
60 94 139
59 93 125
60 94 132
59 92 131
59 93 122
61 95 136
61 94 135
60 94 133
60 95 138
61 96 139
61 96 140
60 94 129
58 92 114
60 95 135
59 93 137
60 94 133
60 94 135
59 93 131
60 93 130
60 95 133
61 95 138
59 93 129
59 92 128
60 93 135
58 90 123
60 93 137
60 94 134
59 94 130
59 91 127
58 90 121
59 92 131
58 90 119
57 89 121
58 90 123
58 90 125
55 86 108
57 89 113
56 86 121
58 89 127
56 87 118
53 81 101
55 83 110
53 81 114
137 149 159
162 169 166
154 163 167
135 144 149
122 130 131
134 144 148
121 130 134
110 119 119
110 119 119
106 114 110
121 130 129
113 121 116
96 104 93
109 116 106
120 127 115
115 122 106
121 128 115
114 118 93
122 127 107
120 125 105
119 124 98
127 133 113
131 134 102
113 116 81
139 141 102
133 138 109
129 131 100
133 133 91
133 134 90
138 137 83
137 136 87
131 130 76
131 130 78
142 142 91
141 139 81
141 140 81
149 145 77
140 139 78
146 145 93
155 153 99
149 146 86
149 146 86
158 154 94
148 144 76
155 151 81
153 149 81
158 154 81
153 150 82
149 147 77
154 150 73
158 154 86
157 153 84
160 155 85
159 154 83
164 158 79
161 154 79
159 154 83
154 149 74
158 154 78
164 158 81
162 158 81
166 159 82
168 163 90
163 157 81
158 154 70
170 163 89
171 164 87
165 159 82
163 157 78
161 156 73
168 162 85
163 158 76
169 163 89
165 159 77
167 161 83
169 163 84
170 164 86
169 163 89
165 159 78
171 165 91
173 167 89
174 167 93
171 164 87
170 163 87
168 161 74
169 163 90
170 164 84
172 166 91
174 167 88
171 164 87
173 167 97
174 169 97
173 167 93
174 167 90
168 163 85
172 166 88
174 168 103
170 165 90
171 166 94
172 167 97
169 164 87
169 163 84
169 164 93
172 166 87
180 175 115
174 169 104
171 164 90
175 171 111
173 167 93
174 170 103
172 166 92
172 168 99
175 171 107
172 166 88
173 169 106
177 172 109
173 169 97
177 173 115
177 171 102
178 176 124
179 174 115
177 174 116
178 174 116
177 173 116
175 171 107
178 173 111
178 175 120
177 174 116
174 169 101
176 174 122
175 170 105
174 171 108
182 180 133
177 172 112
175 172 113
179 177 127
176 172 111
179 177 127
178 176 122
180 176 117
178 175 119
182 180 133
185 184 142
177 173 115
182 181 133
183 179 127
180 178 130
184 184 143
184 183 141
224 237 255
224 237 255
223 237 255
223 237 255
223 237 255
223 237 255
223 237 255
223 237 255
223 237 255
223 237 255
223 237 255
223 237 255
223 237 255
223 237 255
223 237 255
223 237 255
224 237 255
223 237 255
223 237 255
223 237 255
223 237 255
223 237 255
223 237 255
223 237 255
224 237 255
220 234 254
221 235 255
216 231 252
220 234 255
216 231 253
217 231 252
215 230 248
215 230 248
214 229 248
213 228 242
205 220 237
217 232 247
210 225 246
215 230 246
212 227 242
212 227 244
211 226 243
214 229 246
209 224 242
210 226 241
214 229 244
216 231 250
215 230 244
215 230 245
213 228 246
212 227 245
216 231 248
215 230 244
216 231 249
216 231 249
213 228 246
212 227 241
213 228 247
213 228 241
216 231 246
211 226 242
214 229 247
214 229 246
213 228 243
212 228 238
213 228 245
218 233 248
213 229 242
215 230 245
218 232 247
214 229 244
219 234 250
219 234 252
220 234 252
217 232 245
218 233 248
216 232 242
219 234 250
217 232 245
219 233 249
218 233 249
218 233 248
218 233 248
220 235 253
218 233 248
217 233 246
220 234 253
217 232 246
219 234 249
219 234 249
219 234 252
216 231 241
217 232 244
218 233 246
217 232 245
214 230 237
218 233 249
220 235 255
218 232 246
217 232 244
217 232 244
220 234 252
217 232 245
218 233 246
219 234 252
220 235 254
217 232 249
215 230 248
210 225 238
211 226 240
215 230 250
214 229 246
217 232 252
215 230 247
218 233 252
218 233 252
217 232 252
216 231 252
214 229 252
209 224 245
213 228 249
210 226 246
207 222 244
208 223 245
207 222 245
202 218 239
203 221 203
195 213 169
195 214 161
192 211 147
187 207 130
182 204 102
183 204 105
169 191 107
122 142 170
131 149 165
61 95 150
59 93 140
59 92 132
58 92 133
54 86 126
57 90 121
56 89 134
56 89 137
55 87 136
55 86 136
54 85 125
193 208 228
188 203 225
59 93 136
59 93 130
60 95 130
60 95 132
60 95 137
59 94 136
61 96 145
61 95 140
58 92 130
58 92 120
59 94 122
59 92 126
60 95 136
60 95 133
60 95 136
60 95 143
60 95 136
60 94 135
61 95 134
60 95 135
60 94 125
59 93 129
59 94 131
59 93 120
60 95 144
60 95 136
59 93 125
59 93 120
59 93 126
60 95 140
59 94 122
60 95 141
60 95 137
61 96 139
60 94 128
60 95 140
59 94 134
58 92 117
60 94 133
58 92 126
61 96 142
58 92 122
60 95 135
61 95 135
61 95 135
60 94 129
61 95 137
60 94 139
60 94 130
60 94 133
61 95 136
60 95 133
60 94 135
58 92 125
59 94 135
58 92 120
60 94 126
60 95 139
59 93 130
60 94 130
59 92 122
60 94 133
60 94 126
60 94 133
60 94 136
60 94 132
59 93 128
61 96 144
60 94 129
59 93 133
58 92 130
60 94 133
57 90 121
59 93 125
60 95 139
58 92 124
60 93 140
59 92 125
59 93 128
58 92 127
59 92 132
58 91 120
59 92 131
58 91 126
59 92 133
60 94 139
60 93 133
56 88 117
58 90 118
58 91 126
59 91 121
58 91 129
55 85 113
56 87 119
56 87 115
59 90 129
56 86 110
55 84 120
58 89 126
54 83 115
54 82 106
51 78 111
134 144 146
175 183 182
140 148 147
131 139 141
128 137 138
96 106 109
117 126 128
104 113 109
126 136 139
122 131 135
128 137 138
111 119 113
107 115 109
124 130 118
117 123 111
101 108 92
112 118 101
110 116 97
129 134 113
119 124 100
126 132 117
117 122 98
118 122 88
121 124 90
117 120 74
130 133 102
132 133 96
128 129 85
126 126 77
140 139 79
132 133 93
140 139 87
143 143 94
138 137 88
130 130 70
137 135 71
147 143 80
140 138 72
149 147 85
147 145 82
139 138 80
151 148 82
138 136 74
150 147 83
157 153 87
154 150 77
155 150 82
150 147 83
156 153 88
154 150 78
150 147 78
156 151 78
159 155 83
152 148 71
162 157 77
162 156 82
163 157 85
159 154 78
153 148 74
158 153 81
158 153 81
156 152 78
162 156 81
158 154 78
163 157 79
161 156 80
162 156 76
165 159 80
161 156 79
166 160 80
167 161 80
164 158 76
163 157 76
161 156 75
166 161 78
166 160 78
170 163 82
167 161 78
168 162 76
172 167 94
168 162 87
169 163 80
171 164 82
172 165 84
169 162 81
178 172 105
172 167 91
173 168 96
173 167 93
169 163 84
170 164 86
171 165 89
168 163 87
177 170 100
170 166 90
172 167 99
174 169 96
174 169 103
172 164 95
177 173 117
173 168 95
177 172 110
170 166 94
173 168 95
174 170 99
171 165 89
177 173 114
175 170 104
173 168 94
172 166 93
177 172 104
176 172 111
172 167 94
172 166 93
173 168 100
174 170 108
176 171 106
170 166 94
179 177 125
175 168 97
179 175 118
173 169 103
177 173 114
177 172 107
176 173 116
177 172 112
175 171 106
180 178 127
182 181 135
175 171 107
175 172 110
174 170 107
176 173 119
178 175 118
178 174 113
180 177 123
180 178 129
179 176 127
179 176 120
179 177 128
180 178 129
180 177 124
178 176 129
181 181 138
179 177 125
181 179 132
182 180 131
181 179 133
182 179 131
224 237 255
224 237 255
223 236 254
224 237 255
224 237 255
224 237 255
224 237 255
224 237 255
224 237 255
224 237 255
224 237 255
224 237 255
224 237 255
224 237 255
224 237 255
224 237 255
224 237 255
224 237 255
224 237 255
224 237 255
224 237 255
224 237 255
224 237 255
224 237 255
224 237 255
222 236 255
216 231 242
213 228 237
208 224 223
208 225 224
208 225 228
207 223 230
208 224 236
211 227 233
213 229 238
209 225 236
213 228 245
212 228 242
208 224 233
212 228 238
212 227 240
213 228 242
214 230 240
212 227 244
210 226 238
213 228 245
215 230 244
212 228 242
218 233 251
207 222 234
215 230 250
209 224 243
210 225 242
212 228 242
212 227 242
211 226 241
209 224 242
213 228 239
213 228 242
215 230 246
214 229 245
217 232 248
214 229 244
214 229 246
211 227 241
213 228 247
212 227 242
217 232 245
211 227 239
214 229 243
216 231 247
217 232 244
219 234 250
216 231 241
219 234 250
219 234 252
218 233 249
219 234 252
219 233 248
218 233 248
217 232 245
217 232 246
217 232 244
216 231 240
218 233 246
217 232 244
217 232 246
219 233 249
218 233 249
217 232 244
218 233 248
218 233 249
219 234 252
218 233 248
218 233 248
218 233 249
218 233 249
217 232 246
218 234 250
218 233 249
218 233 248
220 234 254
218 233 248
218 233 246
218 233 249
218 233 248
218 233 249
212 227 247
212 228 248
217 232 250
216 231 248
215 230 249
211 226 242
213 228 248
214 229 248
214 229 248
211 226 249
215 230 250
211 226 249
215 230 251
213 228 249
208 223 246
214 229 250
203 219 243
204 220 239
207 224 236
201 219 199
176 199 74
175 198 51
175 198 65
175 198 51
176 200 57
174 197 54
164 185 128
111 134 148
102 126 133
58 92 134
57 90 128
58 92 137
56 88 126
55 87 123
59 93 135
57 89 128
54 86 125
56 88 129
50 80 116
54 86 120
217 231 244
186 201 224
59 93 129
61 96 148
58 92 134
61 96 144
59 93 136
60 95 136
61 95 133
59 93 128
59 93 128
59 94 135
59 94 129
59 94 135
59 94 133
61 96 136
60 95 130
58 91 122
59 93 129
58 92 130
60 94 143
60 94 130
60 94 133
60 94 133
60 94 134
59 94 130
60 94 135
60 95 130
59 93 126
60 94 130
59 94 135
60 94 130
60 94 128
58 92 121
60 95 133
59 94 134
60 94 131
59 93 128
60 94 126
60 95 134
60 95 135
59 92 124
59 94 135
59 93 126
59 94 134
61 96 137
59 94 129
61 96 137
59 94 126
59 94 131
59 93 124
60 94 128
59 93 129
61 95 137
58 91 124
59 93 122
60 94 134
61 95 136
58 92 123
60 94 135
60 94 140
59 93 129
59 93 118
60 94 131
60 94 136
58 93 120
59 94 131
57 89 118
59 92 129
61 95 143
61 95 138
58 92 126
60 94 135
59 94 132
59 93 127
58 92 126
58 92 130
60 93 131
58 91 121
61 95 138
59 93 126
58 92 118
59 92 125
59 93 127
58 91 121
59 93 127
58 92 131
59 92 135
57 89 124
59 91 124
58 92 127
58 90 125
60 93 136
58 91 126
57 88 124
58 89 127
58 91 122
58 90 125
58 89 129
55 85 113
53 82 109
54 82 108
52 79 99
51 78 106
144 153 156
151 159 162
134 141 134
135 145 151
133 142 146
113 122 125
126 135 141
124 133 135
107 115 111
109 118 112
105 113 106
102 111 101
109 118 113
116 125 118
103 111 103
122 128 114
121 128 118
123 130 114
118 124 111
115 119 89
129 133 99
120 126 103
135 137 110
133 136 105
135 137 98
126 129 97
116 121 85
130 131 88
129 132 98
137 138 90
138 139 100
136 137 87
135 135 86
136 135 85
142 140 86
148 147 93
146 145 94
140 138 77
141 140 80
148 146 87
150 148 94
156 153 92
141 138 69
150 147 82
154 150 80
154 150 78
154 150 79
154 152 84
146 143 77
150 148 76
153 149 77
154 149 74
160 155 80
157 152 77
162 156 80
158 153 75
162 157 77
160 156 81
157 152 77
159 153 84
164 157 81
162 157 81
162 157 80
165 159 82
165 159 82
165 160 84
167 160 83
168 162 82
170 163 87
163 158 74
168 161 82
165 160 78
166 160 80
167 161 76
167 160 80
169 163 82
169 164 85
168 163 86
168 162 77
169 164 92
167 161 75
169 162 76
168 163 83
168 161 81
169 163 87
168 162 77
169 164 84
170 165 98
170 165 92
167 162 89
170 165 89
176 170 97
173 167 93
173 168 97
169 164 85
170 164 91
172 167 93
170 165 93
172 168 101
172 167 94
169 164 90
173 167 91
174 168 99
176 171 103
175 170 101
172 167 97
175 170 104
175 171 106
179 175 116
175 169 99
175 171 105
172 168 98
175 170 101
175 171 108
175 170 103
176 171 108
175 170 99
173 169 100
172 168 99
174 170 106
168 164 92
177 173 111
172 167 99
175 173 118
176 171 105
175 170 102
175 171 106
186 181 133
174 169 99
182 177 120
179 177 123
176 173 113
177 174 121
179 174 117
173 169 104
182 178 123
183 180 131
175 172 111
190 187 147
182 181 139
176 172 109
179 175 117
180 180 134
178 176 122
180 179 132
178 176 127
178 176 124
187 186 147
179 175 117
225 238 255
225 238 255
224 237 254
223 236 250
223 236 253
223 237 253
224 237 254
223 237 253
224 237 255
223 236 252
224 237 255
224 237 254
224 237 254
224 237 253
224 237 253
225 237 255
223 237 253
225 237 255
224 237 254
225 237 255
223 236 252
225 237 255
224 237 253
224 237 253
224 237 253
218 232 239
195 215 178
200 218 193
203 221 213
206 223 225
211 227 232
208 224 228
211 227 233
208 224 228
207 223 231
211 227 231
214 230 245
212 228 239
212 227 244
211 227 242
214 229 245
211 227 240
216 231 247
213 229 244
208 224 236
214 229 246
209 224 239
215 230 242
214 229 244
209 225 233
214 229 247
214 229 246
213 228 245
212 227 242
213 229 239
212 227 245
208 224 240
212 228 245
207 223 240
211 227 242
213 228 244
214 229 246
210 225 241
214 229 245
212 227 247
213 229 240
217 232 247
216 232 245
213 229 244
213 228 242
212 227 240
218 233 248
218 233 248
220 234 253
217 232 244
218 233 248
217 233 246
217 232 244
217 232 242
219 233 249
218 233 249
217 232 246
219 234 252
218 233 249
217 232 242
216 231 240
218 233 248
217 232 246
219 234 250
218 233 248
218 233 248
217 233 246
217 232 248
218 233 248
217 232 245
217 232 246
218 233 249
219 234 252
218 233 248
216 232 244
218 233 250
218 233 248
219 234 252
218 233 249
217 232 245
216 231 244
218 233 249
216 231 249
215 230 250
218 233 252
218 233 252
218 233 252
213 228 248
212 227 247
215 230 249
211 227 246
214 229 250
209 224 244
214 230 251
211 226 247
211 226 247
215 230 252
205 220 239
204 219 242
200 216 237
199 217 219
191 210 166
174 197 44
174 198 51
174 197 51
180 202 95
176 198 65
178 201 92
158 179 122
100 125 122
106 131 119
57 91 131
59 92 135
57 90 120
60 94 138
57 90 123
58 91 136
56 89 125
57 90 136
54 85 126
58 92 144
86 113 127
182 204 99
191 206 228
57 90 127
59 94 132
59 93 129
59 93 130
60 95 136
60 94 137
61 96 147
62 96 141
58 92 121
60 95 134
60 94 136
60 95 139
59 94 125
60 95 139
59 93 122
60 94 136
58 92 124
58 92 126
58 92 117
59 93 140
61 96 135
60 94 133
60 94 130
60 94 129
60 94 130
60 94 136
59 94 128
58 92 114
60 95 131
60 94 139
60 95 137
59 94 137
61 95 135
60 95 133
61 95 137
60 95 133
60 95 136
58 92 128
60 94 128
59 93 128
59 93 129
60 94 142
61 95 130
61 96 134
60 95 130
59 93 124
59 93 126
59 94 133
60 94 130
60 95 139
60 94 124
60 94 133
59 93 120
59 93 124
60 95 133
59 93 120
60 95 130
59 93 128
60 94 133
60 94 134
59 93 128
58 92 124
60 94 129
60 93 133
59 93 133
60 93 126
59 93 129
59 93 132
59 93 136
60 94 133
58 91 117
59 93 129
59 92 126
59 92 126
59 93 128
58 92 130
57 90 125
60 94 132
60 94 125
57 91 126
59 91 122
60 94 131
59 92 129
57 89 118
59 92 126
58 91 128
60 92 129
56 88 116
60 93 137
57 89 116
59 91 131
57 89 127
57 89 125
59 93 132
58 89 129
59 93 138
57 87 128
58 89 126
55 85 109
56 86 113
52 80 99
51 76 101
162 169 159
140 147 143
148 155 148
121 127 125
143 151 154
125 132 133
113 122 121
121 130 131
130 140 144
116 124 122
108 117 115
117 126 124
112 120 108
120 128 119
111 119 109
101 109 95
129 135 118
123 127 106
127 131 105
120 125 100
127 131 108
127 131 104
120 121 82
135 139 114
127 128 90
128 131 96
124 128 95
115 117 62
136 136 90
132 132 80
131 131 73
140 140 93
141 141 92
142 142 84
142 140 78
150 148 86
149 147 85
136 136 83
147 145 85
142 140 81
148 147 83
143 139 75
150 148 88
148 144 79
145 142 73
147 145 69
150 146 71
152 148 73
154 150 76
151 147 71
150 146 78
155 149 75
153 150 71
159 155 78
150 147 75
164 160 91
154 150 71
166 160 82
162 156 79
159 154 73
160 155 72
163 157 77
161 156 73
167 160 82
165 158 80
167 161 89
164 158 73
166 160 83
164 159 78
167 161 81
166 160 75
170 163 78
171 165 87
166 160 82
164 159 81
167 161 75
168 162 81
168 163 83
165 159 82
169 164 88
167 161 93
166 160 77
171 164 86
168 162 80
174 168 93
170 164 83
169 163 85
172 166 99
172 165 80
167 162 77
172 165 85
172 165 88
169 164 95
169 165 91
171 167 97
173 167 95
173 167 96
169 165 94
174 169 101
171 165 89
172 166 90
169 165 89
176 172 109
172 167 96
170 165 87
172 166 97
169 164 85
172 168 97
173 169 100
173 168 98
176 173 110
177 173 112
174 169 98
175 170 103
177 171 101
176 171 104
173 170 109
180 176 123
175 171 108
174 170 108
175 170 107
179 176 124
175 173 121
181 176 117
177 173 109
176 170 102
176 172 109
177 173 113
177 173 113
174 171 109
178 174 113
174 169 100
177 174 116
179 176 121
179 176 126
178 176 122
171 168 102
181 178 130
182 180 131
177 174 117
181 178 127
181 178 127
183 179 130
177 173 113
178 174 117
180 177 123
186 185 149
181 178 126
182 179 127
182 203 84
178 200 62
178 201 72
194 213 153
187 208 130
189 209 130
185 206 120
186 207 120
182 203 92
191 211 140
185 206 114
188 208 125
184 205 113
184 205 105
189 209 130
184 206 108
183 205 102
187 207 122
188 208 122
185 206 114
191 210 137
187 208 125
185 205 102
187 208 125
190 210 133
184 205 105
193 212 157
198 216 195
204 222 209
207 224 219
207 224 223
206 223 224
206 223 227
210 226 241
212 228 238
209 225 238
212 228 241
208 224 232
210 225 244
210 226 241
212 228 239
210 226 240
216 232 247
213 228 242
217 232 248
215 230 248
209 224 241
216 232 246
214 229 244
210 225 240
212 228 240
214 230 245
212 228 240
215 230 244
212 228 242
212 227 247
212 227 242
210 225 242
216 231 249
216 231 250
214 229 245
209 225 234
214 229 246
214 229 246
214 230 244
215 230 248
212 228 240
217 232 248
217 232 248
214 229 243
217 232 248
216 232 246
216 232 245
218 233 248
218 233 248
217 233 248
218 233 248
215 231 241
215 231 241
219 234 250
219 234 250
217 233 246
218 233 249
218 233 250
216 232 244
216 232 245
216 231 242
217 232 248
219 234 250
219 234 252
218 233 249
216 232 242
218 233 252
218 233 248
215 230 242
219 234 250
218 233 250
214 230 238
216 232 245
219 234 252
218 233 246
218 233 248
216 232 244
217 232 248
217 232 246
216 231 246
218 233 249
216 231 246
217 232 252
218 233 252
218 233 252
216 231 249
213 228 247
218 233 253
211 227 244
212 227 248
215 231 249
213 228 248
209 225 245
210 225 248
204 220 241
210 226 248
207 223 244
207 223 245
198 214 234
201 219 214
189 209 163
175 198 60
175 198 51
175 199 60
173 195 47
175 198 88
178 200 92
142 164 102
109 132 119
78 107 119
58 91 131
56 88 123
57 90 124
59 92 130
55 87 124
55 87 124
55 87 127
56 89 123
55 87 121
55 87 123
117 141 100
174 198 0
203 218 223
59 93 129
58 92 131
59 94 135
59 94 134
57 90 120
58 92 125
60 95 134
59 94 128
59 93 124
58 92 130
60 94 134
60 95 129
58 92 122
59 92 126
61 96 135
58 93 127
59 93 134
59 93 118
60 94 135
59 93 129
58 92 128
59 93 122
59 93 131
59 93 129
59 93 129
58 92 128
60 94 139
59 93 120
59 93 126
60 94 131
60 95 135
59 93 122
60 94 131
60 94 128
59 94 136
59 93 125
58 93 121
60 94 131
60 95 131
59 94 130
57 91 122
60 94 130
58 92 121
58 92 128
59 93 122
60 94 126
60 94 136
59 94 122
60 95 143
58 93 122
60 93 131
60 94 128
59 93 133
60 94 133
58 92 121
59 94 129
61 95 139
60 94 129
59 92 128
57 91 124
60 94 133
60 93 131
59 93 131
59 93 133
60 94 133
61 96 139
59 94 132
60 94 132
59 93 126
58 92 123
59 92 125
58 92 126
59 93 124
59 93 132
59 92 125
59 92 125
58 91 127
58 91 117
57 89 120
59 93 132
59 92 121
58 91 122
57 89 113
59 92 132
59 92 131
58 92 126
57 90 115
58 91 123
58 90 123
58 90 120
58 90 124
58 89 119
59 92 131
57 88 112
58 90 127
56 87 112
56 87 122
53 81 112
56 85 113
57 87 122
53 82 108
49 73 89
185 194 196
171 177 166
144 151 146
137 146 150
143 152 155
115 123 121
126 135 135
124 132 133
126 135 137
106 116 111
118 126 120
111 120 116
114 122 114
116 125 119
108 115 99
99 108 97
121 126 106
117 123 102
130 136 119
118 124 103
118 121 86
130 133 107
116 119 83
123 126 84
130 133 99
143 146 113
131 132 92
128 129 84
131 132 91
139 140 99
134 135 89
139 139 94
138 137 78
137 137 94
138 135 72
148 147 97
139 137 81
148 145 88
145 141 72
138 135 67
137 136 77
142 140 77
147 144 77
151 147 78
152 148 80
150 146 75
150 146 73
149 147 80
153 148 74
154 150 78
156 150 74
149 145 75
152 147 75
154 150 66
160 155 84
157 152 76
154 149 68
162 156 79
157 151 77
162 157 78
162 156 71
160 155 77
163 156 80
160 155 72
163 158 74
158 154 74
163 158 76
163 157 77
164 160 82
170 162 84
167 161 85
171 163 81
167 161 86
166 160 73
163 158 70
170 163 85
163 158 79
171 165 91
165 160 73
169 164 88
167 161 83
170 163 82
171 165 83
170 164 91
170 164 92
170 164 90
170 165 95
168 163 87
173 166 85
169 162 87
175 169 96
171 165 88
171 165 96
174 168 95
169 164 84
170 165 95
170 165 95
172 166 87
176 171 104
173 168 99
169 164 83
173 167 94
176 171 99
170 165 87
170 165 93
175 170 103
174 168 95
173 168 95
170 167 108
176 171 109
172 165 90
178 173 109
172 168 98
176 172 110
174 169 103
178 175 116
176 172 106
177 172 106
178 175 116
176 174 117
175 172 112
179 174 117
172 168 104
176 170 105
174 170 108
178 174 113
178 174 115
181 178 126
175 172 113
181 179 133
172 170 106
179 173 113
183 183 140
176 173 117
182 179 129
176 171 113
176 171 104
179 175 118
183 180 133
179 176 123
185 182 136
178 176 126
181 181 136
183 182 137
176 173 118
178 177 124
178 176 118
182 181 136
178 175 117
173 197 0
174 198 0
174 197 36
180 202 84
181 203 88
184 205 105
189 209 130
189 209 128
186 207 114
183 205 102
182 203 80
184 205 105
180 202 84
179 201 72
179 202 84
179 202 80
182 203 80
180 202 67
174 198 36
176 200 67
176 199 51
177 200 44
176 199 44
177 200 44
175 198 25
176 199 51
187 208 137
195 214 189
203 221 214
204 221 214
204 221 221
205 222 228
209 226 234
210 226 238
210 226 240
211 227 240
209 225 238
212 228 246
210 226 238
209 225 238
214 230 246
211 227 242
213 229 242
213 228 244
211 227 240
214 230 244
215 230 243
214 230 244
214 229 244
212 228 244
212 228 240
214 229 249
215 230 246
212 227 244
212 227 244
212 227 243
215 230 246
214 229 242
209 224 238
208 224 238
212 227 244
209 224 242
215 230 248
211 227 238
215 230 246
212 227 242
215 230 243
214 229 246
207 223 236
213 229 243
217 232 245
218 233 248
216 232 244
216 231 242
216 232 244
217 233 246
217 233 249
217 232 245
218 234 250
217 232 245
218 233 250
219 234 252
216 232 244
218 233 250
216 232 246
218 233 249
220 235 254
219 234 252
218 233 248
219 234 250
215 231 241
218 233 250
215 231 241
218 233 252
217 232 246
219 234 252
218 233 249
218 233 250
216 231 245
218 233 252
217 232 246
217 231 245
219 234 253
218 233 250
218 233 249
213 228 241
216 231 246
213 228 244
216 232 249
216 232 250
216 231 248
212 228 247
215 230 250
213 228 245
213 228 247
214 229 249
216 231 251
214 230 249
212 228 249
210 226 247
211 227 248
205 221 242
208 224 247
203 219 242
197 214 220
200 218 213
180 203 115
173 196 44
175 197 47
172 196 31
170 193 51
176 197 90
176 198 78
142 165 79
121 144 101
58 91 129
56 89 121
58 91 139
53 84 99
59 93 126
58 91 126
55 87 122
55 87 120
56 87 128
54 86 107
55 87 118
150 174 68
176 198 0
214 229 226
85 112 154
60 94 142
58 92 128
59 94 129
60 94 130
58 92 126
60 95 136
59 94 135
56 90 120
59 93 126
59 94 131
60 94 130
60 94 140
59 94 129
59 93 124
60 94 137
59 93 121
60 94 128
59 93 125
60 94 121
60 94 133
59 93 131
59 93 128
60 95 135
58 93 117
58 92 118
59 93 129
60 95 134
59 93 128
58 92 126
60 95 134
60 94 131
59 94 121
60 94 128
59 93 125
60 94 135
59 94 128
58 92 129
61 96 139
59 93 124
58 93 129
59 93 124
59 94 131
60 94 133
60 94 134
58 92 120
61 96 144
59 93 131
59 93 126
60 94 131
60 94 130
59 93 128
59 93 131
61 95 139
60 95 134
60 94 128
60 94 136
60 94 128
61 95 132
59 93 128
59 93 126
59 92 130
59 93 129
59 94 130
59 93 122
59 93 130
59 93 129
59 93 125
59 93 123
59 93 132
60 94 133
59 93 129
58 92 122
58 91 124
59 92 127
59 92 126
59 93 126
60 93 127
58 92 120
60 93 132
59 92 123
59 92 132
59 93 130
58 91 112
59 92 126
58 91 123
59 92 128
57 90 118
57 88 112
58 91 130
58 90 125
56 87 117
58 90 127
56 89 118
57 88 113
58 90 128
55 86 119
55 85 109
56 84 111
53 82 110
53 81 108
70 91 107
199 209 217
167 174 169
150 157 152
138 145 140
143 150 150
138 146 147
117 124 123
116 125 126
108 117 117
120 130 130
121 130 131
103 112 105
113 122 120
123 131 118
119 127 118
111 118 105
109 116 101
129 134 114
130 134 111
121 127 104
136 140 112
124 130 107
121 123 89
126 131 107
112 116 83
125 126 86
133 136 99
130 131 81
126 125 69
140 140 93
130 130 80
122 123 76
123 123 68
139 137 83
145 145 88
139 139 90
138 137 80
148 147 82
136 133 67
139 137 78
152 148 73
140 138 67
149 145 71
153 151 93
136 133 75
155 151 88
152 147 84
144 141 72
150 147 78
155 151 76
149 145 69
151 147 65
157 154 79
145 141 60
156 150 77
159 155 91
157 153 80
164 159 83
155 151 70
159 153 77
165 160 87
167 160 77
159 154 73
164 158 76
163 157 78
158 154 71
163 156 77
159 155 75
166 160 80
163 157 75
168 161 79
163 156 78
163 157 77
161 156 75
165 160 81
165 158 74
167 162 84
170 163 81
169 162 86
170 163 86
163 157 66
173 166 86
172 166 86
169 163 78
165 161 81
171 167 98
165 160 81
169 163 87
172 165 87
171 166 90
172 164 80
168 162 83
171 166 93
171 166 90
171 165 97
169 163 82
173 168 102
173 167 99
170 163 84
168 162 87
176 168 95
172 167 95
175 170 103
167 163 94
171 165 90
167 162 84
176 171 110
176 169 105
173 167 91
173 166 93
174 170 106
172 168 98
177 172 108
176 171 109
177 171 106
174 170 106
171 169 108
174 168 95
177 171 110
172 168 97
176 172 108
175 170 103
176 173 111
174 170 109
178 174 114
176 172 117
174 171 117
177 174 116
174 172 112
183 180 134
175 171 106
176 174 120
177 175 121
178 173 112
177 173 115
180 177 130
181 177 121
180 177 125
177 173 110
177 175 120
178 174 115
175 171 106
182 180 133
179 176 121
178 175 118
179 177 126
182 180 132
182 181 137
183 179 128
174 197 0
177 199 0
174 197 0
180 202 80
182 204 99
178 201 67
180 202 84
182 204 102
183 205 102
183 204 102
180 202 88
180 202 84
182 203 84
181 203 80
179 201 80
182 203 92
180 202 72
178 200 51
175 198 25
177 199 51
177 200 67
175 199 44
178 200 57
173 196 25
176 199 51
174 198 25
181 204 102
198 216 189
200 219 197
203 221 214
203 221 215
205 222 231
204 221 231
208 225 227
209 226 238
210 226 237
210 227 236
212 228 240
210 227 238
210 226 245
210 226 233
213 229 242
210 226 238
213 229 246
212 227 243
213 229 251
212 227 241
214 229 247
211 227 239
210 226 245
216 231 247
211 226 241
210 226 242
217 232 250
213 228 246
214 229 246
214 229 244
213 229 244
214 230 244
212 228 246
206 222 241
214 229 245
210 225 241
209 225 238
216 232 249
211 226 237
211 227 240
210 226 241
218 233 248
219 234 252
219 234 252
215 231 241
216 232 246
217 233 248
217 232 246
217 232 248
216 232 244
217 232 244
217 232 244
218 233 248
217 233 249
218 234 250
218 233 249
219 234 253
219 234 254
217 232 246
219 234 254
218 233 249
217 233 249
218 233 249
217 232 245
216 231 245
216 231 244
216 232 244
214 229 241
215 231 245
217 232 246
218 234 250
219 234 252
216 232 248
216 232 246
216 232 248
217 232 250
215 230 246
216 231 245
216 232 246
216 231 248
215 230 248
216 232 250
216 231 250
216 231 249
212 228 248
210 225 245
217 232 253
213 229 245
210 226 246
212 227 248
208 224 242
213 229 251
212 228 249
210 226 247
199 216 238
207 223 244
200 217 236
203 221 220
193 213 186
174 197 40
174 197 36
174 197 70
167 190 60
173 196 65
178 199 97
168 191 40
112 137 103
107 131 116
54 86 114
57 89 124
57 90 122
57 90 130
56 88 131
56 89 125
56 88 114
56 88 115
53 85 110
54 85 119
72 101 116
174 197 18
173 196 0
218 232 237
124 143 168
58 92 121
58 92 128
57 91 125
60 94 131
59 94 129
58 92 121
60 95 139
59 94 130
57 91 118
57 91 118
60 94 126
58 92 121
58 92 125
61 96 136
59 93 122
58 91 121
59 92 126
59 93 125
58 91 118
59 92 122
60 94 133
58 92 118
59 92 115
59 93 126
59 93 126
58 92 120
60 95 134
59 93 121
59 93 129
60 95 137
59 93 129
59 93 121
59 93 128
59 93 122
60 95 135
60 94 126
60 95 136
59 94 129
60 94 125
59 93 126
59 93 131
59 92 120
59 93 128
58 92 124
59 93 124
59 93 129
60 95 129
62 97 141
59 93 125
58 92 120
59 93 125
59 93 122
59 93 125
58 92 124
61 96 145
58 92 122
58 92 121
58 92 114
61 96 139
59 92 129
58 92 114
61 95 137
60 94 133
59 94 133
60 95 131
57 90 116
57 90 121
58 91 124
59 93 128
60 93 136
58 92 128
59 93 129
59 93 134
60 94 130
60 94 125
59 92 124
59 92 125
58 91 133
59 93 133
58 91 107
58 92 118
60 93 129
58 91 124
57 90 117
58 90 121
59 92 117
56 87 108
58 91 127
56 87 114
57 89 117
58 89 119
55 87 114
56 87 120
56 86 112
57 88 117
54 85 115
54 82 98
56 85 113
56 86 115
54 80 102
104 121 135
205 215 225
177 182 172
163 170 165
149 154 144
141 149 148
137 145 146
138 147 149
137 145 145
119 128 125
131 139 137
122 130 120
114 119 105
106 114 102
124 133 128
111 118 111
120 127 116
116 124 109
118 126 117
122 128 108
113 119 99
126 132 117
120 125 104
122 125 94
130 133 104
134 135 94
148 150 122
131 132 90
134 135 91
127 128 85
136 138 101
133 135 95
125 128 88
143 141 88
137 136 83
141 139 83
144 142 81
147 145 89
140 139 81
149 146 83
142 140 72
145 144 93
156 153 88
150 146 72
147 143 76
147 144 80
152 149 81
153 150 83
149 144 73
154 149 69
152 146 70
150 146 62
151 147 70
161 155 84
154 149 72
155 150 67
154 149 70
161 155 78
159 154 76
154 149 70
160 155 75
162 157 81
160 153 68
165 159 77
157 153 68
162 156 71
162 157 78
156 151 62
166 160 81
167 160 76
163 157 82
160 155 69
166 160 81
163 158 77
167 161 81
167 159 78
168 161 80
171 166 95
166 159 86
168 163 83
167 162 81
166 160 77
164 160 84
167 160 80
164 158 72
168 164 93
169 163 87
175 168 90
168 162 80
170 164 90
169 163 83
167 162 93
169 163 82
171 164 87
170 164 90
173 167 95
172 167 92
167 162 87
169 163 86
172 168 97
171 165 93
172 166 93
170 165 93
173 168 101
170 164 85
172 166 90
176 170 108
174 169 105
172 166 97
174 169 104
175 170 103
171 165 93
174 171 107
175 172 110
172 166 95
178 176 123
180 176 120
178 173 113
175 170 103
180 176 118
171 166 94
177 175 122
179 177 123
176 172 110
178 175 118
177 172 111
179 175 117
176 173 115
179 176 120
176 173 115
174 170 105
175 173 117
182 177 122
175 170 104
178 174 118
175 171 112
180 179 131
173 168 96
177 174 112
181 182 142
179 175 116
176 172 111
178 175 122
175 173 114
182 178 125
180 179 130
179 176 124
183 180 135
179 176 118
177 174 118
175 198 0
174 198 0
174 197 0
173 196 25
180 202 76
180 202 76
176 199 62
180 202 72
180 202 80
183 204 102
183 205 111
179 202 84
183 205 102
181 203 84
181 202 80
180 202 80
179 201 76
178 200 57
181 203 92
176 199 57
176 200 67
176 199 44
176 199 44
177 200 57
177 200 62
179 201 57
177 199 51
189 210 156
195 214 190
203 221 212
205 222 220
204 221 231
208 225 235
210 227 237
213 229 242
206 223 233
209 226 236
209 226 242
211 226 240
212 228 238
213 229 246
213 229 242
209 225 246
213 229 243
214 230 249
209 225 241
211 227 239
211 227 244
209 225 242
214 229 248
209 225 238
211 227 244
209 224 238
207 223 238
209 225 241
206 222 239
213 228 244
213 229 241
214 229 248
210 226 240
215 230 248
217 232 247
209 225 241
213 228 242
217 232 250
212 227 236
215 230 242
217 232 247
216 231 245
215 231 245
218 234 250
216 232 245
216 232 245
216 231 244
217 232 248
217 233 248
216 232 245
218 233 250
216 231 246
217 233 248
215 231 242
217 232 248
218 234 252
217 232 248
218 233 248
216 231 245
216 232 244
216 231 244
217 232 246
216 231 245
217 233 248
216 231 246
217 233 249
218 233 250
218 233 250
217 232 246
218 233 252
218 234 252
212 227 237
213 229 238
217 233 250
216 232 246
214 230 246
219 234 255
216 231 244
217 232 250
216 231 246
216 232 248
216 231 250
215 230 249
216 231 249
213 228 246
217 232 254
212 227 244
208 223 242
209 224 243
207 222 241
215 231 252
207 223 243
207 223 244
210 226 250
197 213 234
204 221 243
204 221 237
203 221 218
184 205 140
172 195 54
175 198 70
174 198 67
176 198 74
171 194 54
175 197 62
167 191 51
106 131 100
84 111 107
57 91 108
57 89 126
57 90 125
54 85 109
58 91 128
56 88 115
53 85 113
56 89 126
55 87 113
55 88 117
136 159 66
171 195 0
174 197 25
222 235 249
162 179 202
58 92 129
58 92 121
59 93 121
59 93 131
59 93 129
59 93 117
58 91 110
58 92 117
60 95 135
60 94 130
60 94 134
58 92 128
60 94 126
60 94 128
59 92 122
58 91 114
59 94 129
57 91 126
58 92 128
59 92 124
59 93 124
60 94 130
59 93 129
59 94 136
59 92 117
59 94 128
60 95 133
61 96 137
60 95 131
59 93 128
60 94 130
60 94 134
59 94 130
59 93 122
59 93 122
59 92 128
60 94 126
59 94 137
61 95 134
59 93 125
59 93 133
60 94 134
58 92 114
59 93 122
58 92 122
60 95 134
60 94 131
59 94 129
60 94 142
58 91 114
59 93 128
59 93 125
59 94 130
58 92 128
59 93 117
59 93 125
59 93 122
59 92 120
59 93 129
59 93 124
59 94 126
60 94 129
60 94 135
60 94 133
59 92 122
59 93 121
57 89 120
59 94 124
60 95 132
57 90 120
58 92 124
59 93 125
59 93 126
59 92 129
61 94 133
59 93 132
58 92 122
58 91 119
59 92 132
59 93 123
59 91 123
56 88 118
60 93 126
58 90 113
59 92 127
60 94 134
60 93 137
57 89 116
58 90 121
58 91 126
57 89 124
56 86 107
58 88 119
56 88 119
56 87 114
56 86 112
53 82 105
53 80 102
55 84 105
54 82 110
153 167 183
223 235 252
177 183 175
165 173 172
155 163 164
132 138 133
139 146 146
128 137 138
124 133 134
107 115 108
110 116 103
117 125 121
113 122 119
114 121 108
113 119 107
122 129 118
116 124 115
109 115 96
118 123 103
125 130 110
116 123 106
132 136 114
111 114 71
127 131 96
130 131 105
121 124 87
134 134 91
135 136 94
129 130 91
119 121 74
133 135 94
132 132 91
132 130 67
135 133 74
149 148 99
131 131 75
136 135 80
134 133 64
143 142 93
138 136 75
131 129 63
144 141 78
135 134 77
140 137 67
146 144 76
141 139 62
151 147 74
153 148 79
145 142 73
156 153 85
157 152 78
148 143 61
152 148 74
155 150 76
155 150 72
164 158 82
161 155 81
154 150 71
155 151 84
154 148 69
161 155 74
161 155 77
162 158 87
156 152 75
158 154 84
160 156 76
163 158 80
161 155 80
159 153 69
165 160 88
170 163 85
163 158 78
162 157 71
161 156 72
159 154 73
169 162 80
169 162 79
166 159 73
164 157 74
170 164 88
169 163 82
167 161 75
170 163 84
167 161 81
167 160 83
169 164 90
164 158 73
167 162 87
172 164 82
167 160 77
166 161 76
169 163 83
169 165 95
171 165 87
168 163 85
173 168 98
171 167 98
171 166 101
175 169 98
167 163 83
173 168 98
170 164 81
174 168 96
173 168 101
172 168 96
173 166 93
170 165 97
176 171 106
170 165 86
174 170 106
173 168 99
177 173 115
173 169 109
169 166 99
170 167 102
174 170 111
173 167 93
171 167 98
173 168 98
175 170 104
172 169 101
177 173 115
178 174 118
176 172 109
174 171 113
175 172 110
173 170 112
175 170 108
173 169 104
178 174 113
172 170 109
175 172 113
177 173 113
177 175 125
178 177 124
178 177 126
183 182 138
177 175 121
174 172 113
180 179 134
181 177 125
178 177 126
173 170 105
178 175 124
177 174 121
182 179 135
178 175 124
181 179 130
180 178 130
179 177 124
173 197 0
174 198 0
173 197 0
175 198 36
177 200 62
178 201 80
181 203 88
177 200 72
177 200 67
177 200 62
185 206 111
182 204 99
178 200 67
179 201 72
179 202 80
181 203 95
180 202 88
181 203 88
175 199 51
178 201 62
178 200 44
175 199 44
177 200 57
177 199 51
175 198 0
175 199 51
175 199 51
182 204 105
193 213 180
198 217 202
204 222 219
202 220 218
208 225 233
205 222 234
213 229 241
206 222 236
210 227 239
212 228 242
204 221 232
210 227 233
209 225 242
211 227 243
210 226 244
210 226 237
212 228 245
214 230 247
208 223 240
210 225 241
208 224 242
206 222 242
208 224 239
209 225 240
212 227 248
207 223 235
218 233 254
211 226 242
211 227 239
207 223 237
208 224 236
210 226 243
210 226 245
208 224 234
215 230 245
216 231 249
210 226 238
216 232 250
217 232 246
217 233 250
219 234 253
217 233 249
219 234 252
217 233 249
217 232 246
218 233 250
215 231 241
216 232 244
217 232 249
217 232 248
217 232 248
217 233 250
219 233 252
215 231 242
218 233 249
217 232 248
217 232 248
217 232 249
217 232 248
216 232 244
217 232 249
216 231 248
216 231 246
217 232 245
217 233 248
218 234 253
218 233 249
219 234 253
216 232 245
218 233 253
215 231 248
216 232 249
218 233 253
217 233 250
216 231 249
212 228 244
214 229 245
214 230 248
217 232 252
218 234 253
218 233 252
213 229 248
215 231 250
213 229 248
215 230 251
212 227 249
211 226 244
215 230 250
213 229 248
209 225 246
205 221 242
210 227 249
206 223 243
200 217 238
204 221 236
202 221 220
190 209 187
168 190 82
171 194 51
174 197 51
173 196 74
171 194 31
171 194 72
167 190 31
161 184 44
125 148 86
59 91 117
57 91 129
55 88 113
58 91 118
54 85 110
55 88 115
53 85 114
54 85 110
54 86 107
55 87 108
70 100 118
166 189 31
174 197 0
180 202 80
217 231 233
172 188 193
56 89 122
59 92 134
58 91 121
59 93 121
58 91 124
60 94 131
57 90 122
59 93 122
59 94 129
61 96 135
59 93 131
58 91 121
59 93 122
59 93 131
60 93 128
59 93 131
60 94 129
60 95 134
59 93 125
60 94 129
60 95 135
59 93 122
60 94 126
58 92 120
59 93 129
59 93 121
59 93 121
59 93 122
59 93 126
59 92 121
58 92 121
59 93 130
58 92 124
59 94 125
59 93 124
59 93 124
57 91 115
59 93 121
60 94 125
56 90 115
59 93 126
59 93 120
60 94 125
59 92 124
59 93 128
59 94 125
59 93 128
59 93 125
61 96 141
60 94 137
60 94 137
58 92 117
58 91 120
59 94 137
58 92 126
60 94 139
58 92 125
61 95 143
60 94 126
58 91 120
60 95 134
58 91 122
60 94 133
59 93 123
59 92 121
59 92 126
58 91 114
59 92 122
58 92 125
58 91 124
58 92 118
60 94 136
58 92 117
59 93 135
58 92 113
57 89 121
59 92 129
59 92 120
59 92 120
59 93 130
57 90 119
58 91 127
58 91 128
57 90 121
59 92 125
57 88 110
58 90 128
58 90 124
59 92 123
59 91 121
56 87 110
55 85 121
54 85 90
56 86 111
55 84 102
55 84 95
53 82 96
55 83 101
53 82 115
51 77 100
164 178 184
218 232 236
185 194 189
158 166 161
154 161 160
136 142 135
143 150 145
136 144 141
141 149 147
142 151 156
116 125 122
122 131 131
111 119 113
98 105 94
121 129 120
125 131 120
97 103 83
128 134 122
114 119 95
127 134 119
116 120 89
116 123 107
124 127 92
127 131 105
125 130 104
132 134 105
116 118 72
124 125 82
129 128 87
130 132 94
138 137 85
138 138 98
142 142 89
136 136 83
142 143 102
132 133 77
140 139 85
140 138 75
145 142 76
142 139 66
139 137 74
155 153 88
149 146 75
148 146 83
155 152 90
147 143 59
152 147 74
143 140 66
147 144 75
155 150 84
152 147 67
159 152 74
157 151 75
157 152 81
154 149 74
153 148 71
154 148 68
158 153 78
164 157 72
157 152 67
163 158 78
157 152 76
158 154 75
161 156 73
161 156 73
159 154 69
160 154 69
156 153 74
164 159 78
162 155 74
166 159 77
158 152 68
165 159 78
161 157 72
168 163 88
165 160 72
165 158 74
168 162 76
170 165 84
164 158 75
170 164 86
169 163 84
166 161 81
164 158 78
166 160 78
169 163 84
163 157 71
170 164 88
174 167 95
169 163 89
170 165 89
168 164 94
170 163 84
171 164 85
165 159 73
171 167 98
169 164 81
167 163 86
171 166 93
168 164 88
168 162 89
173 169 99
171 166 90
172 166 89
173 166 91
168 162 88
174 168 93
175 170 108
171 166 99
164 158 78
170 166 100
175 169 97
168 163 84
174 168 101
176 170 99
178 175 123
175 172 110
169 167 103
174 170 104
173 168 105
177 171 106
175 171 105
178 176 119
178 173 110
180 177 127
176 171 105
176 174 117
175 172 109
174 170 107
177 175 118
172 167 97
174 170 109
180 178 132
180 176 121
178 177 128
177 176 121
178 175 120
180 176 117
180 175 117
178 176 124
182 181 136
178 173 111
179 177 125
182 179 127
175 171 110
180 178 131
174 172 112
180 177 124
183 181 134
180 177 124
173 197 0
174 198 0
174 197 0
173 197 0
178 201 72
179 202 76
174 198 51
178 201 72
177 199 36
175 199 44
175 199 57
181 202 84
182 203 95
180 202 84
182 204 95
182 203 84
177 200 62
179 201 72
177 200 57
177 200 57
177 200 57
176 199 57
178 201 62
175 199 44
178 200 62
174 198 25
177 200 51
178 201 62
183 205 131
196 215 185
203 221 216
206 224 228
202 219 222
201 219 211
208 225 235
207 224 231
206 222 239
212 229 245
209 225 243
204 221 231
209 225 243
212 228 242
213 229 244
209 225 243
212 228 242
208 224 244
212 228 239
212 228 242
211 227 240
215 230 246
208 225 236
212 228 242
216 231 247
208 224 234
215 230 248
208 223 237
213 229 246
212 228 241
214 229 248
211 226 248
213 229 242
210 226 240
216 232 244
215 231 250
218 233 248
218 233 252
219 234 254
218 233 249
216 232 245
215 231 242
219 234 253
217 233 249
217 233 249
215 231 241
216 232 249
217 233 250
217 232 246
216 232 248
218 233 249
219 234 252
216 232 246
217 232 246
217 232 250
214 229 238
218 233 249
217 232 248
218 233 250
217 233 249
216 231 244
217 232 248
216 232 249
218 233 249
217 233 250
214 230 238
216 231 246
217 233 249
216 231 248
212 228 240
215 231 246
215 231 244
217 232 250
215 231 244
214 229 245
213 228 244
216 231 248
215 231 245
217 232 252
214 229 248
215 231 248
215 231 248
215 231 248
213 229 249
210 226 244
210 225 242
208 224 240
208 224 242
210 227 246
211 227 248
208 224 244
208 225 246
212 228 249
197 214 228
209 226 240
199 218 217
184 205 153
169 191 60
172 195 44
172 195 72
175 197 65
167 190 62
168 191 60
165 188 31
146 169 78
108 132 87
56 89 112
56 89 98
55 87 111
54 86 100
57 90 118
55 87 115
54 86 113
55 87 116
56 88 118
56 89 116
120 144 82
170 194 0
171 195 0
175 198 0
174 197 0
166 189 51
55 88 111
57 91 120
58 92 126
57 91 131
58 92 114
59 93 131
59 94 129
60 95 130
59 93 124
60 94 133
59 93 129
60 94 126
59 94 134
58 92 120
60 94 129
57 91 114
58 91 122
59 94 133
60 94 134
59 93 122
58 92 128
58 91 124
60 94 131
59 93 120
59 94 121
58 92 120
61 96 137
58 92 118
60 93 136
57 91 115
58 92 124
59 93 125
59 93 122
59 94 133
59 93 124
60 94 133
58 92 120
60 94 128
59 93 117
56 89 113
58 91 117
57 91 114
59 93 124
60 94 137
60 94 134
59 93 124
58 92 114
59 93 124
60 94 125
59 93 128
58 92 120
59 94 126
59 93 125
59 93 128
57 91 121
58 91 117
59 92 110
59 93 124
57 91 122
59 93 118
59 93 121
60 94 128
59 93 129
59 93 133
59 93 126
59 93 128
59 93 123
60 93 131
57 90 115
59 93 126
61 95 139
58 91 116
57 89 119
58 91 125
60 93 130
57 89 114
58 91 119
59 93 131
60 93 130
58 90 124
58 91 128
58 90 118
60 93 128
58 90 113
57 89 114
57 88 112
57 89 111
58 90 115
56 87 112
58 90 124
55 85 117
56 86 104
54 84 112
56 87 120
55 85 112
56 86 104
57 86 107
54 83 99
53 80 103
50 75 90
158 180 32
176 199 0
178 191 145
163 168 159
146 151 139
145 151 143
148 155 147
146 154 157
134 141 140
123 131 128
115 121 113
117 125 121
118 126 114
122 129 124
124 132 121
123 129 118
120 127 115
128 135 123
113 117 85
118 126 117
116 121 98
128 133 108
120 124 88
101 105 70
115 117 82
119 123 92
127 129 81
127 126 74
120 122 84
135 137 99
130 132 87
128 129 78
129 129 76
135 135 87
141 140 80
143 140 74
150 148 89
140 139 93
144 142 82
135 136 98
151 146 84
155 151 82
147 145 84
142 141 79
137 135 77
153 149 76
153 149 81
143 140 76
150 147 80
154 150 78
147 144 83
160 155 87
154 150 75
147 144 76
154 151 86
161 155 76
158 153 79
154 149 69
158 154 79
161 154 74
161 155 72
157 154 67
161 155 65
154 148 67
156 152 68
162 156 71
166 161 75
163 158 80
165 160 90
159 154 68
162 156 71
157 153 71
163 157 77
168 162 84
163 159 82
169 162 85
159 153 75
167 161 79
164 158 73
165 160 78
157 153 73
170 164 87
171 165 88
168 161 83
171 165 93
162 157 78
164 159 80
169 163 82
172 165 89
168 161 77
166 160 79
167 162 83
164 158 77
174 168 98
173 167 92
164 158 75
172 166 92
178 172 105
170 166 99
174 167 93
171 166 99
168 164 84
171 168 102
170 165 93
172 167 99
173 169 100
174 169 101
169 163 84
171 166 98
171 166 90
171 166 97
172 168 100
176 173 115
172 167 93
173 169 107
176 171 109
166 161 84
175 170 110
175 170 103
176 173 116
174 168 101
174 170 106
177 174 117
172 168 102
177 175 124
176 172 110
175 171 113
176 173 116
180 176 121
176 172 110
172 168 103
175 172 116
174 170 106
177 174 117
179 175 119
171 167 95
180 177 125
182 181 135
178 176 120
179 175 117
185 185 146
177 175 124
184 181 134
175 171 109
186 187 152
183 182 138
184 182 134
178 175 120
179 177 124
179 177 124
174 198 0
174 198 0
173 197 0
174 197 0
176 199 36
177 200 51
178 201 62
175 198 62
177 199 36
181 203 84
179 202 80
175 198 36
181 203 88
179 201 72
178 201 62
181 203 88
175 199 62
178 201 80
177 200 62
177 200 67
176 199 51
178 200 57
175 198 36
176 199 72
174 197 0
176 199 36
175 198 36
175 199 36
185 206 120
196 215 181
203 222 213
205 223 215
207 225 228
203 220 223
207 224 233
207 224 230
205 222 231
208 225 239
210 227 240
209 225 242
207 224 240
208 225 240
209 225 236
214 229 247
211 227 241
208 224 240
210 227 240
209 225 237
209 225 244
212 228 245
207 223 237
210 226 241
211 227 244
214 229 248
213 229 242
212 227 250
212 228 242
214 230 248
214 229 248
214 230 243
216 232 250
211 227 240
218 233 253
216 232 245
217 233 249
215 231 244
216 232 248
216 232 248
215 231 245
215 231 244
217 233 249
217 232 249
217 232 249
218 233 252
215 231 242
217 233 249
216 231 245
214 230 241
215 231 242
215 230 241
215 230 242
214 230 244
217 232 249
218 233 253
217 232 248
215 230 241
218 233 250
216 232 248
214 229 244
216 232 246
217 232 246
218 233 250
215 231 246
215 230 245
216 231 248
217 232 248
217 232 250
212 228 238
215 231 244
218 234 253
214 229 244
217 233 250
214 230 246
217 232 253
214 230 244
215 231 246
214 229 245
217 232 252
213 229 246
212 228 242
215 231 248
214 230 249
216 231 249
208 223 243
209 225 242
206 222 241
206 222 241
209 225 246
211 228 249
205 222 240
210 227 244
206 223 239
198 216 227
193 213 199
173 197 67
170 193 51
166 189 44
171 195 51
171 194 67
165 188 54
163 186 51
157 180 51
127 149 62
82 108 95
57 89 107
54 87 104
55 87 101
53 84 102
55 87 112
55 87 99
54 86 91
52 83 97
55 87 109
79 107 101
167 191 0
172 195 0
174 197 0
174 198 0
174 197 0
173 197 18
77 106 94
57 90 115
58 91 122
58 91 121
60 94 124
57 91 114
60 94 131
59 93 125
58 91 124
59 92 131
59 93 122
58 92 115
60 95 126
59 94 124
59 93 129
58 91 117
59 93 121
59 93 118
60 94 131
58 92 118
59 93 126
57 91 118
59 94 130
59 93 126
58 92 124
57 91 113
58 92 121
59 93 126
60 95 129
61 95 130
60 95 133
60 94 130
59 92 121
58 91 115
57 91 114
58 92 125
59 93 124
59 93 120
60 95 131
58 92 113
59 93 126
59 93 120
58 92 122
57 91 103
59 93 133
59 93 125
58 92 120
60 94 128
60 95 131
59 92 124
59 93 128
57 90 108
60 94 128
59 93 130
60 94 126
59 93 121
58 91 110
59 93 126
58 92 124
58 92 128
59 93 126
57 90 124
61 95 130
58 91 119
58 92 117
58 91 125
58 91 124
58 91 132
59 93 129
60 94 139
59 92 124
59 93 130
59 93 121
59 92 118
59 92 128
58 91 123
59 93 129
58 92 126
59 93 123
59 92 132
58 91 120
57 90 119
57 90 112
58 91 123
55 87 110
58 90 124
58 90 119
58 90 115
56 88 109
58 91 125
57 89 122
56 87 116
57 87 105
55 84 104
54 83 106
55 85 103
56 86 111
55 83 99
51 78 93
76 97 80
174 198 0
174 197 0
174 195 62
182 189 185
154 162 161
153 159 145
137 145 140
148 156 156
134 141 134
128 135 127
122 128 120
120 128 123
126 132 120
131 138 126
107 113 99
132 140 129
116 120 96
115 122 105
118 125 113
116 122 101
120 124 97
123 126 92
116 119 80
124 129 106
132 135 106
129 134 114
131 132 96
125 127 78
139 139 91
128 128 77
134 134 82
141 139 81
128 127 74
130 131 83
143 142 91
138 137 77
135 133 80
151 150 98
133 132 80
140 138 75
135 133 63
142 139 80
144 141 63
139 137 74
145 143 86
152 149 78
150 148 84
151 148 76
160 155 84
147 143 65
146 143 63
155 150 80
158 153 74
148 143 70
153 149 74
156 151 75
155 150 63
152 148 75
155 150 64
155 151 69
155 151 75
154 150 71
153 149 69
160 154 71
162 157 87
161 156 73
157 151 67
158 153 75
161 156 67
160 155 74
163 157 76
156 151 74
161 154 74
158 153 60
165 159 78
162 156 79
162 156 68
170 166 94
161 156 78
165 159 74
167 160 81
167 161 78
165 159 72
170 164 87
165 159 81
170 165 93
167 163 88
167 163 95
170 165 96
167 162 91
169 163 89
166 161 82
173 169 108
167 162 84
167 162 87
173 167 97
170 163 87
173 169 104
173 167 100
174 169 108
168 163 87
169 163 87
170 166 95
173 169 101
172 167 98
173 167 97
166 160 84
170 165 84
177 174 117
172 168 109
173 169 98
168 163 83
173 168 100
178 172 114
174 168 95
174 170 106
175 171 108
171 165 95
177 173 116
174 169 101
175 172 115
173 168 99
177 172 112
172 170 110
172 167 100
171 168 109
179 176 123
176 172 113
176 172 109
177 172 110
180 177 126
179 176 123
176 174 123
178 174 117
182 180 133
172 169 111
178 173 120
177 174 117
178 176 120
176 172 112
179 177 125
174 172 112
182 180 136
176 174 117
184 183 140
179 176 121
182 181 135
181 179 129
184 183 142
180 177 126
174 197 0
174 198 0
174 198 0
174 198 0
173 197 0
177 200 51
174 197 36
177 199 62
180 201 76
178 200 57
177 200 62
177 200 57
175 198 51
183 205 108
181 202 80
177 200 62
176 199 51
178 200 72
175 198 44
177 200 57
175 198 62
177 200 57
178 200 44
175 199 36
176 199 44
176 199 51
178 201 72
175 198 44
175 199 51
186 208 157
194 214 196
203 222 213
207 225 228
208 225 236
210 227 238
207 224 238
205 223 232
208 225 235
211 227 243
214 231 247
210 226 243
209 226 244
207 224 242
210 226 241
210 226 244
202 219 236
211 228 240
211 227 248
210 226 250
211 227 240
207 223 243
208 224 240
216 231 249
213 229 244
209 225 243
207 224 233
214 230 249
206 222 237
213 229 246
216 231 250
214 230 244
215 231 245
217 233 250
218 233 252
217 233 249
217 232 248
217 232 248
217 233 249
218 233 250
217 233 250
217 232 248
216 232 249
218 234 253
216 232 246
215 230 242
216 231 245
214 230 241
217 233 249
218 233 250
216 232 248
216 232 248
216 232 246
215 231 245
217 232 249
216 232 246
216 232 248
216 232 245
218 234 252
216 232 248
214 229 241
216 232 250
214 230 245
217 233 252
217 233 249
218 233 250
212 228 242
217 232 248
215 230 245
214 229 245
215 231 248
216 232 248
216 232 253
215 231 249
215 231 249
215 231 249
216 232 249
211 227 244
210 225 241
215 230 248
214 229 248
212 227 245
210 226 241
213 229 249
209 225 245
212 228 250
213 229 248
207 223 240
211 227 248
208 224 246
204 221 240
201 219 240
202 220 233
199 218 223
173 195 131
165 189 47
170 193 36
170 193 65
170 194 44
165 188 72
161 185 44
166 188 25
165 187 60
115 140 84
58 89 94
52 83 100
56 89 117
54 86 104
55 87 110
53 84 96
56 89 111
53 85 98
54 86 102
52 84 96
150 174 44
166 189 0
172 195 0
173 197 0
175 198 0
172 196 0
174 198 0
119 144 87
57 90 117
58 91 117
58 92 114
56 89 113
58 92 121
58 92 120
58 92 121
58 92 124
59 94 124
59 93 135
59 94 128
58 91 117
59 93 122
57 91 117
58 92 128
57 91 118
59 93 115
58 92 115
58 92 118
58 92 115
59 93 122
58 92 128
59 92 118
58 91 114
59 94 121
58 91 118
58 92 125
59 93 130
60 94 129
58 91 124
60 94 128
59 92 128
57 90 108
59 93 128
59 93 125
58 92 128
59 93 120
61 96 137
59 93 117
59 93 125
58 91 113
59 94 136
60 94 128
58 91 117
60 94 137
59 93 125
58 93 125
60 94 128
58 92 122
60 94 129
58 91 111
59 93 121
59 93 118
58 91 118
59 93 125
59 93 122
58 91 116
58 93 125
57 90 114
58 91 126
61 95 135
57 89 118
59 93 126
59 92 122
58 92 115
60 94 131
57 90 118
60 95 130
60 94 135
60 94 136
56 89 118
58 90 112
57 89 112
58 90 120
58 92 121
59 93 123
59 92 117
58 91 127
58 90 120
58 92 122
60 94 131
58 92 128
57 88 115
57 88 111
59 92 124
58 90 115
56 88 118
56 87 116
57 87 123
58 91 129
54 84 98
55 85 101
55 86 111
56 86 108
56 86 108
52 80 100
54 83 96
51 78 89
121 142 67
175 198 0
173 197 0
174 197 0
177 184 161
165 169 149
156 163 157
151 158 153
149 156 151
116 121 110
125 132 126
128 136 133
137 144 137
128 135 133
127 134 127
130 136 122
130 137 130
136 143 129
122 128 112
120 124 103
125 129 106
137 141 115
126 129 93
123 127 108
135 140 115
126 131 106
133 135 97
126 127 92
121 125 96
121 122 76
135 137 98
135 136 93
130 131 81
138 138 89
130 129 75
134 133 79
143 142 85
135 134 74
137 136 79
136 134 71
150 147 92
140 139 68
148 146 85
143 142 93
141 139 73
143 142 70
140 137 61
146 143 74
149 146 83
149 145 67
152 149 82
156 152 75
152 149 81
157 151 68
155 152 75
156 151 72
151 147 74
144 142 63
155 152 75
152 148 79
156 151 73
157 152 71
153 148 65
160 155 88
156 150 75
161 156 65
155 148 51
159 155 77
160 155 75
162 156 78
165 159 79
162 157 76
160 156 76
159 155 72
160 155 70
162 156 68
164 157 81
168 162 84
169 162 89
164 159 78
165 160 80
164 160 81
171 165 89
168 163 81
168 164 93
168 162 87
171 165 90
163 158 77
174 168 97
165 161 84
172 166 89
165 159 75
172 166 93
166 160 83
169 164 87
166 161 88
167 162 78
170 164 91
170 164 87
174 168 99
169 165 89
171 164 90
173 169 105
172 166 100
171 167 104
167 163 80
169 164 90
174 169 99
174 169 101
171 165 97
167 162 88
175 169 105
166 161 80
170 164 90
170 165 88
170 165 90
171 168 107
173 169 103
175 170 103
177 173 108
176 173 115
173 169 106
174 171 110
173 169 109
176 174 117
178 176 121
179 177 126
173 169 103
179 175 116
179 175 121
176 171 108
175 174 121
177 175 123
178 173 112
175 171 109
175 173 113
178 174 115
178 173 112
181 178 125
174 170 107
179 176 120
181 179 134
179 178 126
176 174 117
177 174 120
185 183 138
175 174 119
182 179 131
182 181 137
178 175 122
181 178 125
173 197 0
173 196 0
174 197 0
172 196 0
175 198 0
174 197 51
179 201 67
176 199 51
176 199 57
179 201 72
176 199 51
177 199 36
176 199 51
174 197 25
179 201 80
176 198 51
179 201 76
178 200 67
176 199 51
176 200 57
175 198 62
178 200 62
176 199 57
176 200 57
176 199 57
175 198 44
178 200 51
176 199 36
176 199 44
177 200 84
191 212 165
201 220 210
201 220 217
200 219 211
205 222 223
208 225 231
204 221 226
207 224 231
208 225 240
208 224 236
209 226 238
208 225 235
211 227 244
206 222 238
211 227 244
210 226 242
209 225 241
212 229 248
205 222 238
210 226 242
206 222 240
213 229 244
214 230 248
211 227 245
211 227 248
215 230 250
212 229 240
215 231 247
216 232 249
215 231 242
215 231 245
216 231 248
217 232 248
218 234 253
216 232 246
215 231 246
216 232 246
216 232 248
215 231 244
216 231 246
217 232 249
216 232 246
218 233 253
217 232 248
217 233 253
217 233 252
215 231 244
216 232 248
216 232 244
216 231 249
215 231 248
213 229 237
217 232 248
215 230 242
215 231 245
216 231 246
216 231 248
213 229 241
217 233 249
214 229 244
216 232 246
216 232 249
215 231 246
215 231 246
214 230 246
215 231 246
213 229 241
214 230 245
216 232 248
215 231 244
218 234 253
218 234 254
216 232 249
217 232 249
212 228 242
214 230 248
215 230 249
213 228 246
211 228 244
214 230 250
213 229 248
212 228 246
215 231 253
214 230 249
214 230 250
213 230 249
210 227 245
209 226 246
209 226 246
205 222 240
203 221 236
195 214 213
181 202 165
166 189 54
160 182 31
166 188 47
166 189 62
168 190 60
163 186 54
160 183 0
153 175 51
146 168 62
87 112 81
55 87 94
56 88 100
54 85 103
54 86 96
54 87 107
55 87 94
52 82 98
55 87 101
56 89 102
122 147 51
165 189 0
171 194 0
170 194 0
174 197 0
174 198 0
175 198 0
174 198 0
152 176 65
57 90 125
57 90 122
58 91 121
57 90 111
58 91 113
58 92 122
58 91 118
58 91 117
58 91 124
60 94 137
57 91 110
58 91 110
59 93 117
59 93 131
60 95 139
59 93 122
58 92 124
59 93 134
59 93 124
56 88 113
60 94 125
59 93 124
59 92 125
57 90 117
59 93 125
57 91 118
58 91 129
59 93 124
59 93 124
59 93 129
58 91 118
58 92 120
57 91 111
58 92 117
59 93 125
58 92 121
58 92 124
60 94 124
58 92 122
58 91 118
59 93 121
59 93 122
58 92 118
57 90 110
59 93 126
58 92 120
57 91 110
59 93 122
59 93 128
57 91 114
59 93 126
58 92 128
58 92 125
59 93 125
58 92 118
59 92 124
58 91 118
58 92 120
60 94 130
58 90 123
59 93 134
59 92 124
58 90 116
60 94 127
61 94 135
58 91 129
60 93 120
59 93 124
60 94 131
59 93 126
59 92 124
58 92 114
59 92 130
59 92 129
58 91 127
59 92 125
59 93 125
59 92 129
58 91 117
59 92 126
58 90 114
58 91 126
58 91 124
55 88 114
57 89 112
55 85 102
58 89 118
55 87 107
56 88 106
55 85 108
56 87 113
56 87 119
55 84 111
55 85 106
55 85 99
55 84 114
53 81 108
51 78 90
136 159 66
173 197 0
175 198 0
173 197 0
180 194 132
169 175 166
164 170 166
151 158 154
145 149 136
149 157 155
132 139 131
133 140 132
135 143 141
137 145 140
137 145 138
124 131 120
134 142 138
120 127 118
118 125 108
114 120 102
131 135 111
126 131 105
124 128 100
123 126 92
132 137 114
125 129 101
119 122 81
115 117 77
138 139 95
131 134 97
130 132 95
135 135 87
135 135 97
126 127 80
142 141 87
142 143 98
138 137 79
134 135 88
137 136 74
140 139 77
135 133 61
141 141 89
139 139 79
140 137 62
144 141 68
144 142 68
149 146 74
131 129 62
149 146 81
144 141 72
153 149 77
151 147 70
149 145 74
149 145 64
151 147 63
160 155 84
156 152 80
155 151 72
163 157 83
154 151 71
157 152 78
153 149 73
160 156 89
150 146 71
155 151 71
158 153 75
162 157 73
159 154 73
164 158 82
165 158 82
159 154 65
154 150 68
158 152 69
158 153 63
162 156 75
162 157 80
159 155 61
162 156 67
167 161 82
169 164 87
166 160 74
165 160 78
162 158 76
165 159 78
163 157 79
166 162 82
165 159 78
168 161 80
168 163 82
167 162 86
166 159 75
170 165 90
166 162 84
167 161 80
168 163 86
170 167 99
170 164 87
161 156 63
164 157 80
170 164 89
172 167 97
171 166 93
168 162 83
168 163 92
170 166 100
167 162 90
167 161 85
171 165 94
175 169 104
172 167 102
171 166 96
170 165 97
168 163 84
173 168 103
170 166 97
174 170 105
176 170 102
174 170 108
171 168 106
177 173 122
173 168 99
173 168 103
174 169 103
172 166 100
173 169 104
177 174 118
172 168 96
177 175 123
173 169 103
180 177 123
177 174 121
179 175 121
176 172 109
172 168 108
178 177 130
178 174 116
178 174 117
178 175 116
176 171 108
177 175 120
177 171 108
177 175 123
179 175 116
179 175 120
183 181 132
178 176 124
178 176 122
178 176 125
179 177 121
185 185 145
181 179 133
174 197 0
173 197 0
173 196 0
174 197 0
173 197 0
174 198 0
176 200 62
175 198 44
174 198 36
176 199 51
178 200 57
175 198 44
176 199 25
175 198 44
176 199 44
181 203 88
178 200 76
180 202 84
180 202 80
178 200 72
178 199 72
179 201 67
176 199 51
174 198 25
174 197 25
176 199 57
176 199 57
174 197 25
177 200 62
177 199 57
179 202 100
196 216 192
199 218 216
202 221 219
203 221 217
203 220 228
204 221 233
205 223 231
207 224 233
206 224 240
211 227 246
212 229 248
210 227 242
212 229 241
210 227 246
215 232 252
210 227 240
215 231 252
213 229 247
210 227 244
211 228 238
215 231 248
212 228 246
216 232 248
213 229 246
216 232 248
216 232 252
215 231 248
215 231 246
215 231 246
214 230 241
217 232 252
217 233 250
216 231 246
217 233 249
217 233 253
216 232 246
215 231 244
213 229 238
217 233 252
218 233 253
216 231 245
211 228 238
216 231 246
217 233 249
216 233 252
216 232 250
216 232 248
216 232 248
215 231 246
216 232 249
216 231 248
216 231 249
215 230 245
218 234 253
217 233 252
214 230 244
217 232 250
215 231 245
216 231 248
217 233 249
218 233 253
215 231 246
215 231 246
213 229 245
216 232 246
215 231 246
215 231 246
215 231 246
214 230 249
217 233 252
215 231 248
213 229 245
215 231 249
215 231 249
215 231 248
215 231 250
215 231 249
211 228 246
212 228 246
211 228 246
212 229 246
213 229 245
213 229 249
208 225 241
212 229 249
204 221 238
210 227 249
203 221 234
203 221 233
198 217 215
188 208 194
171 194 80
164 186 36
166 190 44
163 186 51
159 182 38
164 186 62
158 181 36
157 178 51
152 174 44
116 138 65
56 86 92
54 85 93
55 87 100
53 85 92
57 89 108
54 85 94
53 84 78
54 85 87
54 86 102
107 132 72
164 186 0
161 185 0
166 190 0
172 195 0
175 198 0
174 197 0
175 198 0
172 196 0
170 193 18
61 92 118
55 88 107
57 89 121
58 92 122
58 92 125
58 91 126
58 91 125
59 92 122
59 92 121
60 94 126
59 92 121
58 92 118
58 92 118
57 91 113
58 92 117
59 93 129
58 91 121
57 91 115
59 93 125
57 91 124
59 93 122
57 90 120
56 90 113
59 92 121
59 94 129
58 92 120
59 93 133
58 92 130
57 91 111
59 93 124
59 92 118
59 94 126
58 91 115
58 92 115
60 94 131
60 94 133
58 92 122
59 92 120
58 92 125
58 92 122
60 94 121
58 91 121
59 93 129
59 94 125
59 93 124
57 91 108
59 93 118
58 92 117
58 91 120
59 93 125
58 92 120
58 91 120
58 92 121
57 90 111
60 95 130
57 89 114
59 93 124
58 92 127
58 92 114
60 94 125
57 91 115
58 91 121
58 91 117
58 92 117
57 89 117
57 90 114
58 91 116
57 90 114
58 92 125
57 90 111
58 91 120
58 91 115
57 89 116
60 94 136
59 92 128
58 91 117
57 90 112
57 89 118
57 89 112
57 90 119
58 91 124
58 90 118
56 88 116
57 89 116
56 87 115
56 88 109
59 92 119
56 88 114
54 84 97
55 84 99
55 84 106
53 82 96
53 82 94
54 84 112
56 87 113
52 80 100
51 78 96
62 86 92
173 196 5
173 197 0
173 197 0
174 198 0
175 195 80
167 172 161
151 155 140
158 164 158
151 159 155
152 160 156
140 146 138
138 144 138
130 136 127
121 129 122
124 130 119
108 114 103
127 133 120
118 124 110
121 128 116
123 129 112
124 129 103
144 150 137
132 136 110
114 117 85
126 129 101
130 134 104
128 129 93
122 126 92
123 127 94
130 132 96
127 127 80
130 131 84
132 131 73
126 127 80
136 138 96
134 132 74
134 135 77
136 135 75
134 131 62
138 135 81
148 145 89
140 138 59
137 136 71
147 144 80
151 148 82
151 148 78
141 141 88
154 151 81
154 150 81
149 146 65
150 146 71
146 143 68
147 143 66
147 144 63
147 144 63
157 154 83
147 144 83
146 143 65
146 143 58
154 149 73
159 156 90
163 156 76
161 156 79
154 149 65
163 156 71
164 158 76
158 152 72
159 153 67
156 152 77
163 158 82
160 155 81
165 159 79
164 158 89
167 160 73
161 155 68
162 157 77
163 157 78
159 155 72
158 153 75
163 156 84
167 162 88
160 155 71
159 153 59
166 160 79
166 160 68
165 160 75
161 157 75
167 162 82
168 163 89
169 163 80
166 161 80
166 161 83
167 162 83
168 163 90
166 159 73
167 160 71
166 160 83
167 160 80
169 164 87
169 161 82
172 169 105
171 165 90
166 161 82
171 168 99
169 164 86
168 163 87
172 169 107
174 170 106
165 160 82
162 158 87
174 170 109
169 164 95
165 162 85
173 168 101
173 169 102
169 165 91
169 164 93
169 163 88
175 171 106
171 167 99
172 168 95
171 166 88
177 174 120
172 168 99
181 178 125
173 171 113
174 170 108
173 169 106
173 169 109
174 170 103
174 172 115
176 172 115
175 172 112
180 177 125
174 170 103
180 178 132
175 171 108
180 178 131
177 173 112
176 171 106
178 175 120
176 174 118
180 177 122
180 176 126
175 173 117
177 174 118
179 176 125
184 182 137
179 178 128
182 180 133
181 180 136
174 197 0
173 197 0
174 197 0
174 198 0
175 198 0
172 196 0
174 198 25
175 199 51
178 200 67
176 199 36
179 201 76
178 200 57
175 198 44
175 198 25
174 198 0
175 198 36
177 200 80
181 203 92
177 199 51
181 203 88
177 200 57
176 199 57
177 200 62
176 199 62
178 200 57
177 200 67
174 198 25
175 198 51
176 198 44
176 199 36
174 198 44
184 206 133
195 216 194
198 218 199
201 220 220
202 221 224
204 222 231
208 225 236
209 227 238
209 226 238
210 227 240
207 224 229
214 231 248
211 228 240
212 229 241
211 228 244
215 231 248
212 228 242
214 231 248
215 231 250
213 229 245
212 229 242
215 231 245
214 230 249
216 232 249
215 231 244
216 232 249
216 232 250
215 231 246
215 232 248
217 233 252
217 233 252
217 232 249
216 232 248
215 231 249
213 230 240
217 233 249
215 231 244
216 232 246
213 229 242
215 231 245
217 232 250
217 233 249
215 230 248
215 231 244
217 232 249
215 231 248
215 231 244
216 232 249
217 233 250
215 231 244
216 232 250
215 232 248
213 229 244
215 231 244
215 230 246
214 230 245
216 232 245
212 228 240
215 231 248
216 232 248
215 231 249
215 231 248
216 232 248
216 232 250
215 231 246
216 232 252
216 232 252
214 230 246
214 230 245
213 229 245
214 230 249
215 231 249
215 231 249
213 229 246
213 229 244
217 233 253
212 229 245
213 229 248
214 231 248
214 230 250
209 226 241
214 231 252
211 228 249
210 227 246
209 226 246
203 220 238
201 219 236
202 221 237
197 216 223
187 206 191
171 194 108
166 190 36
160 184 44
160 182 51
159 182 51
168 190 76
163 186 36
153 176 44
155 177 54
136 158 36
69 98 88
54 86 90
53 84 96
53 84 80
52 83 90
55 87 113
53 84 93
54 85 93
52 84 82
108 131 62
160 182 0
168 190 0
167 191 0
169 193 0
173 196 0
174 198 0
173 197 0
173 197 0
174 198 0
174 197 0
107 132 88
57 90 114
58 92 114
57 90 111
53 85 99
57 91 111
57 90 118
57 90 117
57 90 113
59 92 115
58 92 121
59 92 120
58 92 118
57 90 113
59 93 122
57 90 118
57 91 117
59 93 122
59 93 117
57 90 110
58 92 125
59 93 124
58 92 118
57 91 114
60 94 125
59 93 122
59 93 125
59 93 121
59 92 125
59 92 121
58 91 117
58 92 115
59 93 126
59 93 125
58 92 117
60 94 130
59 94 122
58 92 121
58 91 117
57 90 111
59 93 121
59 93 121
58 92 117
59 93 120
57 91 122
57 91 117
57 90 115
57 91 120
59 92 125
58 92 118
57 91 117
59 93 125
57 90 121
57 90 115
59 92 121
60 94 124
57 90 115
58 92 124
57 89 110
58 91 117
58 91 124
58 91 117
58 92 114
58 91 121
57 90 105
60 94 125
58 91 116
57 90 107
56 89 107
55 87 110
58 91 124
59 92 117
59 92 128
55 87 99
57 89 111
58 90 117
56 88 103
58 90 115
58 90 128
56 87 101
58 91 120
58 91 123
57 89 120
58 89 108
59 92 127
56 87 109
55 87 114
56 88 108
55 86 104
57 89 113
56 87 110
53 82 100
55 86 110
53 82 105
54 83 105
52 79 89
49 74 86
111 130 66
174 197 0
173 197 0
172 195 0
173 196 0
176 198 0
171 181 128
167 173 168
164 170 165
145 152 148
144 149 142
144 151 146
129 133 120
135 143 139
114 122 114
131 137 122
137 144 135
126 131 116
118 125 111
126 132 119
118 124 106
125 131 119
121 126 100
131 136 114
138 142 120
125 130 106
126 130 112
129 135 114
121 123 86
124 125 87
130 134 100
125 125 71
134 134 87
138 139 96
137 139 100
136 136 77
132 131 62
138 136 74
141 142 98
141 141 84
138 134 55
135 134 72
141 141 86
146 142 70
145 141 70
149 148 82
146 143 82
154 152 90
150 148 90
148 145 88
149 145 71
148 143 68
137 134 58
144 141 60
146 142 61
153 149 83
149 146 65
148 144 70
146 142 47
152 147 66
151 146 63
155 153 80
161 156 74
156 152 61
163 158 92
160 155 82
155 150 73
157 152 67
157 152 69
159 154 71
155 149 66
160 155 77
155 152 71
165 159 83
167 161 77
159 153 78
161 156 70
164 159 82
168 163 91
161 155 66
162 157 80
166 161 81
168 161 86
165 160 83
166 160 80
162 157 74
164 160 87
167 161 73
167 162 86
163 158 80
167 163 95
169 164 84
166 159 84
169 165 88
168 162 88
167 162 83
169 166 95
172 167 100
166 160 78
169 166 96
170 166 92
171 168 97
167 161 80
172 165 88
167 162 86
168 162 82
169 165 90
172 165 90
170 164 93
168 163 83
171 168 104
175 172 110
177 173 115
172 169 102
173 170 110
173 171 110
170 165 95
173 166 93
168 163 90
174 171 109
170 166 90
173 170 104
174 170 108
172 169 107
171 168 108
173 169 108
170 167 101
175 171 112
174 171 106
176 173 118
171 167 98
172 167 98
177 175 120
179 175 116
171 167 101
175 171 104
180 178 125
179 178 128
176 173 112
178 174 118
176 173 117
178 175 124
177 175 122
179 176 121
178 176 118
179 175 123
179 174 118
179 177 126
179 176 122
177 174 116
178 176 123
181 180 138
174 197 0
174 198 0
174 197 0
174 197 0
174 198 0
174 198 0
173 196 0
174 197 44
175 198 44
178 200 51
176 199 25
176 199 44
177 200 51
176 199 36
173 197 36
176 199 44
173 196 25
181 203 95
176 199 72
176 199 62
179 201 67
175 198 51
173 197 44
175 198 57
174 197 44
176 199 57
173 197 36
177 199 51
174 197 44
172 197 51
174 198 62
171 195 51
186 207 147
186 207 163
204 223 223
203 222 221
207 225 232
207 225 232
207 225 232
208 226 231
208 226 236
210 228 239
212 229 244
214 230 249
213 230 247
212 228 242
215 232 252
210 227 240
215 231 248
214 231 248
213 230 248
213 230 246
215 232 249
213 230 246
214 231 248
216 232 253
215 231 246
215 231 248
214 230 240
216 232 250
216 232 248
214 231 245
215 232 248
216 232 249
213 230 238
215 231 245
216 232 252
213 230 241
216 232 250
214 231 242
215 231 246
217 233 252
214 230 241
216 232 250
215 230 245
215 232 246
215 230 244
217 233 253
216 232 248
217 233 253
214 230 244
213 229 242
215 231 246
215 231 249
217 232 249
217 233 253
216 232 249
212 229 241
217 233 250
216 232 250
216 232 249
214 230 245
216 232 249
211 228 245
214 230 245
215 231 250
215 231 248
215 231 249
216 232 249
214 230 246
215 232 252
216 232 250
214 230 249
214 231 248
212 228 242
211 227 246
214 230 246
213 230 249
212 228 245
212 228 246
208 225 242
212 229 248
206 222 240
210 227 245
208 225 241
204 222 237
209 226 246
206 224 241
203 222 234
190 210 207
181 203 155
161 184 51
168 191 62
162 184 54
155 178 57
167 190 62
151 174 25
158 180 36
151 173 0
149 171 40
121 141 57
54 85 95
55 87 90
55 87 95
53 84 80
52 83 90
50 80 70
51 82 73
51 81 79
117 139 51
140 163 0
152 176 0
165 188 0
168 192 0
169 193 0
173 196 0
174 197 0
175 198 0
174 197 0
175 197 0
175 198 0
145 169 72
58 92 126
56 90 105
57 91 115
58 91 121
57 89 120
56 89 110
56 89 112
58 92 114
58 91 114
57 90 114
57 90 113
58 91 108
57 91 118
55 88 103
58 92 122
58 92 113
57 90 113
57 90 107
58 91 107
59 93 121
56 90 114
56 89 107
58 92 121
58 92 128
58 92 120
58 91 117
57 91 105
59 93 124
58 93 118
56 89 113
59 93 126
55 88 92
59 93 115
58 91 122
57 90 108
58 91 114
58 92 120
57 91 122
58 92 115
57 90 110
59 92 121
58 91 117
58 91 128
59 92 121
59 93 115
59 93 122
61 96 136
57 90 113
57 90 110
56 88 95
57 91 115
59 93 124
59 93 117
59 92 118
60 93 132
59 93 133
57 90 111
59 93 121
58 90 113
56 89 110
59 92 120
58 92 117
59 93 129
57 90 112
56 89 108
57 89 105
58 92 125
57 90 120
57 89 103
57 89 112
56 88 107
58 90 116
56 87 111
58 91 116
57 90 112
57 89 110
56 88 117
57 90 116
57 89 123
59 92 124
55 87 110
56 88 120
55 87 115
59 91 124
57 89 112
57 88 120
57 88 109
56 87 111
57 88 112
55 84 103
54 85 103
54 83 98
54 84 99
52 79 86
53 81 85
50 75 74
147 169 55
175 198 0
174 198 0
174 198 0
173 196 0
172 196 0
180 198 102
159 162 144
161 168 155
153 159 153
146 153 149
149 156 147
133 139 132
131 137 123
133 139 129
119 125 111
128 134 120
114 120 107
120 124 98
133 138 112
114 121 103
128 132 108
113 116 86
118 122 86
133 138 113
130 134 105
112 116 83
123 127 93
121 125 98
122 125 86
136 136 88
129 131 94
135 134 82
124 124 70
140 142 100
142 140 80
126 127 69
131 130 80
136 135 77
137 138 75
149 148 95
137 136 89
145 142 76
143 140 71
141 138 67
147 143 68
140 138 71
153 150 92
150 147 80
153 150 88
144 140 69
139 136 67
145 142 72
156 153 85
151 148 75
146 143 70
149 145 67
152 149 68
158 153 80
154 148 75
152 148 71
156 151 59
159 154 79
160 154 72
158 155 83
162 157 81
158 153 63
159 153 72
159 155 77
153 149 74
163 157 80
158 153 68
162 157 89
155 151 63
162 158 82
162 157 75
162 157 80
159 154 67
158 154 81
166 159 80
162 157 82
164 158 68
163 158 73
167 163 84
162 158 81
162 157 79
160 155 63
165 159 78
166 161 82
165 159 74
170 164 84
169 163 90
166 161 80
167 162 84
169 163 90
168 163 92
167 162 81
163 157 71
170 165 94
169 164 89
170 165 96
171 165 99
175 168 98
170 166 94
170 166 101
167 163 91
169 164 97
173 168 100
166 162 82
169 163 84
176 171 108
173 169 106
169 164 90
170 164 84
172 168 98
175 170 108
174 169 100
171 166 96
174 171 112
171 166 95
169 165 95
168 164 93
175 170 105
167 163 91
175 172 113
178 176 126
173 169 108
175 172 113
174 170 106
177 173 110
175 173 113
175 172 113
185 183 142
180 177 127
175 170 103
181 179 134
175 173 120
177 175 120
173 170 112
179 176 124
176 175 125
180 177 126
178 177 125
182 179 132
180 179 132
179 177 125
174 172 113
181 179 130
188 188 153
176 175 126
176 174 115
181 179 133
174 197 0
174 198 0
173 197 0
175 198 0
173 197 0
174 198 0
173 197 0
173 197 0
176 199 57
177 200 51
176 199 51
174 198 25
177 199 51
175 198 44
177 199 51
175 198 25
175 199 44
173 197 36
177 200 57
179 202 80
179 202 76
176 199 72
175 198 62
172 196 36
176 199 51
174 197 51
174 198 25
173 196 44
175 199 44
173 197 36
175 198 36
175 198 44
175 198 62
189 210 157
195 215 195
198 217 211
197 216 213
207 225 230
206 224 230
208 226 239
206 224 233
202 221 229
210 228 240
211 228 244
211 228 242
210 227 236
208 225 242
209 226 240
211 228 246
213 230 246
213 229 244
215 231 248
212 229 244
214 231 246
215 231 248
213 230 246
214 230 245
213 229 242
214 230 244
214 231 244
216 232 250
216 232 252
215 231 248
213 229 238
215 231 249
215 231 249
214 230 246
216 233 252
215 232 250
217 232 250
213 229 242
216 232 250
213 230 246
216 232 250
216 232 249
213 229 244
215 231 248
215 231 248
212 229 240
216 232 249
213 230 244
214 231 245
216 232 249
213 229 246
215 230 249
215 231 249
214 231 246
215 231 248
215 232 249
213 229 242
215 231 248
213 229 244
212 228 248
214 230 242
212 228 242
213 229 245
216 232 250
210 226 241
216 232 250
211 228 242
214 230 248
216 232 250
213 230 246
212 229 245
216 232 253
211 228 248
213 230 248
211 229 242
209 227 242
213 230 252
210 227 248
209 226 245
210 227 246
209 227 246
204 222 237
204 222 240
202 220 238
193 213 215
195 215 217
168 189 144
164 186 25
166 189 44
167 189 57
161 183 67
161 182 76
160 182 60
157 180 25
150 172 44
148 169 44
133 153 44
61 87 66
53 84 84
51 83 70
48 78 54
52 83 95
51 82 82
49 79 76
66 92 62
126 147 31
144 166 0
150 173 0
156 179 0
163 186 0
166 191 0
168 193 0
176 199 0
174 197 0
173 196 0
173 197 0
174 197 0
174 198 0
174 197 18
76 105 110
57 91 114
53 85 97
55 88 102
56 89 107
57 90 117
54 86 105
58 91 111
57 90 103
57 91 111
57 89 115
58 92 122
59 93 117
57 91 120
59 93 117
58 91 108
58 91 114
54 86 99
58 92 126
58 91 113
55 88 107
57 91 111
59 93 130
59 92 121
56 90 111
59 93 117
58 93 121
59 93 125
60 94 124
59 93 118
57 90 120
58 91 113
59 93 125
58 91 114
57 90 115
59 93 120
58 91 120
60 94 128
60 94 124
58 92 121
58 92 114
59 94 130
57 90 111
57 90 102
58 91 118
58 92 114
58 91 122
59 93 124
58 91 120
58 92 121
59 93 124
58 92 115
58 91 120
58 92 110
59 94 122
57 90 110
56 88 97
58 92 117
57 90 111
59 93 120
55 88 101
57 90 109
59 93 124
57 91 105
56 89 118
58 91 117
56 89 111
54 87 100
57 90 116
57 90 114
57 90 115
58 90 113
58 91 114
59 93 116
58 90 122
59 93 118
57 90 116
56 88 106
57 89 108
56 88 110
56 88 108
58 90 123
56 87 113
56 87 102
53 84 99
55 86 106
55 86 104
56 88 114
56 87 101
55 85 117
53 81 93
55 84 100
53 82 94
55 83 103
50 76 94
67 91 97
173 195 8
174 198 0
174 198 0
174 197 0
170 194 0
173 196 0
175 198 25
194 203 184
160 164 149
143 147 128
165 171 161
155 161 151
133 139 133
134 139 125
125 131 116
132 139 129
123 129 114
127 133 123
129 135 125
126 131 116
120 125 106
117 121 97
114 119 97
136 140 117
135 138 104
133 137 110
135 139 119
138 142 113
133 137 100
128 129 96
146 147 109
126 129 90
132 132 85
138 137 84
144 146 110
135 134 82
134 134 95
135 135 90
144 144 89
132 131 68
141 140 77
148 146 76
144 140 72
138 136 80
147 146 89
139 136 69
147 143 83
143 141 70
145 141 60
145 142 79
146 143 73
143 142 75
158 153 78
147 144 67
147 142 60
150 147 80
151 147 77
151 147 66
150 147 72
158 154 82
149 145 64
150 146 71
158 155 87
155 151 71
159 154 79
159 155 88
159 154 79
155 150 60
158 154 77
161 157 84
156 153 65
164 160 77
159 155 78
160 156 74
164 159 83
159 154 65
164 158 78
163 157 75
161 156 72
165 158 75
160 154 65
162 156 77
159 156 68
163 158 72
165 161 89
166 162 87
164 158 76
162 156 79
166 160 77
172 166 95
164 158 83
167 161 73
159 156 75
164 159 73
163 159 78
168 163 87
163 158 79
165 160 83
172 166 93
165 161 90
173 171 109
164 158 75
175 170 111
170 166 96
168 163 87
172 167 102
168 163 96
169 165 96
167 162 90
169 166 101
173 170 111
174 171 113
165 161 79
171 168 105
172 168 99
168 162 79
169 165 95
171 166 103
177 174 117
174 172 109
172 167 97
174 170 107
170 167 99
171 165 89
169 167 101
171 168 108
175 171 108
181 178 127
179 175 116
173 169 104
173 169 104
174 168 103
177 174 110
177 174 117
174 172 118
177 175 120
174 171 116
179 177 127
173 171 109
179 176 120
176 172 112
173 170 108
181 179 131
179 177 125
182 179 131
175 172 112
177 173 117
182 181 137
181 180 134
180 179 131
178 177 127
182 180 132
174 197 0
174 197 0
173 196 0
175 198 0
174 197 0
173 197 0
175 198 0
173 197 0
174 197 25
174 198 51
176 199 60
175 199 57
174 198 25
175 199 51
177 200 67
175 198 44
176 199 44
173 197 25
176 198 51
177 199 76
177 200 62
179 202 84
178 200 80
175 198 51
175 198 51
175 198 51
177 200 72
175 198 57
175 198 36
177 200 57
175 198 72
172 196 0
174 197 44
175 198 57
190 211 169
196 216 199
200 220 217
203 223 220
205 224 227
207 225 230
208 226 234
207 226 231
209 227 237
210 228 239
209 227 243
210 227 242
213 230 246
210 228 234
213 230 245
213 230 244
213 230 242
213 230 245
215 231 249
214 231 250
210 228 238
216 232 253
215 231 249
213 230 240
210 227 240
216 232 253
215 231 249
214 231 245
215 232 249
215 232 249
213 230 244
215 232 248
215 232 252
213 230 245
217 232 252
216 232 249
213 229 244
214 231 244
217 233 253
215 232 252
215 231 245
214 230 249
216 232 248
213 229 242
214 231 248
215 231 248
215 231 245
216 232 250
216 232 249
216 232 249
216 232 250
216 232 250
217 233 252
212 229 244
213 229 249
215 232 248
212 229 242
216 232 250
216 232 250
214 230 248
216 232 253
214 230 248
212 228 244
213 229 245
216 232 252
212 228 241
210 227 242
215 232 249
211 228 246
211 228 244
213 230 249
209 226 237
211 228 246
212 229 246
211 228 246
206 223 236
211 228 245
206 224 242
206 223 242
209 227 244
203 221 238
202 221 233
195 214 224
184 204 196
173 195 144
162 186 36
165 188 36
162 185 51
158 180 57
165 187 76
160 182 51
154 176 0
152 174 44
147 169 62
135 156 51
86 108 54
51 81 72
49 78 70
48 78 62
53 84 94
56 85 76
83 107 65
118 138 40
137 158 0
141 162 0
143 164 0
154 177 0
158 182 0
167 190 0
168 191 0
174 198 0
175 198 0
174 197 0
173 197 0
175 198 0
172 196 0
173 197 0
173 196 0
138 161 67
57 90 115
57 90 103
55 88 99
59 92 118
56 89 107
56 89 113
57 90 115
56 89 105
58 91 121
56 90 108
57 90 111
56 90 110
57 90 108
57 90 113
57 90 114
58 92 124
57 89 110
56 88 107
59 92 121
55 88 116
56 89 108
58 91 114
58 91 117
58 92 115
58 93 118
57 89 114
57 90 110
59 93 121
58 92 115
58 91 117
56 89 103
58 92 117
57 91 114
59 93 117
58 92 117
59 93 125
58 91 121
58 91 124
57 90 115
58 91 122
58 92 114
58 91 117
60 93 125
58 91 115
58 91 113
59 92 129
57 90 117
58 92 121
57 91 124
60 94 124
58 92 124
60 94 129
58 92 128
57 90 118
57 91 117
57 89 113
58 91 107
57 90 110
57 90 111
57 90 115
58 91 115
55 87 101
57 90 118
58 91 117
57 90 115
58 92 120
57 89 107
58 90 113
57 89 114
57 90 109
57 90 120
56 89 107
58 90 115
57 89 118
57 90 115
58 91 118
58 91 124
56 88 113
58 90 116
56 87 108
55 87 98
56 88 113
55 86 100
58 90 120
58 89 119
55 86 109
56 88 109
57 88 119
55 85 102
56 87 106
53 82 103
53 81 92
53 81 104
52 78 98
128 149 61
172 195 0
171 195 0
173 196 0
172 195 0
174 197 0
174 197 0
174 197 0
181 196 115
172 176 158
163 169 164
155 159 140
149 156 146
148 153 146
146 152 139
119 123 104
143 150 141
139 145 133
142 146 122
120 123 104
121 125 99
122 127 108
138 142 121
134 138 118
125 129 102
143 147 121
132 137 112
118 122 93
128 131 103
128 130 89
118 120 77
124 128 87
133 136 97
129 131 85
133 133 81
139 139 93
140 137 66
132 133 88
140 141 94
130 129 72
139 138 75
129 127 71
148 147 106
141 139 81
135 134 73
143 142 83
137 135 70
138 136 72
145 142 66
134 132 61
146 144 79
153 151 84
136 134 64
148 143 69
147 143 66
155 151 75
157 153 89
151 148 82
158 152 67
150 147 78
157 152 82
153 150 80
153 149 67
158 156 90
153 149 81
151 147 63
156 151 70
156 150 61
149 145 51
156 151 68
161 156 71
158 153 69
163 156 79
154 150 66
163 158 83
159 155 78
149 146 51
164 159 87
166 159 90
164 159 85
164 158 71
159 153 63
170 165 97
167 159 81
161 157 74
164 160 80
164 158 78
168 163 94
163 159 76
164 159 79
163 158 80
166 160 80
167 161 85
167 161 76
166 160 76
166 160 83
168 163 86
174 171 110
170 165 90
172 167 93
171 166 95
169 164 92
171 167 99
167 162 96
172 168 99
169 164 87
172 168 104
170 164 85
170 166 95
169 163 83
174 171 113
172 167 98
170 165 95
172 169 106
171 165 95
169 166 90
170 166 96
168 163 87
180 174 116
171 166 92
176 172 110
172 168 98
171 168 109
172 167 106
177 174 112
175 171 109
179 178 130
169 163 83
178 173 119
176 175 122
177 177 133
181 178 126
174 173 124
173 171 110
180 178 130
179 176 125
179 175 122
181 180 133
180 176 124
177 175 120
177 173 116
177 175 123
183 182 138
185 184 141
172 169 112
180 177 123
177 175 122
172 169 109
183 183 141
178 178 130
183 182 137
177 174 120
175 173 120
174 197 0
173 197 0
173 197 0
173 197 0
174 197 0
172 196 0
175 198 0
172 195 0
174 198 0
174 197 36
177 200 62
174 198 44
176 199 51
173 197 25
176 199 51
176 199 57
174 198 25
174 198 0
174 198 36
174 198 36
178 200 62
178 201 76
176 199 67
178 199 72
177 199 80
175 199 57
176 199 51
178 201 67
175 198 44
177 199 57
175 198 36
173 197 44
174 198 51
171 194 25
176 199 67
189 210 174
190 211 170
202 222 218
205 224 228
201 221 212
208 226 234
210 228 244
209 228 241
211 228 242
208 226 236
210 228 238
209 227 238
212 230 245
209 226 236
213 230 246
213 230 246
213 230 248
214 231 248
213 230 246
213 230 244
214 231 249
215 232 249
212 229 242
213 230 245
211 228 241
213 230 246
214 231 248
215 231 248
212 229 244
215 231 248
214 231 248
214 231 249
215 232 250
214 230 245
212 228 241
212 229 242
214 231 249
217 232 250
214 231 244
216 232 252
215 231 248
214 230 245
215 231 246
214 230 248
214 231 246
214 230 246
212 229 245
215 232 249
214 230 250
217 233 253
215 232 249
213 229 246
214 231 248
216 232 250
214 230 245
212 228 244
214 231 246
216 232 250
214 230 250
215 231 250
213 230 245
215 231 253
213 229 246
215 232 252
213 230 248
209 226 238
213 230 250
212 229 248
214 231 253
211 228 246
211 228 245
211 229 249
214 231 253
210 227 246
211 228 246
207 225 238
205 223 242
205 224 242
197 215 230
197 217 231
197 217 224
192 213 218
181 204 157
166 188 44
159 182 36
151 173 44
165 188 57
161 183 44
163 185 62
146 168 44
151 173 51
149 170 36
148 169 36
107 123 62
75 90 25
60 77 25
75 93 31
79 97 51
86 103 40
104 121 18
115 133 0
128 146 0
134 155 0
148 170 0
148 169 0
149 171 0
160 183 0
164 187 0
170 194 0
172 196 0
173 197 0
173 196 0
173 197 0
174 198 0
172 195 0
172 195 0
173 196 0
161 184 36
63 95 113
55 88 105
55 88 103
56 89 111
56 88 111
57 90 118
56 89 107
58 91 115
58 92 111
59 92 124
54 86 100
57 90 110
57 91 114
60 95 135
57 90 106
58 91 108
57 90 110
57 90 114
57 90 117
58 92 121
57 91 114
56 89 114
57 90 117
59 94 124
58 92 121
57 91 113
57 90 117
57 91 117
58 92 108
57 90 113
57 90 111
58 92 118
57 90 118
57 90 102
56 88 110
58 91 117
58 92 121
57 91 117
59 93 117
59 93 128
57 90 113
60 94 124
56 90 105
56 88 115
58 92 125
58 92 120
55 87 94
58 91 122
57 90 111
59 92 122
58 91 111
58 90 117
58 92 126
57 91 111
58 91 113
57 90 118
58 92 120
57 90 110
57 90 110
59 92 120
57 91 113
56 89 107
59 92 114
59 93 120
56 89 116
57 91 113
55 87 99
58 91 123
58 90 112
57 90 116
56 89 118
57 90 110
58 91 113
56 88 97
57 90 116
57 89 111
56 89 110
57 88 114
56 88 107
56 88 107
57 89 122
56 87 107
55 85 94
54 85 112
55 85 107
54 85 93
56 87 107
55 85 99
55 85 102
55 85 104
54 83 101
54 84 100
50 77 92
56 80 76
162 186 28
173 197 0
176 199 0
174 197 0
173 196 0
172 195 0
174 198 0
173 197 0
175 198 44
171 179 152
166 169 149
162 168 157
143 147 128
158 163 155
154 160 151
139 145 138
143 147 129
144 149 135
119 122 101
139 143 126
137 142 124
119 124 105
132 137 121
133 137 119
127 131 108
122 125 94
134 136 112
133 138 119
119 122 89
140 142 104
112 112 60
143 144 106
139 140 104
122 123 66
130 131 86
127 128 89
127 127 72
140 138 83
139 139 90
131 130 84
146 145 102
131 130 70
139 139 86
138 139 86
134 133 64
152 149 81
140 137 78
136 135 74
140 136 58
147 143 78
151 147 78
147 141 65
147 145 84
146 141 62
150 147 72
148 145 78
149 145 78
150 147 78
145 143 61
146 143 74
146 143 71
144 141 63
147 144 71
157 153 73
156 151 70
156 152 76
152 149 72
160 155 76
157 153 70
155 150 63
162 158 89
158 154 86
157 152 71
161 156 66
160 155 71
164 160 88
165 158 73
165 160 86
165 159 74
165 157 66
164 159 83
163 158 71
162 157 84
163 157 73
161 156 79
160 156 75
163 156 77
167 163 93
162 158 77
166 159 77
170 164 95
167 162 84
165 162 88
165 161 90
161 155 65
169 163 93
160 155 67
161 155 67
167 163 92
164 160 84
164 159 77
164 159 71
167 162 88
167 161 89
167 163 96
166 160 79
166 161 90
171 166 101
176 170 105
171 168 111
175 170 103
165 161 90
169 164 93
170 166 96
171 167 107
168 163 91
168 165 93
169 164 100
170 166 97
174 169 108
168 163 95
177 174 117
174 170 113
174 171 113
172 169 110
174 171 110
173 169 103
176 172 115
175 170 101
176 173 118
178 174 116
171 170 112
171 168 102
172 171 110
172 167 103
180 179 131
178 175 119
174 172 118
173 169 106
174 171 112
175 172 111
178 178 133
174 171 107
181 178 129
181 181 139
180 177 127
176 173 115
181 180 132
179 178 134
184 182 140
177 174 121
182 181 141
182 181 137
173 197 0
174 197 0
175 198 0
174 197 0
174 197 0
175 198 0
173 197 0
173 196 0
171 194 0
174 197 0
174 197 36
174 197 40
174 198 44
173 197 36
176 199 51
174 198 44
177 200 57
175 198 25
175 198 36
175 198 25
175 198 0
176 199 57
178 200 76
181 203 84
179 201 76
179 201 80
176 199 57
176 199 44
175 198 67
177 200 72
173 197 25
175 198 51
173 196 44
175 198 44
176 199 25
174 198 67
183 206 147
196 217 196
201 221 215
201 221 214
206 225 230
204 223 224
208 226 237
207 226 233
209 227 236
208 226 237
209 227 238
212 230 248
210 228 242
214 231 253
211 229 241
213 231 249
212 230 249
214 231 250
214 231 250
213 230 245
214 231 249
213 230 248
214 231 248
215 231 250
213 230 252
215 231 248
214 231 248
215 231 250
215 232 249
216 232 252
216 232 252
215 232 250
215 232 252
214 231 248
215 231 249
213 230 246
215 231 249
215 232 250
212 229 241
214 231 249
214 230 246
212 228 242
216 232 249
215 231 250
214 231 248
214 231 248
212 228 242
215 231 248
215 231 248
215 231 248
211 228 244
214 230 249
213 230 246
214 231 250
212 228 248
214 230 249
211 228 245
213 230 248
213 230 248
213 230 249
213 230 250
209 226 240
214 231 248
211 228 244
213 230 246
214 231 250
213 230 248
211 228 249
210 227 246
210 227 244
206 223 240
210 228 250
209 227 248
208 226 241
206 225 244
203 222 237
205 224 241
199 218 224
198 218 221
186 207 207
163 185 108
158 180 44
161 184 25
155 178 44
158 180 44
158 180 36
153 175 25
155 176 25
152 174 44
147 169 25
146 167 25
132 150 0
95 109 0
93 106 0
82 97 0
91 105 0
93 109 0
112 128 0
112 130 0
114 132 0
130 150 0
138 158 0
142 164 0
153 177 0
153 176 0
160 183 0
165 189 0
171 195 0
172 196 0
172 196 0
171 194 0
172 196 0
174 197 0
172 196 0
172 197 0
169 193 0
173 197 0
112 136 67
54 87 98
55 88 105
57 89 114
55 88 100
57 90 103
56 89 99
58 92 125
57 91 111
57 90 114
58 92 124
58 92 126
56 88 117
55 87 114
55 88 94
56 89 110
57 90 110
57 90 100
58 92 126
58 91 108
55 87 99
57 90 114
57 90 111
57 90 115
57 90 102
56 89 105
59 92 124
56 89 110
58 92 114
57 90 117
59 93 118
56 90 115
57 90 108
56 89 115
56 89 110
58 92 107
57 91 107
57 91 114
57 90 110
57 90 110
57 90 102
57 90 108
57 90 118
57 89 105
57 89 111
59 92 122
57 91 120
58 92 116
57 91 117
58 92 118
56 89 120
57 91 113
59 92 123
57 90 107
57 89 114
58 91 114
57 91 108
58 90 120
57 89 113
58 92 126
55 88 111
56 88 113
57 89 114
57 89 113
58 92 114
57 89 109
57 90 111
57 89 104
58 90 113
57 89 116
56 89 111
58 91 118
58 91 118
55 87 102
55 87 113
57 90 111
59 91 119
55 86 109
56 88 109
54 84 107
56 88 105
57 89 114
56 87 110
56 88 109
56 87 112
55 86 112
54 85 107
54 83 106
54 85 89
54 83 101
51 79 97
53 81 98
52 80 86
106 127 66
172 194 0
173 196 0
172 195 0
175 197 0
174 197 0
171 195 0
172 196 0
173 196 0
173 196 0
181 198 122
157 159 135
160 164 153
153 159 143
157 162 153
144 149 139
139 145 131
151 158 155
146 153 143
126 131 114
142 149 139
145 150 137
133 139 127
129 131 104
143 147 129
124 127 97
123 126 96
140 143 112
137 142 116
135 136 95
122 124 92
132 133 103
137 138 94
122 123 73
131 131 79
128 126 78
133 133 85
139 140 92
142 140 86
143 143 87
129 130 78
135 135 86
142 141 88
135 132 65
144 143 85
142 141 89
143 142 82
150 148 90
140 137 73
142 141 78
141 141 78
141 139 73
147 147 88
155 153 93
151 147 78
154 152 97
148 146 87
151 148 85
151 147 69
156 153 88
150 146 61
144 141 65
152 147 60
156 154 95
158 156 89
152 148 58
158 155 93
160 155 84
158 155 76
155 151 70
155 151 76
159 154 71
164 159 82
164 160 96
165 160 86
157 153 71
161 156 66
164 159 81
158 154 71
160 154 84
162 157 75
166 160 84
166 160 85
168 163 90
163 157 68
157 151 66
163 158 80
164 158 84
165 160 88
167 161 80
165 159 77
166 162 89
168 163 93
165 161 87
166 162 90
163 158 74
167 162 82
165 161 88
171 166 100
163 158 78
170 166 101
166 163 93
166 161 94
168 163 87
169 165 96
169 165 99
167 163 84
167 162 84
167 161 84
170 166 100
164 161 90
170 166 99
171 168 97
170 166 93
170 165 90
171 167 100
175 173 121
168 162 87
173 168 101
174 171 112
176 172 109
174 171 105
171 167 100
171 166 93
173 168 100
172 169 112
177 174 120
178 173 115
171 166 100
177 175 125
169 165 102
174 170 111
174 171 116
175 171 118
175 171 104
178 174 116
176 174 119
180 179 130
172 169 112
174 169 107
179 175 117
173 170 106
172 169 106
176 174 115
180 178 129
172 166 95
177 175 123
180 179 134
179 177 127
178 177 127
178 175 118
178 176 125
184 183 142
180 177 125
172 196 0
175 198 0
175 198 0
173 196 0
174 197 0
171 195 0
172 196 0
173 197 0
172 196 0
173 197 0
174 197 25
176 199 44
174 198 25
175 198 44
176 199 36
175 198 25
177 200 51
176 199 44
174 197 25
175 198 36
173 197 44
175 198 36
177 200 67
178 201 62
177 199 57
175 197 62
179 201 72
173 196 62
177 200 62
177 199 36
177 200 62
174 197 51
175 198 36
174 198 25
173 197 44
176 199 57
173 196 44
183 206 144
196 217 196
198 218 209
199 219 204
200 220 211
206 225 230
207 226 236
208 226 238
210 228 242
207 226 233
208 226 236
211 229 245
212 229 246
212 230 249
211 229 242
210 228 240
214 231 253
210 228 241
214 231 249
211 228 240
213 230 248
214 231 249
212 229 246
213 230 249
214 231 248
214 231 248
213 230 246
213 230 244
213 229 246
215 231 252
214 231 248
214 231 246
213 230 248
214 230 248
213 230 248
211 228 240
214 230 249
214 231 252
214 231 249
213 230 248
214 231 246
215 232 252
215 232 250
213 230 245
211 228 240
214 231 249
215 232 250
213 230 253
213 230 246
212 229 249
215 231 249
214 231 248
214 231 249
211 228 246
214 231 248
214 231 248
214 231 250
211 228 248
213 230 252
212 230 246
214 231 249
212 230 249
211 228 246
209 227 242
211 229 245
209 226 241
211 228 248
213 230 249
205 223 241
206 224 240
208 226 246
208 226 248
206 225 244
202 221 238
200 220 233
203 222 231
188 209 212
182 203 194
167 190 108
164 186 36
162 184 44
159 180 44
160 182 67
154 175 67
154 174 62
151 173 36
159 181 25
145 167 51
153 174 57
144 165 36
105 122 0
103 119 0
102 118 0
94 110 0
108 125 0
99 114 0
124 142 0
119 138 0
127 146 0
125 145 0
145 166 0
145 167 0
148 170 0
155 178 0
165 189 0
172 195 0
174 197 0
174 197 0
171 196 0
175 198 0
172 195 0
173 197 0
173 197 0
170 194 0
172 195 0
172 196 0
167 190 40
54 86 93
57 90 117
57 90 107
55 87 100
53 84 99
56 88 114
57 90 120
58 92 114
57 91 113
58 91 117
58 91 125
57 90 107
57 90 100
56 88 103
59 92 117
55 88 97
58 91 113
58 91 105
57 90 115
56 89 97
56 89 90
57 90 111
59 93 127
56 89 107
58 91 115
57 90 107
59 93 115
57 91 114
57 90 108
58 92 118
57 90 118
58 92 114
57 90 113
59 92 122
56 89 117
57 89 113
58 92 122
57 90 110
58 91 111
58 91 120
57 90 107
58 91 113
59 93 128
57 91 102
59 94 121
56 90 102
57 90 126
59 93 126
58 92 121
56 89 103
58 91 124
58 92 117
58 91 113
56 89 115
56 89 121
57 90 110
57 90 119
58 91 111
57 90 115
58 91 115
57 91 118
61 94 126
56 88 102
55 88 92
58 91 120
56 89 107
57 89 115
57 89 113
56 88 114
57 89 120
56 88 110
58 91 107
57 90 115
55 88 107
60 92 124
55 87 101
57 88 110
57 89 115
56 87 107
55 86 107
53 84 96
54 84 98
57 88 113
55 86 112
55 86 98
55 86 100
52 82 87
54 83 92
52 81 99
52 80 94
52 80 90
53 80 95
156 179 32
172 195 0
174 196 0
170 192 0
171 195 0
174 196 0
170 193 0
172 195 0
172 196 0
172 195 0
172 196 0
183 192 160
166 171 162
168 173 163
164 170 161
142 146 132
154 160 151
144 148 135
142 148 137
144 147 129
135 139 121
113 118 105
132 136 113
129 132 105
125 130 108
142 146 127
134 139 120
132 136 109
138 142 123
130 133 97
135 136 93
128 131 100
141 143 111
141 143 106
131 132 85
135 134 78
132 134 82
139 138 81
134 135 84
128 128 67
145 144 85
137 138 87
135 133 80
146 144 88
142 140 77
140 139 74
145 143 74
144 142 83
145 143 82
149 147 84
144 141 70
136 136 78
142 141 73
149 144 72
140 138 65
150 148 74
150 147 77
148 145 73
152 149 75
153 150 78
153 149 68
147 144 67
149 145 62
156 153 89
161 158 80
151 148 60
158 154 85
151 147 55
156 153 72
157 152 73
154 151 76
154 150 70
161 156 79
160 155 75
162 156 80
155 151 75
157 152 74
159 155 80
158 153 77
152 149 76
161 155 77
163 158 80
163 157 80
164 157 70
163 158 83
164 160 93
163 157 73
163 160 90
159 153 70
166 162 89
163 157 69
162 156 71
163 158 79
165 160 95
158 153 67
165 161 84
166 162 88
165 159 87
164 159 83
163 157 79
166 161 81
161 157 78
169 164 99
168 163 89
167 162 95
165 161 85
168 164 100
171 166 97
169 168 107
167 162 88
166 164 101
167 162 89
164 160 79
177 175 120
167 163 93
173 169 108
169 164 90
169 163 88
173 169 110
168 165 101
170 166 97
173 170 108
169 165 101
173 169 106
168 166 100
171 168 105
169 165 94
174 172 118
176 175 127
174 170 106
173 173 124
167 164 87
171 166 94
171 166 97
174 170 109
176 174 120
173 170 113
175 171 115
172 170 106
174 172 113
177 174 120
181 180 137
178 176 128
176 173 114
175 172 113
180 178 131
183 182 140
174 172 118
178 174 121
182 182 141
181 179 133
176 175 124
179 177 130
185 184 143
173 196 0
174 197 0
173 197 0
171 195 0
172 195 0
173 196 0
173 197 0
172 195 0
173 197 0
173 197 0
172 196 0
172 195 0
176 199 44
176 199 44
175 198 36
176 199 44
175 197 36
176 199 51
175 198 44
176 199 25
176 199 36
175 198 25
174 197 25
176 199 51
177 200 62
176 199 67
178 201 80
175 198 67
175 199 51
174 197 62
176 199 51
176 199 51
177 199 57
172 196 0
177 199 44
176 199 44
174 197 25
174 198 44
183 206 122
188 210 163
196 217 198
202 222 223
204 224 228
203 223 227
205 224 226
207 226 238
207 226 234
208 226 237
210 229 245
208 226 238
210 228 242
208 227 238
210 227 240
212 230 250
213 230 248
211 228 241
212 230 246
211 229 242
213 230 249
214 231 250
212 229 245
214 231 249
214 231 249
211 229 242
214 231 249
211 229 245
214 231 250
213 230 248
214 231 249
215 232 250
215 231 252
215 231 253
213 230 245
214 231 250
211 228 246
214 231 248
213 230 248
212 229 242
213 230 249
213 230 246
212 229 248
212 229 244
213 230 252
213 230 246
213 230 250
214 231 250
215 232 253
213 230 246
212 229 248
212 229 249
215 231 250
211 228 241
213 230 249
212 229 248
210 227 244
211 229 246
210 228 242
211 229 248
211 228 246
214 231 252
210 228 248
211 229 245
206 224 241
212 230 249
209 226 246
205 223 242
204 223 240
206 225 241
203 222 237
204 224 238
195 215 226
192 212 218
193 213 226
181 203 177
165 187 76
163 185 25
165 187 57
167 188 80
165 187 72
163 184 72
160 182 62
155 177 25
151 172 44
158 179 76
145 167 25
137 157 36
116 134 0
106 121 0
103 120 0
118 135 0
117 133 0
103 119 0
111 128 0
119 137 0
130 150 0
135 155 0
138 159 0
145 166 0
140 163 0
153 176 0
165 188 0
166 190 0
170 194 0
171 195 0
173 196 0
169 193 0
171 194 0
173 196 0
169 193 0
172 196 0
170 193 0
171 195 0
172 196 0
171 195 0
99 126 84
56 89 102
56 88 110
58 91 108
56 89 113
56 88 113
56 89 102
58 91 115
57 90 115
57 91 113
56 89 102
59 93 120
55 87 113
56 89 111
57 90 111
57 90 128
57 90 114
56 88 108
56 88 103
56 89 115
56 89 110
57 90 110
57 90 108
58 92 113
57 90 115
56 90 114
56 88 103
56 89 102
56 89 97
58 92 121
57 91 100
55 88 99
57 90 105
59 93 121
56 89 95
56 89 115
57 91 110
57 90 113
58 91 115
58 91 113
56 89 111
60 94 126
56 89 107
58 92 128
60 93 121
56 89 108
57 91 114
57 90 114
58 91 118
58 91 105
55 88 110
57 90 117
56 88 110
55 87 111
58 91 113
57 91 117
57 90 110
59 92 109
57 90 107
55 87 108
58 91 118
58 90 118
55 88 101
56 88 108
57 89 110
58 91 122
58 91 114
57 90 107
56 87 121
57 90 105
57 90 113
56 89 105
58 91 107
56 88 106
56 89 97
55 86 106
55 86 94
56 87 105
57 90 116
55 85 96
58 90 118
53 83 101
56 88 112
56 86 95
56 87 110
53 81 93
53 83 103
51 79 94
52 80 84
53 81 94
50 77 74
110 132 61
170 193 0
169 193 0
168 190 0
172 193 0
171 194 0
170 193 0
166 189 0
173 197 0
172 195 0
173 196 0
169 191 0
174 193 81
179 185 175
166 171 160
161 164 148
152 158 146
163 169 160
155 160 148
157 162 145
144 147 131
148 154 143
140 145 125
142 146 126
126 128 100
125 129 111
134 137 111
127 131 105
124 126 81
133 136 103
128 131 106
134 134 86
125 126 80
123 127 94
131 132 87
136 137 102
132 134 94
130 132 85
140 142 94
130 130 68
137 137 93
131 130 76
138 136 79
144 144 84
142 140 81
145 144 94
132 132 64
142 141 88
139 137 68
138 135 66
137 136 79
145 144 83
151 150 91
145 143 81
143 140 57
150 147 71
146 144 78
148 145 78
149 147 77
154 149 75
145 142 66
151 147 81
152 148 69
157 154 80
155 149 69
151 147 72
149 145 74
156 153 95
158 155 84
152 150 72
158 154 83
161 157 80
156 151 66
151 146 70
159 155 78
150 145 65
162 157 81
163 157 75
160 156 82
159 155 74
157 153 78
161 157 81
163 158 75
170 165 99
157 153 75
161 154 68
166 161 80
161 157 78
162 160 102
163 158 79
165 162 95
161 158 90
160 154 78
165 160 80
167 163 95
157 152 78
163 158 89
165 161 90
162 157 83
165 161 81
162 158 80
164 161 87
172 170 106
167 164 96
164 159 83
158 154 77
167 162 80
167 163 101
172 169 107
171 166 104
162 157 69
169 164 98
170 166 95
172 168 104
164 160 89
172 168 102
170 166 95
169 165 104
166 162 87
169 163 87
167 164 90
170 166 99
170 165 104
176 174 117
174 172 107
169 166 97
176 172 113
172 169 104
175 172 120
172 169 109
172 170 109
170 168 103
174 171 108
183 180 127
171 169 108
177 175 123
179 176 127
176 173 115
173 170 112
182 181 138
171 166 97
177 174 121
182 180 134
180 176 118
177 173 117
183 182 136
176 173 121
182 180 137
173 170 109
183 182 138
180 179 133
181 181 135
183 183 145
171 168 104
176 174 118
172 196 0
171 195 0
172 196 0
172 196 0
172 196 0
173 196 0
172 196 0
175 198 0
175 198 0
173 197 0
172 195 0
176 198 0
171 194 25
174 198 36
173 196 25
173 197 36
174 197 36
174 198 36
177 200 62
173 197 25
176 199 51
175 198 25
173 196 25
173 196 25
176 199 36
177 200 62
176 199 51
177 199 67
173 197 57
177 200 57
174 197 51
176 199 57
178 201 57
176 199 62
176 199 51
175 198 57
177 199 44
175 199 51
176 199 57
179 201 84
189 210 161
194 216 193
196 217 199
200 221 220
204 224 226
207 226 238
205 225 233
208 227 242
206 225 233
205 224 237
207 226 237
210 228 244
210 228 245
211 229 245
212 230 246
208 226 238
210 228 242
212 229 246
210 228 244
212 230 246
212 229 248
213 230 248
214 231 250
212 229 246
210 228 240
213 230 246
212 229 248
212 229 246
213 230 246
212 229 245
214 231 250
211 229 242
212 229 244
210 228 244
211 229 244
213 230 249
214 230 246
214 231 250
212 229 242
214 231 249
214 231 250
212 229 248
213 230 249
214 231 249
211 228 245
213 230 248
212 229 248
213 230 246
215 232 254
212 229 246
212 229 245
210 228 241
210 227 242
213 230 253
210 228 245
210 227 245
213 230 249
212 230 249
210 229 248
210 227 246
209 227 246
210 228 248
209 227 246
205 224 244
209 228 252
204 223 241
205 224 240
202 221 238
197 217 236
202 222 242
193 214 223
185 206 194
168 190 137
153 175 44
163 184 25
161 181 57
164 185 44
162 183 51
161 182 62
149 171 36
157 179 44
151 173 36
149 170 25
147 167 44
142 162 44
117 136 0
115 132 0
109 126 0
109 126 0
114 132 0
115 132 0
110 128 0
110 129 0
124 143 0
133 153 0
127 148 0
140 161 0
143 165 0
145 166 0
151 175 0
164 187 0
167 191 0
169 193 0
169 194 0
172 196 0
172 196 0
170 194 0
172 195 0
171 195 0
171 194 0
172 195 0
171 194 0
170 194 0
169 193 0
160 184 31
56 87 98
56 88 92
56 88 102
56 89 110
55 88 107
56 88 105
57 91 120
56 89 100
57 91 105
55 87 105
56 88 102
56 89 111
54 87 92
57 90 110
54 86 95
56 88 108
56 89 92
56 89 110
57 90 121
57 90 111
58 92 110
58 92 125
58 91 118
58 91 114
55 88 92
59 92 122
57 90 118
58 91 113
58 91 120
56 88 105
57 91 118
57 90 113
57 90 117
59 92 121
56 88 107
57 91 115
57 89 113
57 90 113
57 89 113
58 92 111
58 91 118
58 92 115
57 90 124
58 92 117
58 91 121
61 95 128
55 87 105
58 90 125
58 92 124
59 92 124
58 91 111
57 90 103
59 92 118
56 88 102
57 89 107
60 94 130
55 87 107
57 89 108
56 88 102
55 87 109
58 91 115
55 87 110
55 87 99
57 90 118
57 90 103
57 89 108
54 85 101
57 89 107
56 88 104
56 88 103
57 89 121
55 87 110
58 90 101
55 86 115
58 90 105
56 88 110
54 86 98
55 86 104
56 87 103
54 84 93
55 86 103
53 82 90
54 84 87
53 83 84
55 85 108
55 85 104
51 79 95
54 84 103
49 76 80
52 77 77
163 185 32
168 190 0
167 190 0
170 193 0
167 190 0
171 194 0
171 194 0
172 195 0
171 194 0
172 195 0
169 193 0
169 192 0
172 194 0
172 184 129
179 184 177
156 160 146
166 170 158
156 161 148
157 162 147
149 154 143
154 159 145
148 151 133
146 151 136
131 136 117
134 138 118
127 131 104
152 155 133
131 133 107
137 141 119
137 142 127
138 143 119
131 133 99
131 131 86
135 134 95
136 139 105
141 142 99
144 145 97
142 142 100
139 139 95
128 129 79
133 132 81
137 138 101
135 135 87
147 145 89
139 138 75
140 139 75
147 147 89
158 157 111
149 148 84
147 144 86
139 139 91
142 139 72
151 149 82
154 152 99
141 138 71
138 135 62
146 142 72
152 149 79
153 151 81
149 146 84
152 149 80
143 141 74
153 148 68
152 148 69
154 149 70
153 150 80
153 147 60
157 153 78
150 146 66
155 153 88
160 155 68
160 158 89
159 155 76
157 153 78
164 159 81
162 157 87
161 156 74
161 156 90
158 155 80
158 153 74
157 153 75
164 160 87
157 153 72
163 157 71
160 156 77
164 158 73
168 163 92
164 161 87
163 159 78
162 156 73
165 159 79
164 158 72
162 157 84
170 166 101
160 155 83
157 151 62
162 159 84
164 161 89
158 154 69
163 158 73
159 154 71
165 160 75
159 156 75
164 159 75
167 160 86
166 161 87
168 165 92
168 162 88
164 159 80
168 165 99
173 168 108
172 169 108
165 162 94
167 163 93
174 171 108
175 172 115
168 163 97
171 167 105
173 169 107
168 163 99
168 163 97
174 172 116
168 164 85
174 169 104
177 175 121
172 169 108
172 170 113
170 166 101
174 172 115
175 174 122
173 169 106
181 177 127
175 171 108
171 167 100
176 172 116
176 174 118
174 172 112
175 173 117
181 180 137
172 169 103
174 171 116
179 178 131
174 171 105
175 172 116
171 167 108
176 174 117
187 186 148
180 178 127
175 172 113
178 176 125
183 183 142
177 176 123
182 182 138
176 175 126
176 175 123
174 197 0
174 197 0
172 196 0
173 197 0
175 198 0
173 196 0
171 195 0
174 198 0
171 194 0
173 196 0
172 196 0
173 197 0
171 195 0
173 196 0
174 197 44
176 199 51
178 200 51
177 199 51
175 198 36
174 197 51
176 199 51
177 200 62
175 198 25
174 198 25
174 197 0
174 197 0
178 200 67
178 201 80
175 198 57
177 199 72
174 198 57
178 201 88
177 200 36
177 199 51
173 196 62
174 198 44
175 198 51
174 198 36
176 199 36
175 198 57
174 197 51
181 204 122
190 212 177
195 216 199
199 220 218
203 223 227
207 226 240
202 222 226
204 223 228
206 225 237
206 225 236
208 226 237
210 228 246
208 227 241
209 227 244
211 229 245
211 229 246
208 226 236
207 225 233
211 229 244
206 224 233
211 229 246
211 229 246
210 227 244
212 230 248
212 230 246
212 229 250
211 228 242
213 230 246
213 230 248
211 229 245
214 231 249
210 227 241
212 229 248
212 229 248
210 228 242
213 230 248
213 230 250
212 229 244
213 230 250
213 231 249
212 230 252
209 227 240
211 229 249
212 229 245
213 231 253
211 228 248
213 230 249
209 227 242
211 229 248
212 230 252
210 228 245
206 224 237
210 228 246
210 228 248
211 228 246
207 225 244
211 229 252
208 226 244
209 227 246
208 226 245
205 224 242
206 224 244
208 227 248
207 226 245
203 222 237
197 217 236
199 220 236
195 216 218
190 212 218
184 206 181
168 190 92
165 187 51
168 189 51
162 182 57
161 182 51
158 180 25
160 180 62
159 181 44
155 176 25
147 167 0
143 163 36
139 160 44
137 157 25
124 143 0
118 136 0
118 135 0
117 136 0
115 133 0
122 141 0
118 138 0
121 139 0
121 140 0
137 156 0
137 157 0
139 161 0
138 160 0
148 170 0
142 165 0
159 182 0
166 188 0
171 194 0
168 192 0
172 195 0
169 192 0
169 193 0
172 196 0
172 195 0
172 196 0
169 192 0
170 193 0
172 196 0
170 193 0
169 193 0
166 189 0
122 146 66
56 88 105
53 85 90
54 85 96
55 87 88
57 90 108
56 88 103
56 88 108
56 89 105
55 88 100
57 90 107
57 90 113
58 91 110
57 90 114
55 88 105
58 91 108
56 88 100
56 89 118
57 90 103
57 90 105
57 90 110
58 91 111
56 89 113
57 90 111
57 90 122
57 90 103
56 88 110
57 90 114
58 91 110
56 88 95
58 92 118
56 89 105
58 92 122
57 90 118
57 90 117
55 88 100
56 89 102
56 89 115
58 92 115
58 91 125
58 91 110
55 88 101
56 89 120
57 90 111
57 90 108
56 89 105
57 90 117
58 91 113
55 87 110
57 90 107
57 90 117
56 88 101
57 90 121
59 93 128
57 90 115
57 89 110
56 88 113
58 91 117
58 91 115
57 89 103
56 88 105
56 89 105
55 87 111
58 91 118
54 86 100
58 90 112
56 89 113
57 88 107
55 87 108
57 89 110
53 85 97
57 89 116
55 87 103
55 86 104
57 88 110
57 88 118
56 88 113
55 87 104
54 85 93
54 85 101
55 86 101
53 83 96
53 82 93
55 86 95
55 86 87
54 82 94
53 82 97
52 80 82
51 79 83
132 154 56
169 191 0
173 195 0
173 195 0
171 195 0
167 190 0
171 194 0
171 193 0
168 192 0
170 192 0
171 195 0
170 193 0
168 191 0
172 195 0
171 192 32
184 192 168
168 172 159
172 176 168
151 155 139
157 162 152
150 155 141
156 161 147
146 151 136
147 152 133
138 143 121
138 144 124
145 150 131
130 132 102
129 133 105
140 144 117
150 153 126
138 140 103
139 141 119
138 141 115
121 122 88
137 139 99
132 134 105
139 141 107
135 135 93
126 126 79
133 132 84
138 138 88
141 141 91
134 134 88
143 143 94
142 143 98
146 145 87
136 137 91
145 145 93
134 133 69
143 140 83
147 144 86
146 144 75
147 146 87
153 152 95
148 145 80
142 140 79
146 144 67
147 145 83
147 145 73
147 143 68
147 145 76
155 153 86
152 150 79
151 148 64
156 154 85
153 147 65
158 154 78
162 156 70
158 152 70
153 150 75
156 151 71
160 156 86
157 151 67
150 145 49
160 156 80
155 152 75
163 158 86
158 154 84
159 154 75
158 155 78
158 153 77
162 157 84
163 158 75
160 156 77
166 161 84
158 153 61
162 157 82
161 158 90
166 162 94
165 159 81
162 156 82
164 157 75
162 156 79
165 162 87
167 162 88
162 157 59
162 159 80
166 162 83
161 156 78
165 161 86
168 165 101
166 162 87
163 158 74
161 156 72
173 168 106
175 171 110
170 167 100
162 159 79
170 166 95
170 168 106
171 166 94
166 161 87
163 158 81
169 165 99
170 165 108
166 163 99
166 161 94
175 170 105
172 169 115
169 164 99
167 162 88
174 171 111
171 166 97
169 167 108
176 171 109
173 170 110
174 172 117
174 170 109
174 171 113
175 172 115
173 171 115
172 169 108
172 170 111
173 171 110
174 174 118
174 171 115
174 169 106
175 170 108
178 176 127
181 180 136
176 174 121
177 175 121
174 171 113
173 169 109
179 176 125
176 174 120
175 174 121
180 178 131
178 177 127
178 176 130
178 176 127
177 175 126
180 178 134
184 182 138
178 176 127
173 196 0
174 197 0
173 197 0
173 196 0
171 195 0
173 197 0
172 196 0
172 196 0
174 197 0
173 197 0
174 197 0
173 197 0
173 196 0
176 199 0
172 196 25
171 194 0
176 198 36
173 196 44
174 197 36
175 199 44
174 197 44
176 199 44
175 198 44
176 198 25
174 197 25
175 198 44
173 196 25
176 199 25
174 198 44
178 200 72
177 200 84
175 197 51
177 200 57
176 199 57
177 200 62
178 201 62
174 198 44
174 196 51
173 196 44
173 197 36
175 198 44
173 196 0
176 199 62
184 207 137
192 213 181
195 216 201
198 219 211
200 220 223
202 222 226
206 225 236
205 224 236
207 227 242
204 223 228
207 226 237
206 225 231
211 229 250
208 227 241
210 228 244
205 224 228
210 229 245
208 226 238
211 229 249
212 229 248
210 228 246
211 228 248
212 229 249
208 226 240
211 229 246
211 229 244
211 229 246
211 228 242
210 228 245
211 229 245
212 230 245
214 231 253
209 227 244
210 228 245
211 229 245
210 228 244
212 230 248
213 230 252
214 231 252
212 229 245
209 226 241
211 229 246
210 228 244
212 230 248
212 229 248
212 229 252
208 226 242
211 229 248
211 229 246
210 228 248
212 230 250
208 226 245
209 227 244
209 227 248
207 226 245
206 224 237
205 224 244
208 226 244
205 224 241
204 223 240
201 221 234
201 221 231
196 216 224
196 217 221
189 210 223
184 205 199
172 194 117
162 184 67
164 185 51
163 184 36
159 182 51
162 183 62
168 188 62
157 179 57
160 181 25
150 171 36
155 176 36
152 173 36
148 168 36
141 162 36
126 145 25
130 150 0
126 145 0
128 146 0
120 138 0
120 139 0
113 132 0
138 156 0
140 159 0
133 152 0
134 154 0
145 165 0
135 156 0
146 168 0
158 180 0
153 176 0
156 179 0
168 192 0
170 194 0
170 194 0
171 195 0
170 194 0
170 193 0
172 195 0
170 193 0
174 197 0
168 192 0
169 193 0
171 195 0
167 191 0
171 194 0
167 190 0
166 189 0
72 100 92
53 85 90
56 88 107
55 88 95
54 86 102
55 87 102
56 89 107
53 84 92
56 88 94
56 88 107
56 89 94
56 88 108
57 90 111
54 85 100
56 88 100
56 88 102
56 89 115
54 86 95
55 88 97
55 88 113
56 89 110
57 91 111
56 90 102
56 89 102
56 89 100
57 90 114
56 89 118
56 88 105
58 92 120
57 90 108
54 86 105
58 91 107
57 90 110
56 89 110
56 88 114
57 90 118
57 90 114
57 90 110
55 87 99
58 92 122
56 89 111
59 93 122
57 90 113
58 91 111
54 87 105
57 91 113
57 90 110
58 90 103
58 91 110
57 90 117
57 89 111
58 91 111
55 87 100
57 89 110
55 87 108
57 90 110
55 86 107
58 91 112
57 89 107
57 90 117
54 85 103
54 85 95
56 88 110
58 91 120
55 87 101
56 89 114
56 89 107
55 86 104
57 89 108
56 89 111
53 84 97
56 87 101
56 88 102
55 86 108
54 85 96
54 84 98
57 89 103
55 86 96
53 83 100
53 83 88
56 87 107
53 83 94
50 78 79
53 84 94
54 82 90
49 75 75
49 76 79
71 96 83
167 190 0
167 190 0
168 190 0
167 189 0
167 190 0
170 192 0
169 193 0
169 191 0
166 188 0
172 194 0
170 192 0
167 189 0
173 195 0
168 191 0
166 189 0
172 191 78
182 185 168
169 171 152
162 165 147
160 164 156
150 154 135
157 163 153
146 151 138
145 147 129
142 146 131
125 130 106
123 126 97
131 136 113
144 147 121
146 148 128
144 147 116
135 137 102
141 144 122
140 143 113
140 142 114
138 138 102
144 145 116
132 133 91
133 134 91
137 136 86
137 139 93
136 136 90
144 146 111
147 147 92
138 136 70
150 151 108
133 132 69
134 135 93
137 133 49
147 146 89
144 143 87
142 142 88
146 143 82
155 154 99
141 139 70
151 148 69
154 152 96
155 153 87
142 140 65
147 145 86
149 146 82
151 148 75
150 147 83
153 152 96
148 143 72
146 141 56
153 149 63
154 151 78
152 148 66
160 157 94
155 151 68
154 151 80
159 154 75
158 154 85
150 147 64
153 148 54
152 149 72
157 153 78
159 153 68
159 155 72
156 151 73
164 162 100
162 158 90
165 161 81
161 156 86
159 156 72
153 149 71
155 151 71
164 160 90
161 158 92
162 159 86
167 163 91
160 156 76
163 160 93
163 158 90
163 159 75
160 155 76
161 155 72
164 159 87
170 163 80
171 166 105
163 158 82
172 168 106
162 156 78
162 157 75
167 162 85
167 163 85
166 163 103
166 163 94
170 168 108
171 166 99
166 161 84
172 167 99
171 169 106
174 170 101
168 165 103
172 168 106
171 167 97
173 169 112
171 170 120
169 167 109
165 161 79
173 171 109
171 170 118
171 169 111
174 171 116
172 168 101
175 172 111
171 167 98
175 172 120
171 167 101
175 172 117
170 168 113
178 176 129
175 173 123
172 169 102
177 176 123
175 173 116
176 174 120
171 167 101
182 181 137
178 176 125
176 174 121
174 171 114
181 179 134
178 175 121
172 168 111
176 175 124
175 173 124
180 179 134
181 179 127
181 180 134
179 179 137
181 178 126
182 180 135
178 175 121
171 196 0
173 197 0
173 196 0
172 195 0
172 195 0
174 197 0
174 197 0
172 196 0
171 195 0
173 196 0
173 196 0
173 196 0
174 198 0
172 196 0
172 196 0
171 195 0
177 199 44
173 197 25
175 198 44
177 199 57
175 198 44
177 199 51
176 199 44
175 198 44
176 199 51
173 196 25
174 197 25
173 197 36
174 198 25
177 199 51
174 197 36
176 200 62
177 200 72
173 196 44
176 198 36
176 198 67
175 198 51
174 197 25
175 198 67
174 197 36
176 198 0
176 198 0
177 200 51
175 198 51
179 201 88
188 210 161
195 217 206
195 217 199
198 220 217
201 221 220
199 220 211
203 223 230
202 222 233
204 223 234
206 225 238
208 227 240
205 224 228
206 225 237
209 228 242
210 228 249
208 227 244
210 229 248
210 228 244
210 228 246
206 225 234
212 230 252
208 226 242
210 228 248
208 227 244
211 229 248
210 229 245
210 228 245
210 228 244
209 227 244
212 230 250
209 227 241
211 229 249
212 229 245
210 227 244
212 230 252
210 228 248
211 228 246
210 228 244
208 226 242
211 228 246
211 229 244
211 229 246
210 228 245
210 228 244
211 229 250
207 226 244
211 230 250
210 228 249
209 227 242
207 226 242
208 226 248
208 226 245
208 228 246
201 221 238
203 223 240
202 221 233
202 222 230
201 221 236
195 216 228
189 210 218
193 215 224
185 207 193
175 197 144
159 180 62
163 184 25
159 180 44
158 178 67
158 178 67
159 179 36
147 167 76
150 170 44
147 168 36
157 179 25
153 174 44
155 176 44
143 164 0
146 167 44
137 157 0
144 164 0
129 149 0
125 145 0
114 133 0
132 152 0
126 145 0
135 155 0
123 143 0
127 146 0
132 151 0
133 155 0
142 163 0
148 170 0
145 166 0
143 166 0
161 184 0
171 195 0
171 195 0
170 194 0
168 191 0
168 191 0
170 194 0
169 193 0
169 192 0
167 191 0
169 192 0
169 193 0
167 190 0
171 194 0
170 194 0
164 188 0
166 190 0
165 189 0
143 167 60
56 88 111
53 85 97
54 87 86
56 89 102
55 88 102
54 87 97
55 87 102
56 88 107
56 89 105
55 88 102
55 88 92
56 89 99
54 85 102
58 91 111
56 89 108
55 88 99
56 89 107
55 88 103
56 89 115
56 89 107
56 89 105
56 88 102
56 89 103
55 88 88
56 88 107
57 90 113
58 92 121
57 90 103
57 90 100
56 89 103
57 90 114
55 88 105
56 89 94
55 87 97
57 90 108
56 89 107
58 92 113
58 91 115
57 90 108
57 90 105
55 87 95
57 89 111
57 90 115
56 89 108
55 88 103
56 89 113
55 87 97
56 89 99
58 92 126
57 90 110
56 89 107
54 85 102
58 91 115
54 85 100
57 90 106
55 87 107
57 89 114
55 87 105
55 87 102
56 89 111
56 87 96
58 91 120
55 87 102
56 88 122
57 89 114
56 89 115
55 85 88
54 84 101
56 87 101
54 85 101
56 88 116
56 87 105
53 84 104
54 84 94
54 84 94
54 84 100
55 86 98
53 83 98
57 88 113
51 78 91
50 79 75
52 81 91
54 83 98
50 77 78
51 78 86
51 78 82
137 158 37
167 189 0
166 188 0
167 189 0
166 187 0
164 187 0
167 190 0
166 189 0
166 189 0
168 191 0
170 192 0
168 189 0
164 187 0
166 187 0
168 190 0
168 190 0
166 188 0
183 194 133
178 183 173
175 180 171
153 157 138
163 169 163
149 154 137
142 144 122
155 159 147
151 154 134
154 159 149
148 152 136
138 143 127
136 140 112
133 135 107
139 143 119
135 138 110
137 140 113
128 129 94
143 147 119
138 141 116
142 144 110
146 149 119
143 142 87
144 146 114
134 135 81
143 144 97
137 138 89
149 148 105
141 139 86
155 155 113
128 128 68
147 145 76
137 136 85
155 156 114
144 142 78
145 144 93
146 145 100
147 144 83
135 134 64
153 151 88
144 141 72
139 137 69
151 150 95
149 146 81
153 149 76
151 148 77
143 139 72
152 150 86
151 147 77
147 142 59
157 156 95
154 153 87
148 145 53
147 143 66
161 159 97
159 154 72
155 151 72
157 152 67
159 154 82
159 155 81
157 151 62
154 150 75
154 150 63
163 157 87
160 154 61
156 153 75
164 158 80
156 153 68
162 157 79
159 153 76
157 152 71
164 160 84
164 160 91
162 158 83
162 159 87
165 159 87
165 160 79
164 161 84
162 158 73
167 162 87
166 163 95
158 153 71
167 164 99
157 153 71
165 162 95
164 160 91
168 164 97
168 164 95
167 166 108
167 163 90
169 166 104
166 162 90
171 168 103
165 162 97
163 159 87
168 164 93
171 167 105
169 165 103
169 165 104
163 160 94
174 171 116
170 166 100
170 167 98
171 168 108
171 168 112
171 168 105
170 167 99
173 168 106
176 171 118
172 167 99
173 169 105
172 169 108
168 165 99
180 177 130
177 176 127
168 163 93
166 162 87
178 176 121
176 173 110
175 172 116
181 179 131
173 171 115
177 177 131
170 168 108
174 172 112
178 178 133
175 171 110
172 168 108
177 174 117
176 173 117
179 176 125
177 176 125
176 174 120
179 176 123
179 177 127
179 177 127
180 180 136
184 183 140
181 180 133
175 173 128
176 198 0
174 198 0
172 196 0
174 197 0
175 198 0
173 196 0
171 194 0
172 196 0
173 197 0
170 193 0
174 198 0
171 194 0
173 196 0
175 197 0
173 197 0
172 196 0
173 196 0
172 194 36
173 196 25
176 199 67
174 197 62
174 197 44
174 197 25
176 198 36
174 198 44
176 199 25
174 198 25
176 199 36
176 199 44
176 199 36
173 196 51
178 200 57
178 200 72
176 199 44
176 199 51
176 199 57
178 200 62
175 198 67
177 199 57
175 198 36
176 198 51
175 198 44
175 197 36
174 197 51
174 197 44
174 197 51
178 202 117
187 209 159
189 211 175
198 219 217
198 219 220
200 221 224
201 222 227
201 221 220
203 223 231
204 223 230
206 225 238
206 226 241
206 225 236
208 227 240
206 225 238
205 224 237
205 224 233
209 228 249
206 224 234
207 226 236
208 227 238
208 227 242
210 229 249
209 228 241
209 227 244
209 227 244
209 227 244
210 228 245
210 228 248
208 227 245
209 228 245
208 226 244
211 229 250
207 226 237
209 227 248
209 227 242
207 226 241
209 227 244
210 228 249
209 228 246
208 226 245
209 228 241
207 225 242
209 228 248
206 225 241
208 227 246
209 228 245
204 223 241
207 227 245
205 224 238
207 227 244
207 226 244
202 222 237
202 223 245
199 220 236
192 213 218
197 218 237
190 211 215
179 201 188
173 195 155
168 189 92
163 183 44
164 185 57
157 178 36
168 189 57
150 170 51
162 182 84
157 177 51
146 166 0
157 177 25
146 167 25
145 166 0
150 171 51
146 167 25
152 173 51
135 155 0
131 151 0
137 158 0
128 149 0
137 156 0
127 147 0
128 149 0
129 147 0
131 152 0
122 142 0
139 160 0
135 156 0
141 161 0
151 171 0
150 172 0
139 160 0
155 178 0
165 188 0
169 192 0
170 194 0
170 194 0
167 190 0
169 193 0
172 195 0
170 194 0
166 190 0
175 197 0
166 189 0
167 190 0
168 192 0
165 189 0
168 191 0
170 194 0
168 192 0
166 190 0
169 192 0
114 139 78
55 87 97
56 89 94
54 86 95
55 88 99
53 84 86
55 87 81
55 88 103
54 86 78
56 89 100
55 87 108
55 87 92
55 88 102
55 87 97
54 86 95
57 89 108
55 87 100
56 89 107
55 87 107
56 89 110
55 87 84
57 90 120
55 87 103
59 92 120
56 88 107
56 88 108
55 88 99
57 90 113
53 84 94
57 90 113
54 86 100
55 88 94
56 89 108
58 91 115
57 91 114
55 88 92
57 90 105
57 90 128
56 88 110
57 90 100
55 87 105
56 89 105
57 90 105
56 88 108
56 89 114
58 91 120
58 91 113
56 89 110
57 90 115
56 89 108
57 90 113
54 86 95
57 90 109
55 86 99
56 89 103
58 90 113
57 89 111
55 87 104
56 89 105
56 89 114
56 88 97
55 88 108
54 86 104
56 88 110
57 90 111
55 86 104
54 84 98
56 89 100
56 88 110
54 85 109
56 87 104
57 88 102
57 88 108
52 82 96
57 88 113
53 83 96
53 83 79
53 82 89
53 83 96
51 80 93
54 85 101
50 77 80
51 79 94
51 79 89
51 78 82
98 119 57
166 188 0
168 189 0
167 189 0
160 181 0
170 192 0
166 188 0
164 186 0
168 190 0
167 189 0
160 182 0
166 188 0
167 190 0
169 192 0
167 189 0
168 190 0
166 187 0
166 187 0
168 188 25
174 182 146
168 173 162
158 161 147
163 167 155
154 158 144
157 161 145
147 151 131
147 151 138
156 160 143
149 153 131
147 153 143
153 156 136
137 141 123
131 133 100
132 135 107
136 136 103
140 142 109
139 140 100
142 143 108
148 150 122
129 131 98
135 136 101
139 140 100
147 147 101
152 153 118
125 127 88
140 139 81
129 129 78
137 135 87
135 134 86
144 144 103
138 140 98
140 139 93
145 142 74
139 138 78
153 150 90
147 146 90
146 143 80
149 144 71
154 151 93
142 139 74
148 145 90
157 155 89
150 146 71
156 153 91
139 136 63
146 143 66
151 148 75
155 152 93
146 143 64
154 151 90
156 153 80
146 143 68
148 146 71
153 148 72
148 144 74
157 153 85
155 151 84
159 154 81
150 146 67
162 158 78
157 153 82
160 155 83
156 152 75
161 157 84
164 160 88
157 152 75
161 157 97
159 153 80
165 161 84
156 151 64
158 155 84
161 155 74
163 158 78
164 159 80
162 157 83
165 161 93
165 161 84
165 162 92
164 160 82
167 163 93
165 162 87
170 166 104
166 161 91
165 161 88
169 167 108
164 161 93
162 160 86
163 158 74
169 165 93
169 166 98
167 164 99
171 168 104
169 165 103
168 165 94
170 167 104
170 164 97
169 165 100
168 165 103
179 177 127
174 171 115
171 168 103
172 170 115
166 162 87
170 167 105
171 168 99
167 163 92
173 169 102
167 164 95
172 171 125
176 175 129
173 171 106
172 172 119
171 169 105
175 173 115
174 170 106
174 174 120
173 170 116
174 172 115
174 171 117
182 179 134
177 175 120
178 175 125
181 179 130
181 179 137
171 169 110
175 171 110
180 178 128
181 179 129
180 179 134
181 180 133
182 180 134
176 175 120
173 172 116
179 176 125
177 175 122
182 180 137
176 175 125
179 177 125
175 198 0
174 197 0
173 196 0
174 197 0
171 195 0
173 197 0
174 197 0
173 197 0
174 197 0
168 192 0
173 196 0
173 197 0
172 195 0
174 197 0
173 196 0
172 196 0
172 196 0
173 196 0
173 197 25
173 196 25
173 196 25
173 196 44
175 198 51
174 198 25
179 202 84
176 199 36
174 197 36
174 197 51
174 197 36
176 198 25
174 197 25
175 198 25
176 199 67
177 200 62
177 200 57
177 200 57
177 200 51
176 199 57
177 199 62
177 199 51
176 199 51
178 200 67
176 199 57
176 198 25
174 197 0
177 200 72
176 199 44
175 198 44
180 202 108
184 206 135
188 210 177
195 217 204
198 219 217
198 218 207
201 222 226
202 222 230
199 219 223
202 222 230
202 223 231
204 224 237
206 225 237
203 223 231
205 224 237
206 226 238
207 227 244
207 227 242
207 226 244
207 226 242
210 229 250
207 226 241
209 228 245
207 226 237
209 228 245
207 225 238
209 228 242
209 228 248
208 226 245
208 227 248
208 227 244
208 227 242
207 226 245
210 228 246
207 226 245
207 226 244
207 226 240
207 226 242
203 222 234
204 223 242
208 227 246
208 227 249
205 224 241
205 224 245
203 222 233
203 223 237
202 222 237
201 221 237
193 214 221
197 218 230
198 219 234
195 216 226
189 210 214
189 211 212
180 202 186
175 197 149
165 186 67
163 183 51
158 179 44
160 180 36
158 178 57
154 174 62
159 179 62
166 188 57
152 172 44
158 178 44
149 170 25
156 176 36
157 178 36
151 172 51
147 167 44
145 165 25
141 162 0
131 152 0
133 154 0
136 157 0
133 152 0
138 158 0
137 158 0
135 154 0
141 162 0
130 151 0
132 153 0
139 159 0
149 170 0
147 169 0
149 170 0
155 176 0
156 178 0
161 185 0
168 191 0
170 193 0
165 189 0
170 194 0
169 193 0
170 193 0
167 191 0
165 188 0
168 192 0
168 191 0
168 191 0
169 192 0
166 190 0
168 193 0
164 188 0
171 194 0
167 190 0
164 188 0
167 190 0
160 184 18
72 99 84
54 86 101
53 85 95
56 88 103
55 87 99
55 87 99
56 88 111
55 88 102
55 87 107
54 85 94
56 89 110
56 89 102
55 88 102
56 88 110
57 90 111
55 88 94
56 89 108
57 90 113
57 90 111
57 90 102
56 88 100
56 89 107
55 87 94
57 90 103
54 85 103
57 90 105
57 90 102
55 87 100
58 91 108
56 88 115
53 85 80
56 88 95
55 88 105
56 89 103
55 87 94
55 87 103
56 88 100
55 87 105
58 92 121
57 90 111
56 87 103
57 90 103
57 89 118
56 89 99
56 89 107
58 91 107
56 89 107
58 91 117
56 88 108
57 90 108
54 87 92
57 89 108
55 87 110
56 88 110
56 88 107
54 86 85
56 89 95
56 88 102
57 89 113
56 89 105
55 88 97
56 88 103
53 84 97
56 87 97
55 87 116
55 87 105
54 86 99
57 90 111
54 85 95
56 86 94
55 87 105
54 85 104
52 82 101
54 84 91
52 82 106
53 82 91
54 85 103
53 82 96
54 84 100
51 80 76
53 81 91
52 81 95
49 76 75
75 98 75
156 178 18
156 176 0
169 191 0
166 188 0
166 187 0
167 188 0
166 187 0
161 183 0
164 185 0
164 185 0
164 186 0
166 189 0
166 188 0
166 187 0
169 191 0
163 185 0
168 188 0
167 187 0
170 192 0
169 190 52
188 196 181
186 190 181
164 167 149
163 166 151
165 170 159
145 148 133
152 156 140
148 153 145
150 154 137
140 143 123
150 154 143
140 143 121
152 156 136
137 139 113
155 159 136
142 144 109
133 134 99
144 146 111
132 132 98
132 133 95
138 141 110
137 139 107
132 133 88
142 143 113
153 152 101
151 151 110
144 145 103
139 139 93
140 140 90
147 146 79
147 147 97
149 148 102
154 152 101
138 137 87
146 145 90
141 138 78
151 150 101
152 151 94
152 151 99
148 145 75
147 147 94
148 146 76
150 146 79
157 155 106
150 148 73
147 144 63
148 145 66
159 156 98
146 143 62
156 154 97
154 150 77
153 150 82
152 148 67
154 151 70
158 154 88
151 147 62
151 147 59
154 149 74
154 150 77
160 158 91
158 155 83
158 154 80
155 152 77
160 156 78
153 150 78
162 158 92
157 154 81
159 156 91
165 163 97
165 160 83
158 153 70
159 155 83
165 164 102
156 153 86
169 168 110
165 161 96
162 157 83
166 162 97
162 158 95
157 154 68
165 160 80
165 163 99
162 156 77
162 158 89
166 163 88
163 158 86
163 159 77
167 165 98
169 167 99
165 160 90
167 164 93
165 161 93
168 163 91
168 163 92
163 160 90
167 163 94
168 165 99
169 165 104
167 166 109
166 163 91
167 161 87
166 162 91
172 168 102
172 171 112
171 168 106
171 168 110
176 174 116
172 169 109
169 167 109
168 164 93
178 174 117
170 167 104
166 163 93
178 175 121
167 163 93
173 172 120
174 170 113
179 175 119
179 178 131
174 172 116
174 174 126
174 172 118
180 179 133
178 177 129
173 171 119
175 173 120
171 168 109
179 176 127
179 178 130
176 174 116
178 176 124
177 174 113
175 173 116
178 174 117
180 179 135
182 182 141
176 172 112
181 181 134
172 196 0
174 197 0
173 197 0
173 196 0
173 196 0
172 196 0
174 198 0
175 197 0
172 196 0
172 196 0
169 193 0
172 195 0
173 197 0
173 196 0
170 194 0
172 195 0
174 198 0
171 195 0
172 196 0
172 195 25
173 196 44
172 195 0
176 198 51
177 199 51
175 198 44
177 199 57
176 199 51
173 197 25
175 198 44
174 198 36
177 199 44
175 198 25
174 197 36
175 197 25
178 200 57
174 197 57
176 199 57
176 199 67
176 198 57
177 199 36
177 200 72
173 196 25
177 199 44
179 201 72
180 201 84
176 198 36
174 197 25
176 199 0
176 199 0
174 197 36
177 199 67
181 203 120
187 210 167
190 213 188
193 215 206
198 219 221
197 218 224
201 221 226
200 220 221
201 222 227
201 221 227
203 223 231
201 221 221
203 223 233
206 225 241
203 223 236
204 224 238
208 227 246
205 225 236
206 226 242
208 228 250
207 226 244
207 226 242
206 225 242
205 225 238
208 227 248
206 225 242
207 226 246
207 226 244
207 225 240
204 224 240
203 222 236
210 229 252
207 227 245
206 226 245
206 225 245
206 225 244
207 227 244
206 225 240
204 224 237
206 226 244
202 222 234
203 224 240
200 220 236
196 217 228
196 217 233
193 215 221
189 211 218
188 210 212
183 205 203
181 203 181
169 190 117
161 181 51
165 185 72
165 186 44
161 181 51
161 182 57
157 177 57
162 182 57
153 173 62
148 169 51
164 184 25
160 181 36
156 177 51
159 179 36
160 180 57
148 168 36
150 170 25
141 162 25
137 158 0
135 156 0
132 153 0
137 157 0
134 154 0
129 149 0
131 150 0
141 161 0
135 155 0
136 156 0
137 157 0
144 164 0
137 158 0
141 162 0
148 170 0
145 165 0
145 167 0
162 185 0
169 193 0
164 188 0
166 190 0
169 192 0
166 190 0
166 189 0
171 194 0
169 192 0
170 194 0
171 194 0
169 192 0
166 190 0
163 186 0
168 191 0
164 188 0
166 189 0
166 189 0
166 189 0
168 191 0
161 185 0
163 185 0
149 172 44
60 90 92
53 84 92
52 83 80
56 88 95
54 86 90
52 83 95
52 84 86
55 88 99
56 89 110
55 87 110
55 87 102
56 89 113
55 88 100
56 88 99
53 84 99
55 87 105
56 89 114
56 88 99
55 88 107
54 86 97
57 89 103
56 88 105
58 91 105
54 86 99
55 87 97
55 88 105
56 89 110
54 86 86
55 88 97
55 87 103
55 87 86
54 86 97
55 88 99
55 87 94
57 90 110
55 87 95
54 86 95
57 90 105
55 87 100
56 88 94
55 88 97
54 86 102
54 86 97
59 92 124
58 91 121
54 86 105
58 91 108
56 88 103
54 87 95
57 89 111
56 88 101
56 89 111
56 88 102
56 89 108
54 86 97
55 86 99
54 85 99
55 86 102
53 84 95
57 89 107
55 87 103
54 84 96
53 84 103
55 87 95
57 89 116
54 85 97
54 86 96
54 86 90
56 87 105
57 89 110
52 81 86
53 83 93
55 85 103
55 86 98
52 81 78
53 83 96
53 82 92
51 80 94
48 75 84
53 82 95
48 74 64
54 82 88
147 168 37
163 185 0
160 182 0
167 189 0
167 186 0
162 183 0
166 185 0
160 182 0
167 188 0
168 188 0
165 184 0
164 187 0
164 185 0
162 183 0
170 192 0
165 186 0
165 186 0
168 190 0
165 186 0
164 184 0
167 188 0
174 195 85
185 188 175
171 175 166
171 176 164
159 163 152
164 168 156
158 161 147
156 159 141
143 147 128
136 137 112
148 152 134
145 148 127
154 158 138
139 142 115
137 140 120
140 144 121
136 136 94
148 151 124
138 139 103
149 150 123
143 143 102
140 141 97
131 133 96
139 139 86
140 140 95
139 138 93
132 133 81
148 149 106
140 139 80
144 145 90
137 135 80
137 135 75
141 142 88
139 136 69
142 141 82
144 142 85
150 150 100
137 133 44
148 146 84
147 144 86
143 140 74
152 148 77
153 150 80
155 154 94
145 143 80
152 151 93
148 145 88
154 151 84
152 149 68
151 148 86
154 152 91
149 146 77
153 149 83
157 154 82
157 154 75
159 157 96
162 159 94
159 155 88
157 154 87
163 159 79
160 157 84
156 151 67
162 156 80
154 150 71
158 155 78
162 158 87
156 151 77
160 156 93
159 156 84
165 161 84
165 161 91
166 161 94
161 157 70
170 166 98
164 162 95
163 160 89
157 153 78
162 159 90
169 166 109
160 156 77
161 158 74
159 155 80
163 159 84
166 163 90
166 161 88
164 161 95
166 161 98
170 166 104
167 164 104
167 162 87
170 166 102
171 167 99
166 164 100
165 161 92
169 165 97
166 163 103
169 164 101
171 168 110
176 176 131
175 173 120
171 168 108
171 168 102
171 169 112
170 167 100
172 168 101
169 166 104
174 170 106
174 172 116
173 171 110
168 163 87
175 173 120
166 161 78
174 170 110
174 171 115
174 171 110
172 170 112
173 168 97
175 172 115
171 171 122
178 178 138
181 180 134
173 170 112
175 173 124
175 173 121
176 174 122
175 173 123
175 173 123
178 177 132
176 174 123
174 172 113
176 174 124
182 181 140
176 174 128
177 176 125
178 177 133
186 186 147
179 177 128
183 182 141
175 197 0
173 196 0
170 194 0
172 196 0
171 195 0
173 196 0
174 198 0
171 194 0
172 196 0
173 197 0
174 197 0
171 195 0
172 196 0
170 194 0
172 195 0
173 197 0
172 195 0
173 197 0
173 196 0
169 192 0
171 194 0
173 196 0
176 199 36
174 197 36
173 197 44
172 195 25
175 197 44
175 198 51
175 198 57
175 198 36
175 198 57
175 198 0
177 199 51
174 197 25
174 196 0
173 195 36
176 198 67
178 200 67
178 200 76
176 199 51
179 201 80
178 200 44
178 201 76
175 197 36
176 199 67
173 196 25
180 200 67
176 199 51
176 198 25
176 198 57
178 199 44
175 197 44
174 196 44
179 202 99
179 202 133
189 211 173
190 212 189
194 216 206
194 216 206
196 217 217
198 219 223
199 221 224
200 221 226
200 221 224
202 222 234
201 222 228
202 222 231
204 224 234
204 224 241
199 220 226
206 225 244
201 221 231
205 224 241
204 223 234
207 227 248
201 221 231
204 224 236
203 223 240
203 223 234
202 222 234
199 220 233
205 225 244
203 223 238
202 222 237
201 221 233
204 224 238
200 221 231
202 222 234
200 221 234
195 216 224
200 221 237
200 221 240
196 217 228
196 218 230
189 211 212
187 209 212
181 204 193
175 198 165
168 190 114
163 185 72
162 183 44
160 182 36
164 184 44
160 182 36
155 176 36
159 179 57
162 182 51
165 186 57
157 177 57
152 172 44
148 169 0
158 179 44
156 176 36
157 177 44
151 172 44
154 174 44
153 173 25
143 163 0
137 157 0
141 162 0
142 163 0
144 165 0
138 158 0
136 157 0
148 168 0
147 167 0
136 156 0
144 164 0
144 165 0
149 169 0
136 157 0
136 157 0
142 164 0
150 172 0
144 166 0
156 178 0
168 191 0
166 189 0
168 192 0
167 192 0
169 192 0
162 185 0
167 191 0
165 188 0
166 189 0
166 189 0
164 187 0
168 192 0
167 190 0
166 189 0
166 188 0
165 187 0
159 184 0
163 187 0
166 189 0
163 185 0
167 190 0
162 184 0
162 185 0
122 145 51
53 84 86
54 85 88
52 83 88
52 83 73
56 89 114
52 83 80
55 87 90
54 86 94
56 89 99
54 87 80
56 88 107
55 88 97
56 88 99
55 87 97
54 86 99
55 88 102
57 90 99
54 86 86
53 85 88
57 90 108
55 87 86
55 88 107
55 88 97
56 89 111
58 91 105
56 89 108
55 88 100
54 86 99
56 89 102
55 86 100
57 89 117
56 89 94
57 90 107
56 88 102
55 87 88
55 87 95
56 89 99
58 91 107
56 89 103
56 88 107
56 88 100
56 89 103
58 91 108
56 89 113
58 92 117
55 87 97
56 88 110
58 90 131
54 86 97
55 86 98
56 88 103
57 89 115
55 88 90
56 88 100
54 85 92
53 84 100
55 86 121
55 87 105
55 87 99
57 90 103
54 85 99
55 87 90
53 84 100
55 86 100
54 85 103
53 84 94
54 84 91
54 84 89
52 82 99
55 86 104
51 80 94
53 84 92
53 83 101
51 81 87
53 83 91
50 79 86
50 78 85
53 84 89
52 80 89
52 79 94
120 139 45
161 182 0
163 184 0
158 178 0
152 172 0
162 183 0
162 183 0
162 183 0
159 179 0
156 174 0
161 180 0
162 183 0
162 184 0
158 179 0
161 181 0
161 179 0
165 185 0
161 180 0
159 179 0
168 189 0
168 188 0
169 191 0
162 183 0
175 190 99
186 190 178
168 172 160
159 164 149
148 149 125
153 156 147
155 158 140
170 174 165
167 171 156
150 152 126
145 147 126
148 151 131
151 154 133
140 142 116
154 155 118
145 147 124
133 136 103
137 138 109
137 137 100
150 151 115
138 138 90
132 131 93
140 140 103
139 138 95
150 150 111
145 148 114
135 134 86
154 153 115
145 143 80
141 139 75
150 148 90
150 149 108
149 149 97
156 153 93
151 151 107
133 130 64
151 148 90
147 143 77
148 148 97
161 161 115
153 152 98
156 155 105
152 148 82
144 141 65
153 152 92
150 147 71
152 149 78
157 156 103
153 150 82
150 147 85
155 153 98
149 147 71
158 153 76
151 148 72
155 151 81
161 159 100
160 156 89
150 146 71
157 153 74
158 154 75
157 154 80
161 158 101
163 158 83
161 159 94
159 153 83
159 158 93
164 160 94
163 160 87
158 155 80
155 152 63
161 156 82
161 158 95
160 156 92
157 153 75
167 165 110
160 156 80
168 164 97
160 157 83
163 158 87
165 161 94
168 164 93
163 159 84
164 162 93
159 155 80
170 168 113
166 163 94
166 163 96
165 161 98
173 171 114
169 165 97
168 165 98
160 156 78
167 164 103
167 163 98
168 165 100
164 162 96
169 165 107
172 167 102
170 167 105
171 168 107
175 174 129
166 162 90
168 164 95
175 172 120
171 168 104
171 167 105
168 164 94
176 174 116
171 167 103
171 167 98
174 171 117
172 169 106
173 173 119
175 174 122
172 169 106
171 168 117
176 176 124
176 175 123
176 175 122
179 179 137
170 167 110
172 169 106
175 173 122
182 181 140
178 178 133
180 177 126
178 174 121
177 174 117
178 177 127
175 174 119
179 178 133
186 187 151
178 176 123
181 180 140
183 182 141
184 181 132
184 183 144
174 197 0
173 197 0
174 197 0
171 195 0
174 197 0
173 197 0
173 196 0
172 195 0
175 198 0
174 197 0
176 198 0
172 195 0
173 197 0
174 197 0
170 194 0
172 196 0
173 196 0
173 197 0
171 195 0
168 191 0
172 195 0
175 198 0
171 194 0
175 197 25
174 197 0
174 198 44
172 195 0
176 199 44
174 196 25
176 199 44
174 197 0
174 197 25
175 198 57
173 196 36
174 197 0
175 198 25
175 198 0
176 199 25
178 200 57
176 198 44
176 198 57
181 202 80
177 200 57
178 200 51
176 198 57
176 198 36
177 199 51
175 197 51
176 198 44
174 197 57
177 199 44
177 199 51
177 198 44
180 200 57
178 200 51
176 198 36
177 199 76
180 201 108
186 208 153
187 209 167
192 214 198
197 218 220
196 218 220
195 216 215
195 217 218
198 219 221
198 220 220
200 222 231
201 222 231
202 223 240
196 217 218
202 223 236
199 220 223
202 222 237
201 222 237
198 219 227
202 223 237
197 218 224
199 219 233
198 219 231
200 221 233
200 221 236
200 220 231
197 218 220
199 221 234
195 217 220
198 219 224
196 217 234
192 213 221
192 214 215
186 208 211
185 208 204
181 204 201
175 198 163
173 196 147
163 185 120
163 184 44
157 178 62
162 183 44
162 182 36
162 182 36
169 190 62
159 179 80
157 177 51
157 177 80
157 177 51
160 179 62
149 170 36
154 174 25
151 173 25
160 180 0
148 168 36
152 172 36
159 180 51
149 169 25
146 167 0
142 163 0
135 156 0
136 156 0
140 160 0
141 161 0
136 157 0
134 155 0
136 157 0
134 155 0
134 155 0
134 155 0
134 155 0
145 166 0
139 160 0
150 172 0
139 160 0
150 172 0
155 177 0
151 173 0
166 188 0
161 185 0
167 191 0
163 187 0
169 193 0
164 187 0
167 190 0
167 191 0
168 191 0
161 185 0
169 191 0
164 188 0
161 184 0
164 187 0
168 191 0
161 184 0
165 188 0
160 183 0
162 186 0
162 184 0
160 182 0
159 183 0
160 184 0
162 186 0
161 183 0
110 133 57
55 87 97
54 86 94
54 86 86
52 83 90
55 88 103
56 89 103
54 85 88
56 89 105
54 86 95
57 89 97
50 80 74
54 85 94
55 87 105
56 89 100
55 87 99
55 87 97
56 88 102
57 90 115
54 85 103
57 89 115
55 87 102
55 88 92
57 90 107
55 87 103
56 88 108
56 89 99
56 89 110
58 91 121
56 89 108
53 85 103
55 88 92
56 89 103
55 87 107
55 87 103
55 87 100
56 89 108
54 86 101
57 90 107
55 88 107
54 86 100
54 86 97
54 85 87
55 87 105
55 87 94
55 87 97
55 87 95
57 90 108
55 87 103
53 85 99
58 91 124
56 88 107
54 86 92
53 85 94
54 86 103
56 88 94
54 85 111
56 87 110
53 84 82
56 88 102
52 82 78
55 86 103
52 82 92
54 86 103
53 84 95
52 82 86
53 83 90
57 89 103
53 84 87
54 84 101
52 82 88
53 83 94
55 85 96
53 83 94
53 82 85
52 80 88
51 79 80
50 77 88
47 72 59
102 122 54
155 175 0
157 177 0
155 175 0
157 177 0
156 175 0
155 176 0
154 172 0
159 178 0
158 179 0
160 179 0
162 181 0
162 184 0
158 178 0
154 175 0
163 183 0
166 186 0
158 177 0
164 183 0
159 178 0
166 187 0
166 186 0
162 182 0
162 183 0
163 184 0
173 186 111
183 187 178
169 173 160
168 171 157
157 161 148
160 162 143
157 159 141
153 157 145
144 145 120
161 164 147
140 141 115
147 150 129
151 153 130
150 153 131
143 146 117
141 143 112
146 148 126
142 144 109
142 144 117
145 145 105
142 144 115
155 156 123
141 141 91
148 148 109
150 149 104
139 138 78
152 153 115
146 147 112
141 139 83
138 135 78
149 148 97
153 152 105
155 152 99
153 154 109
154 153 109
149 148 88
148 144 79
143 143 87
153 151 97
147 146 81
152 149 73
151 150 94
149 148 94
147 147 82
151 148 77
150 146 75
146 143 63
149 146 80
153 149 83
149 146 60
151 149 97
160 157 80
158 154 86
155 151 71
157 153 79
157 155 94
155 153 92
159 156 89
154 150 76
163 159 97
159 157 93
161 156 78
158 153 80
158 153 68
159 155 84
163 160 96
161 159 99
163 159 95
168 164 102
157 153 76
159 156 91
167 163 94
166 162 92
165 161 92
161 156 86
159 154 81
166 163 95
163 160 95
168 166 109
166 162 93
167 165 96
167 164 100
168 164 97
166 162 88
167 164 95
165 161 87
169 164 97
171 169 115
161 156 77
163 158 85
162 160 96
170 166 104
173 170 113
170 167 103
167 164 99
173 168 109
162 158 87
173 170 109
168 166 109
169 165 101
175 173 115
166 163 105
171 168 108
170 167 104
174 171 113
170 167 105
170 167 109
172 170 115
170 166 97
175 172 116
169 166 101
173 170 109
173 172 123
178 177 130
184 184 142
180 179 136
171 168 111
181 180 130
178 175 121
173 169 112
173 170 113
174 171 110
180 177 126
172 170 117
171 171 120
169 167 109
177 176 124
180 178 132
179 177 132
182 181 134
181 179 137
185 184 147
174 172 118
180 181 136
180 176 131
179 178 131
175 197 0
174 197 0
174 197 0
173 196 0
173 196 0
173 197 0
171 194 0
169 192 0
173 196 0
175 198 0
174 197 0
173 196 0
171 195 0
171 195 0
173 197 0
172 195 0
170 194 0
171 195 0
173 196 0
172 196 0
172 195 0
173 196 0
169 193 0
172 196 0
174 196 51
172 196 25
174 196 36
175 198 44
175 198 25
174 197 51
175 197 36
176 198 57
176 198 25
176 199 44
176 199 36
174 197 0
173 195 25
174 197 0
176 198 0
176 198 25
174 196 44
178 200 57
179 201 80
178 199 44
177 199 57
180 201 67
178 200 51
177 198 62
178 200 62
178 199 62
177 198 51
178 199 51
175 197 44
173 195 44
171 192 36
175 196 44
178 199 44
175 196 36
177 197 25
175 196 51
177 198 76
180 202 92
185 206 151
184 206 153
188 211 189
189 211 189
186 208 198
192 213 193
190 212 206
193 215 207
193 215 215
192 213 209
196 217 217
196 218 224
194 216 217
193 215 212
195 217 221
196 218 218
194 215 217
190 212 215
190 212 211
196 217 223
190 212 217
189 211 209
187 210 204
188 210 206
185 208 203
183 206 188
178 200 171
177 200 173
170 193 130
168 190 80
163 185 84
161 181 36
162 183 57
161 183 36
161 183 62
158 180 62
159 178 44
161 182 62
158 179 0
159 179 62
161 181 67
161 182 44
158 178 36
150 170 36
147 167 44
155 175 25
155 176 25
153 173 36
155 176 25
147 167 36
153 174 25
147 168 36
143 164 0
142 163 0
145 166 0
148 168 0
135 155 0
142 161 0
147 167 0
142 163 0
143 163 0
142 163 0
138 158 0
139 161 0
134 155 0
141 161 0
142 162 0
147 169 0
143 164 0
150 170 0
147 168 0
156 177 0
162 185 0
166 189 0
168 191 0
165 188 0
164 188 0
168 191 0
161 184 0
169 192 0
161 183 0
162 184 0
166 189 0
163 186 0
161 184 0
168 192 0
161 184 0
163 185 0
159 182 0
155 177 0
159 182 0
160 183 0
163 185 0
156 179 0
161 184 0
157 181 0
159 183 0
156 179 0
154 177 18
86 111 57
51 81 76
52 83 82
51 82 76
54 86 90
52 84 90
52 83 86
52 83 90
54 86 88
55 87 97
53 85 88
54 85 95
54 87 84
53 85 90
53 84 90
57 90 102
54 86 103
56 89 102
55 88 100
53 85 97
56 88 102
54 86 100
55 87 103
55 87 99
55 87 103
56 89 105
56 88 100
56 88 102
53 85 86
57 90 110
56 89 94
55 87 95
55 87 94
55 87 97
55 87 105
54 85 90
54 85 94
55 87 105
54 85 100
54 87 99
56 89 105
54 86 95
56 89 110
57 91 110
54 86 100
55 88 97
56 89 111
55 86 101
54 85 92
55 86 97
54 86 95
55 87 102
55 87 99
55 87 90
53 85 92
55 86 94
54 85 99
53 84 97
55 87 100
55 86 92
52 81 77
54 84 88
52 82 94
54 84 92
53 83 86
54 85 92
54 85 94
52 82 85
54 85 99
54 84 94
54 84 99
50 78 71
53 83 96
53 83 101
52 81 94
51 78 84
50 77 78
81 100 51
149 169 0
156 177 0
152 170 0
157 178 0
158 179 0
162 183 0
155 174 0
150 171 0
159 179 0
158 177 0
156 175 0
156 175 0
161 181 0
162 181 0
157 176 0
159 179 0
156 174 0
159 178 0
161 181 0
158 177 0
160 179 0
161 183 0
158 180 0
159 178 0
162 183 0
161 180 0
178 187 124
171 175 159
169 171 157
170 174 163
155 158 140
166 169 151
156 160 146
163 166 149
148 151 128
143 144 123
142 144 120
147 146 117
139 139 109
139 141 120
152 154 128
153 154 119
132 131 86
146 150 134
147 148 111
141 143 113
142 142 106
153 154 118
156 156 108
142 140 90
139 138 82
153 155 118
159 159 125
149 148 102
145 145 103
146 146 99
150 150 104
142 141 83
153 154 117
152 151 95
151 149 102
144 143 76
148 147 93
136 134 75
146 144 87
141 141 88
149 149 100
147 146 89
152 150 81
160 157 88
155 153 82
154 152 86
154 152 79
153 150 75
151 147 80
160 157 97
150 147 78
158 155 86
148 146 78
151 148 78
157 153 81
160 157 88
155 151 84
153 151 75
153 149 70
154 152 92
163 159 92
160 156 84
164 160 102
157 152 75
161 159 95
164 161 83
155 153 80
159 155 74
165 162 99
166 162 99
164 161 97
162 157 80
161 159 94
166 162 101
162 159 93
162 157 84
168 166 106
159 154 72
169 165 104
163 159 92
162 158 93
171 168 115
156 151 80
166 163 103
167 162 95
168 166 105
168 164 97
165 164 104
167 166 110
170 168 109
165 164 112
167 164 99
167 165 108
168 164 100
172 169 113
170 167 106
164 160 90
176 175 124
170 170 113
168 165 104
174 172 121
176 173 125
170 169 115
169 167 109
171 169 106
168 166 100
175 173 121
178 178 132
172 167 97
176 173 121
179 178 134
174 171 116
173 171 119
177 176 128
171 170 116
181 179 137
173 171 114
176 174 129
175 172 120
181 180 136
174 172 117
180 180 137
173 173 122
175 173 115
178 175 121
174 171 118
185 186 151
187 187 154
184 184 142
183 181 135
183 182 139
175 175 127
186 185 148
179 177 129
179 178 137
174 198 0
173 196 0
174 197 0
174 197 0
175 198 0
174 198 0
172 196 0
173 196 0
174 197 0
173 196 0
171 194 0
171 195 0
174 198 0
172 195 0
172 195 0
172 196 0
172 196 0
171 194 0
171 195 0
171 195 0
172 196 0
173 197 0
173 197 0
172 196 0
174 196 0
171 194 0
174 196 0
176 199 51
174 197 36
173 196 36
178 200 72
173 196 0
177 200 51
172 195 44
173 196 36
172 195 0
175 198 51
176 197 0
173 196 25
174 196 25
175 198 0
173 196 0
177 199 51
177 199 62
178 199 62
177 199 36
178 199 76
179 200 62
177 198 44
178 199 44
179 200 67
178 200 67
177 199 36
177 198 36
176 198 44
179 200 72
178 199 57
179 200 25
176 197 36
176 197 51
174 195 25
176 198 36
176 197 57
175 196 44
176 196 62
172 193 57
177 198 67
181 203 120
178 200 111
180 202 147
179 201 151
184 207 169
181 203 161
182 204 167
183 206 175
184 207 177
184 207 188
185 207 171
183 206 193
183 205 165
178 201 165
175 198 153
172 195 140
169 191 122
172 195 142
163 184 80
166 186 95
162 185 72
162 184 76
159 180 62
159 179 36
160 182 57
159 180 67
152 173 57
160 181 51
154 176 72
160 182 62
155 175 67
159 180 57
152 173 57
161 181 57
158 178 44
156 177 25
158 179 0
152 172 57
152 173 0
150 170 36
144 165 36
155 176 25
156 176 0
156 176 25
152 173 0
142 163 0
149 170 0
152 173 0
143 164 0
145 165 0
144 165 0
146 168 0
148 169 0
147 166 0
141 162 0
142 162 0
140 161 0
147 167 0
137 158 0
142 163 0
149 171 0
153 174 0
138 158 0
142 164 0
153 174 0
155 176 0
158 181 0
168 191 0
170 193 0
163 187 0
165 188 0
168 192 0
164 186 0
164 187 0
164 186 0
167 190 0
165 187 0
161 184 0
159 182 0
159 182 0
163 186 0
161 184 0
161 184 0
160 182 0
162 185 0
161 185 0
162 185 0
161 184 0
149 171 0
162 185 0
158 180 0
163 187 0
159 182 0
155 177 0
152 175 25
84 109 76
50 80 57
51 81 84
54 85 94
53 84 90
52 83 78
52 83 84
52 83 90
53 84 89
55 87 108
53 85 90
53 85 78
55 88 90
55 88 105
54 86 94
55 86 97
55 86 95
54 86 97
56 88 102
54 86 95
56 89 111
56 88 100
55 87 94
55 88 99
56 88 102
55 88 100
54 85 105
51 81 88
53 85 100
54 85 90
57 90 103
55 87 92
54 87 84
53 85 84
53 84 94
55 87 107
57 89 107
55 87 108
54 86 94
56 88 108
56 88 110
55 88 84
57 89 113
53 85 92
56 88 102
55 87 102
54 85 99
56 88 103
56 89 110
54 85 94
55 86 101
55 86 103
55 87 99
55 86 88
54 85 99
56 88 108
51 81 102
52 82 82
56 88 97
54 85 89
50 79 70
54 84 94
55 86 97
53 83 86
53 83 99
53 83 91
51 82 79
50 78 86
52 81 91
52 82 99
53 82 88
53 82 96
50 78 83
50 77 78
49 76 80
75 95 60
147 168 0
150 169 0
153 173 0
156 177 0
150 170 0
158 176 0
152 171 0
154 173 0
154 174 0
153 170 0
160 181 0
152 171 0
155 173 0
144 162 0
153 172 0
160 179 0
159 180 0
158 177 0
157 174 0
163 180 0
158 176 0
165 184 0
160 180 0
159 178 0
163 182 0
161 182 0
155 171 0
159 177 0
177 188 147
179 182 167
173 177 165
166 167 145
157 160 137
155 159 152
159 162 146
139 142 128
141 142 119
147 149 128
154 158 144
151 152 121
142 145 123
148 148 115
147 150 125
145 148 123
143 145 114
143 145 112
144 146 116
153 153 118
146 146 103
159 160 126
145 144 99
145 144 98
148 148 110
146 148 114
146 144 92
149 149 104
135 136 89
137 137 95
154 154 110
144 143 80
145 144 93
143 142 81
156 156 111
145 143 86
138 136 69
148 146 95
143 140 73
146 142 76
158 157 110
150 147 83
150 147 79
158 155 96
155 153 95
151 148 75
150 149 93
151 149 75
152 148 74
149 147 80
153 150 84
150 145 72
152 150 75
159 157 104
151 148 80
156 153 87
158 155 89
157 155 90
159 156 90
162 160 106
156 153 87
153 148 64
161 157 93
160 157 88
169 166 108
156 154 85
165 165 111
165 161 89
168 166 109
166 162 103
161 157 94
169 166 99
161 158 86
169 166 101
161 158 90
160 156 80
162 159 92
166 162 95
165 162 95
165 160 90
168 166 110
169 166 106
165 161 92
160 157 75
165 161 95
165 162 98
161 158 90
161 158 90
169 165 101
166 163 98
168 165 103
168 166 109
163 161 82
169 167 106
173 172 121
175 173 121
169 166 108
164 161 84
171 168 118
165 164 105
170 166 102
170 168 110
173 172 114
174 172 118
171 167 109
171 167 102
173 170 121
172 172 123
167 163 101
176 174 124
168 165 103
175 173 121
172 170 112
176 173 119
173 171 122
168 165 104
172 169 106
177 173 124
182 181 137
173 171 118
180 180 138
174 171 110
176 176 132
172 171 120
169 166 106
179 177 129
177 175 129
181 180 133
180 178 133
180 180 136
181 180 143
179 176 127
185 185 152
181 179 138
174 198 0
172 196 0
173 196 0
171 194 0
175 198 0
171 195 0
172 195 0
174 197 0
169 192 0
173 197 0
170 194 0
172 195 0
173 196 0
170 193 0
173 196 0
175 198 0
172 195 0
172 196 0
173 196 0
173 196 0
171 194 0
173 195 0
171 194 0
172 195 0
170 193 0
170 194 0
171 195 0
170 194 0
170 194 25
176 199 51
176 199 51
175 198 25
175 198 25
172 195 25
173 196 25
175 198 25
175 197 44
171 194 44
174 196 0
176 198 36
177 198 25
177 199 25
175 197 25
176 197 25
174 196 25
179 200 57
176 198 44
179 201 72
179 200 72
179 200 80
177 198 57
178 199 57
177 198 57
180 201 84
178 198 51
179 199 57
177 198 44
177 198 62
175 196 25
176 198 51
176 196 44
173 194 25
174 195 36
175 197 51
173 194 25
175 197 51
170 191 36
174 194 51
175 196 44
169 190 51
176 195 51
173 193 57
174 194 51
169 189 44
167 188 51
166 186 51
169 190 36
166 187 51
168 189 62
171 191 44
164 185 67
162 182 51
161 182 51
162 183 44
158 180 36
162 184 25
160 182 67
157 179 36
159 180 44
150 173 36
158 180 51
156 178 51
158 179 51
159 180 36
154 175 57
155 176 51
158 179 51
163 184 57
166 185 76
160 181 44
156 177 25
161 181 36
152 173 36
157 180 25
153 174 36
152 173 36
158 179 57
158 179 25
154 175 25
152 173 0
148 169 25
152 174 0
151 172 0
144 166 0
143 164 0
149 171 0
141 162 0
143 164 0
154 175 0
138 159 0
135 157 0
137 157 0
136 157 0
138 158 0
144 165 0
148 168 0
150 171 0
153 174 0
138 159 0
146 167 0
148 168 0
149 170 0
170 192 0
164 187 0
157 180 0
158 181 0
168 190 0
164 187 0
156 179 0
164 188 0
162 184 0
163 187 0
166 189 0
154 177 0
159 182 0
158 181 0
161 184 0
155 178 0
161 184 0
154 177 0
155 178 0
160 183 0
160 183 0
155 176 0
160 183 0
161 184 0
155 177 0
163 186 0
156 179 0
148 171 0
153 175 0
161 184 0
147 169 31
76 101 82
54 86 86
51 82 78
51 82 76
52 83 82
54 85 94
54 86 84
55 87 92
53 84 90
51 82 88
55 88 105
52 83 88
54 86 100
53 84 92
53 85 100
53 84 92
54 87 90
56 88 110
54 86 92
55 87 94
54 87 88
55 88 110
55 87 88
54 85 95
53 85 95
54 86 90
55 87 94
54 85 90
53 83 100
54 86 100
53 84 94
52 82 87
56 88 103
54 85 86
53 84 97
53 85 92
55 87 103
57 90 102
55 87 105
53 85 97
55 88 102
52 83 92
55 87 92
53 83 86
52 84 76
55 87 107
53 84 90
55 87 97
54 85 92
54 85 95
55 87 103
55 87 99
55 86 97
55 87 105
53 84 97
53 84 96
54 85 94
54 86 96
53 83 90
55 87 101
54 84 87
52 82 77
49 77 79
52 82 90
53 84 87
53 83 95
51 80 86
54 85 108
52 82 94
52 81 78
49 76 81
51 79 79
49 76 72
74 96 70
139 160 32
152 171 0
151 170 0
160 180 0
152 172 0
148 167 0
152 171 0
155 174 0
151 168 0
152 171 0
157 178 0
155 174 0
148 165 0
150 167 0
153 172 0
157 174 0
158 175 0
153 171 0
160 180 0
160 179 0
157 174 0
162 181 0
152 170 0
156 173 0
156 172 0
152 170 0
165 182 0
163 182 0
160 177 0
157 174 25
178 187 154
176 181 165
164 166 148
161 164 142
155 158 138
139 142 120
152 153 128
160 163 147
154 156 138
156 157 134
147 149 125
157 160 140
149 151 128
141 142 105
148 149 120
139 139 109
141 141 102
143 144 115
152 153 128
147 147 112
143 143 109
141 142 107
151 152 120
141 142 99
134 134 97
144 142 96
144 144 106
150 149 101
147 146 97
149 147 90
146 145 98
138 135 71
149 147 92
138 137 82
150 150 102
152 150 103
151 151 101
158 158 104
151 149 93
150 146 77
145 142 55
151 148 80
138 136 61
155 153 94
151 150 96
153 151 89
150 146 83
153 149 81
148 146 84
151 147 79
154 152 94
158 155 84
163 160 95
151 146 60
153 149 77
159 154 89
158 152 72
159 156 78
165 163 110
158 155 89
154 151 85
160 155 78
160 158 93
162 160 99
159 154 82
166 164 101
159 157 97
166 162 106
161 154 96
165 161 98
162 159 98
158 154 73
158 154 66
170 167 112
163 159 93
157 153 81
168 164 96
168 165 106
168 165 103
167 162 101
161 157 88
167 164 95
165 162 93
162 158 84
162 158 81
166 162 92
168 163 94
160 158 97
164 161 95
164 161 94
166 163 101
167 163 101
174 174 124
177 176 131
171 168 112
169 166 106
177 175 119
173 173 124
174 171 120
168 165 99
172 170 117
175 174 127
172 169 106
171 170 116
169 166 103
173 171 117
164 161 97
168 165 101
171 169 120
173 170 107
176 174 121
169 164 99
174 172 118
177 175 123
179 177 131
177 174 125
175 170 116
178 178 132
175 173 121
179 178 133
178 174 120
180 178 130
179 177 130
176 175 132
177 176 126
180 179 139
184 184 150
176 174 122
183 181 136
181 179 134
185 185 149
175 174 125
183 182 146
170 194 0
171 195 0
171 195 0
173 196 0
173 196 0
173 196 0
172 195 0
172 195 0
175 198 0
174 197 0
174 197 0
169 192 0
171 195 0
173 197 0
173 197 0
174 197 0
172 195 0
175 198 0
172 195 0
172 195 0
175 198 0
173 196 0
170 193 0
170 194 0
171 194 0
172 195 0
168 191 0
170 194 0
170 193 0
172 195 25
173 196 0
175 197 25
175 197 25
176 199 44
173 196 25
172 196 36
174 196 25
174 196 0
173 195 25
175 198 0
174 197 25
176 198 36
175 196 36
175 197 36
175 197 0
173 195 25
176 198 25
174 196 25
176 197 44
178 199 67
177 198 67
177 199 51
176 197 51
179 200 57
178 199 67
177 198 36
180 200 62
179 200 62
177 197 51
177 198 62
176 196 57
177 198 62
175 196 51
175 196 44
172 192 44
173 194 25
173 194 57
173 194 57
172 193 44
171 192 44
172 192 62
168 189 25
167 187 36
172 192 67
167 188 36
166 187 57
165 187 36
166 187 51
167 188 57
165 186 51
166 188 62
158 179 51
158 179 36
160 181 62
161 183 25
154 177 57
156 178 36
158 178 44
155 177 57
154 176 44
159 179 62
156 178 57
160 181 36
159 182 67
161 182 44
154 176 44
155 176 57
155 176 0
159 181 25
153 173 0
162 183 36
154 174 51
161 180 57
156 177 25
150 171 51
149 170 0
152 173 44
151 172 0
153 174 44
147 167 0
148 169 0
156 177 0
137 158 0
143 163 0
147 168 0
142 162 0
143 165 0
144 166 0
147 167 0
140 160 0
139 159 0
136 158 0
139 160 0
139 160 0
143 163 0
136 157 0
144 165 0
155 176 0
150 171 0
153 173 0
150 170 0
160 181 0
163 187 0
159 183 0
160 182 0
163 185 0
162 184 0
158 181 0
168 190 0
160 184 0
160 183 0
160 183 0
164 187 0
156 179 0
157 180 0
162 185 0
160 183 0
158 181 0
155 178 0
155 178 0
159 181 0
160 182 0
155 176 0
154 176 0
153 175 0
158 180 0
148 170 0
155 178 0
145 168 0
150 173 0
152 175 0
151 172 0
152 174 0
148 170 0
74 99 67
54 85 80
51 82 62
52 83 70
53 85 84
51 81 86
53 84 87
54 85 100
53 84 94
52 83 94
55 88 90
54 85 95
53 84 97
54 86 86
56 89 100
53 85 86
54 85 94
52 82 86
54 86 100
57 90 107
56 89 102
54 86 90
55 88 103
52 83 90
56 88 103
54 85 92
54 86 97
56 88 107
54 86 82
53 84 97
54 86 92
56 89 110
54 85 99
55 87 102
54 86 90
55 87 102
53 84 99
55 87 103
54 86 88
54 86 103
55 86 94
55 86 99
55 86 100
55 87 103
54 85 102
54 86 103
53 83 97
52 83 78
53 84 94
55 87 84
55 87 111
52 83 90
56 88 113
55 86 90
51 81 95
54 85 107
53 83 85
50 80 82
50 78 82
54 85 98
53 83 91
52 82 92
54 84 101
53 85 92
51 79 66
51 80 75
54 84 104
49 77 85
49 77 77
52 82 79
50 78 70
62 85 68
126 144 36
147 166 0
152 171 0
145 164 0
140 159 0
144 163 0
147 166 0
148 166 0
153 173 0
154 173 0
155 175 0
151 170 0
154 174 0
148 163 0
153 172 0
146 165 0
152 169 0
151 169 0
150 165 0
148 166 0
156 174 0
153 171 0
153 170 0
154 171 0
154 172 0
153 168 0
160 176 0
152 169 0
159 177 0
158 174 0
161 179 0
159 175 0
171 178 130
176 179 170
183 186 172
164 167 154
172 176 166
157 160 145
168 172 157
156 157 132
162 165 149
146 148 117
145 146 120
152 152 123
148 149 126
143 146 128
140 140 105
147 148 109
139 140 109
144 144 106
155 158 135
148 147 114
151 149 102
160 161 129
140 140 107
139 137 94
138 137 86
150 150 107
140 138 89
136 136 77
149 148 96
152 152 103
145 143 97
148 145 93
138 137 77
150 147 92
161 162 120
160 160 113
157 155 109
164 162 102
156 155 100
151 148 86
150 146 72
150 149 87
156 154 97
148 147 82
148 146 71
160 157 95
157 156 100
154 153 94
155 152 101
149 147 84
158 156 96
160 158 104
150 148 77
156 153 90
164 162 101
157 154 87
153 153 96
164 161 98
164 160 99
164 162 102
160 158 95
165 162 101
163 161 97
159 156 97
163 160 97
167 165 116
171 169 113
163 160 90
162 159 100
162 156 80
163 159 90
159 154 74
159 154 76
161 156 80
167 166 110
168 167 117
170 168 113
168 164 104
162 159 91
165 162 92
160 156 92
168 164 93
168 167 114
169 167 115
169 167 104
166 163 93
164 162 98
173 171 117
165 161 87
166 163 95
168 163 93
172 171 122
170 169 113
167 165 93
171 169 120
169 167 112
177 176 124
168 164 98
166 162 95
170 168 109
177 178 136
170 167 104
170 166 109
167 164 100
172 169 118
174 171 120
169 165 103
177 175 126
172 170 112
171 169 108
173 171 122
172 169 106
171 169 111
173 170 118
179 177 130
178 174 125
176 176 132
181 180 137
179 178 135
175 175 129
181 181 140
182 182 143
176 174 127
175 173 117
182 180 141
175 173 120
176 173 122
181 180 139
183 184 149
185 186 150
185 186 152
183 183 142
173 196 0
172 195 0
173 196 0
173 196 0
172 196 0
169 193 0
171 195 0
172 196 0
174 197 0
175 197 0
171 195 0
174 197 0
171 194 0
173 197 0
173 196 0
173 196 0
174 197 0
174 197 0
171 195 0
172 196 0
174 196 0
172 195 0
172 195 0
170 194 0
172 195 0
171 195 0
171 194 0
171 194 0
174 197 0
168 191 0
172 195 0
170 193 25
173 196 0
174 197 36
174 196 36
174 196 51
174 197 36
175 198 57
174 196 0
177 199 57
177 199 51
173 195 36
177 199 36
177 199 62
174 196 25
176 198 44
175 197 0
173 195 25
175 196 0
173 196 25
169 191 25
172 194 36
173 195 44
177 198 51
180 200 88
177 198 62
179 199 67
177 198 51
178 198 72
176 197 36
179 199 62
177 197 36
174 194 44
173 194 36
173 194 57
177 197 67
176 196 62
171 192 57
171 192 51
166 187 36
170 190 44
173 193 62
168 189 51
168 189 36
168 189 57
166 188 51
164 185 36
162 182 44
164 185 57
166 186 67
164 185 62
158 180 44
162 184 51
163 185 51
157 180 36
159 181 67
160 181 51
159 181 62
161 182 72
156 177 72
156 176 67
158 179 62
153 174 44
156 176 25
153 174 25
153 174 0
154 176 36
158 179 0
164 184 62
156 177 25
160 180 44
152 172 25
160 181 44
151 172 44
160 181 36
157 176 36
148 170 0
153 175 0
155 176 0
143 164 0
144 166 0
149 170 0
144 166 0
151 172 0
140 161 0
154 175 0
154 175 0
145 166 0
143 164 0
141 162 0
147 167 0
143 164 0
148 168 0
146 165 0
148 170 0
137 158 0
152 172 0
151 172 0
152 173 0
152 172 0
156 178 0
163 186 0
166 188 0
165 188 0
161 183 0
161 184 0
157 179 0
164 186 0
161 184 0
157 180 0
162 184 0
155 178 0
157 179 0
159 182 0
156 180 0
159 181 0
164 186 0
153 176 0
155 178 0
148 171 0
151 173 0
156 178 0
153 175 0
154 177 0
156 178 0
152 174 0
151 174 0
145 168 0
152 174 0
145 167 0
150 172 0
140 163 0
137 159 0
149 172 0
139 161 18
89 114 54
51 81 76
50 80 64
51 81 82
51 82 84
51 81 86
53 85 84
55 87 92
51 81 82
51 81 74
52 83 84
54 85 94
54 85 88
53 85 86
51 82 84
54 86 86
54 86 102
53 84 80
51 81 88
54 86 108
54 86 97
52 83 94
55 87 99
56 89 99
56 89 107
54 86 88
54 86 88
54 86 99
52 84 97
55 86 97
55 87 95
55 87 97
54 86 88
53 83 84
54 85 94
54 85 82
52 84 85
55 86 114
56 87 100
55 86 95
55 87 94
54 85 102
52 83 86
53 84 97
53 84 97
54 85 92
54 86 88
54 85 102
54 84 103
50 81 74
53 84 96
55 87 95
55 86 107
53 83 80
52 82 89
50 79 87
55 86 87
52 82 89
52 82 90
53 83 81
51 80 82
53 84 94
53 83 97
52 82 89
50 78 83
49 78 68
51 80 85
50 78 70
50 78 76
73 95 58
136 153 0
147 167 0
139 157 0
136 156 0
134 151 0
154 173 0
146 165 0
145 164 0
149 168 0
144 162 0
148 167 0
144 162 0
146 164 0
144 161 0
144 160 0
144 164 0
147 165 0
149 165 0
153 171 0
150 168 0
154 171 0
152 170 0
152 168 0
143 157 0
148 164 0
146 160 0
155 173 0
155 173 0
153 169 0
161 178 0
160 175 0
154 169 0
155 172 0
158 175 0
170 180 115
178 181 166
167 169 152
181 185 175
161 164 143
170 173 156
165 168 147
153 155 135
149 151 128
156 159 143
146 148 125
151 152 123
148 150 122
156 156 120
147 147 108
153 154 130
155 156 128
155 155 122
155 155 125
147 148 109
149 150 109
150 148 96
149 151 126
145 145 105
144 144 108
135 133 86
131 129 73
143 143 93
150 149 92
156 155 110
141 140 86
152 151 101
152 150 93
153 152 100
150 151 107
152 150 101
150 148 91
154 152 87
154 154 107
148 145 82
157 153 91
146 143 75
157 155 94
147 144 84
156 155 102
156 153 88
152 150 92
157 154 90
157 156 99
158 157 100
153 148 64
157 153 87
159 156 90
159 157 97
156 154 87
158 154 82
157 155 95
163 161 95
153 151 91
160 158 99
159 156 95
166 165 117
160 159 108
168 166 105
164 161 95
161 156 84
167 164 104
167 164 109
159 156 96
160 157 89
160 157 89
158 155 79
156 153 79
164 162 104
158 156 92
159 154 75
160 157 87
168 166 114
165 163 101
169 165 104
168 165 99
162 159 89
167 165 109
175 175 124
170 169 113
169 165 103
165 162 95
172 171 122
173 171 113
169 166 106
167 164 101
170 168 120
171 170 120
171 167 106
168 165 104
177 177 132
165 161 101
169 166 104
168 165 108
170 167 115
163 159 89
172 168 110
171 169 116
175 173 122
173 170 112
171 167 106
165 163 97
171 167 105
178 174 121
183 181 135
172 172 121
173 172 122
178 178 133
175 174 127
174 171 120
167 165 104
173 171 119
170 166 101
176 174 129
178 175 123
168 165 103
181 178 134
180 179 132
183 182 139
182 182 143
178 177 127
178 176 124
184 183 146
179 177 128
182 182 149
183 183 142
174 197 0
172 195 0
172 195 0
173 197 0
175 198 0
173 197 0
173 196 0
174 197 0
172 195 0
173 197 0
172 194 0
171 194 0
173 196 0
173 196 0
172 195 0
169 192 0
171 194 0
173 196 0
173 197 0
172 194 0
171 193 0
170 193 0
170 194 0
172 195 0
173 196 0
169 192 0
174 197 0
173 196 0
168 192 0
170 193 0
173 196 0
172 195 0
173 196 0
173 196 0
174 197 0
175 197 25
174 196 25
174 196 44
170 193 36
176 198 51
174 197 0
174 195 44
175 197 25
174 196 44
177 199 36
175 197 25
176 197 25
174 195 25
175 196 25
174 196 36
175 196 0
175 196 36
174 196 25
173 194 0
174 195 0
175 196 36
176 197 25
172 194 51
174 196 44
175 195 44
177 198 72
177 197 62
174 194 36
175 195 80
174 194 76
173 193 62
173 193 62
171 192 67
167 188 44
171 191 57
168 189 0
171 193 57
170 191 44
168 188 44
171 191 62
167 188 57
165 186 62
169 190 57
161 181 44
160 181 67
164 185 62
163 183 57
161 182 62
158 179 44
162 183 67
161 181 44
160 182 36
156 177 25
155 176 25
157 178 25
154 174 44
149 171 25
155 177 0
154 176 36
157 178 36
164 185 44
150 171 25
155 176 36
158 179 51
159 179 44
148 169 25
152 172 36
151 171 0
153 174 36
152 174 0
146 166 0
149 170 0
152 174 0
138 159 0
155 177 0
150 172 0
155 176 0
147 167 0
147 168 0
155 177 0
152 172 0
145 166 0
151 171 0
152 173 0
150 171 0
143 163 0
146 167 0
152 172 0
152 172 0
147 167 0
154 174 0
149 169 0
155 175 0
156 178 0
163 185 0
158 180 0
163 185 0
165 188 0
166 189 0
160 182 0
154 176 0
157 180 0
152 174 0
164 186 0
165 187 0
153 176 0
160 183 0
160 182 0
161 184 0
158 180 0
157 179 0
153 175 0
156 178 0
155 177 0
159 181 0
143 166 0
149 171 0
140 162 0
155 176 0
156 178 0
148 171 0
149 170 0
148 169 0
148 170 0
142 165 0
147 168 0
150 172 0
144 166 0
148 170 0
149 170 0
142 163 0
88 112 60
52 83 74
53 84 90
51 81 74
53 83 86
52 82 78
52 82 82
53 84 88
52 83 82
56 88 103
53 84 82
52 83 82
53 85 88
52 84 82
52 83 80
49 79 76
56 88 102
52 83 70
55 87 111
50 80 80
52 83 92
55 87 99
56 88 110
54 85 90
55 87 95
54 85 84
52 84 88
55 87 97
56 89 90
54 85 92
53 85 88
55 87 90
54 85 103
53 84 94
55 86 88
52 83 84
54 86 90
53 84 102
54 85 97
55 87 99
53 84 84
52 83 88
55 87 99
54 85 102
52 82 80
52 82 72
54 84 101
54 86 105
55 87 97
55 86 99
51 81 74
50 79 90
54 85 96
52 82 83
53 83 94
52 81 86
53 84 95
52 81 82
51 81 91
47 73 79
51 81 83
50 79 63
52 83 90
49 77 72
47 74 72
48 76 72
48 76 68
82 101 47
137 153 0
138 155 0
124 142 0
131 148 0
139 156 0
146 163 0
141 157 0
135 151 0
139 156 0
145 161 0
135 153 0
140 157 0
149 167 0
150 169 0
146 162 0
149 167 0
154 171 0
138 154 0
145 159 0
147 166 0
157 175 0
151 166 0
152 167 0
147 163 0
151 166 0
153 171 0
152 166 0
145 161 0
151 167 0
154 169 0
160 178 0
153 170 0
150 166 0
156 174 0
157 174 0
157 173 0
168 176 96
178 181 159
172 175 161
164 166 148
178 181 168
157 161 145
154 155 134
152 155 137
167 170 158
144 144 115
147 149 125
148 149 123
164 166 140
147 148 124
147 148 120
151 152 120
154 156 128
140 141 108
145 143 105
153 154 125
145 144 109
147 145 92
149 148 108
147 147 111
142 141 99
156 155 111
150 149 111
145 144 96
146 144 101
151 149 93
156 155 112
151 151 109
151 151 104
160 160 113
155 152 90
155 155 115
156 155 106
155 152 90
147 147 99
158 155 98
168 166 117
152 148 80
152 149 90
159 160 107
157 156 106
149 147 90
153 151 90
151 146 75
151 148 87
156 153 89
161 159 99
163 161 98
154 150 82
151 147 71
160 156 92
157 155 84
151 147 51
155 151 69
163 161 98
159 155 83
161 159 101
160 159 109
156 154 79
160 156 84
162 159 93
163 159 88
167 166 113
162 159 95
163 162 106
175 172 123
160 157 94
163 161 95
169 167 112
159 155 90
166 164 108
168 164 98
164 161 101
176 173 123
165 162 96
159 155 82
162 160 99
159 154 80
167 164 112
171 169 116
174 172 123
172 170 116
169 165 103
168 166 110
169 166 108
166 163 100
177 178 133
162 158 90
175 173 126
170 168 116
170 169 118
166 164 109
175 174 129
172 168 109
173 170 117
174 174 122
174 173 127
178 176 125
176 173 121
171 170 112
172 168 108
173 172 126
173 170 115
174 173 119
170 166 108
175 174 123
178 176 128
179 179 136
180 179 134
173 170 116
176 173 124
179 178 130
178 178 132
179 177 134
179 177 128
177 176 127
175 173 121
181 181 138
178 176 127
181 181 141
175 173 122
181 182 146
185 184 149
182 182 142
181 181 137
184 185 146
174 198 0
172 196 0
172 196 0
173 197 0
173 196 0
174 197 0
172 196 0
172 195 0
176 199 0
172 196 0
173 197 0
172 196 0
171 193 0
172 195 0
173 196 0
174 197 0
172 196 0
172 195 0
171 194 0
173 196 0
173 196 0
169 193 0
168 192 0
172 194 0
172 196 0
171 194 0
171 195 0
173 195 0
168 192 0
168 192 0
171 194 0
174 197 0
172 195 0
169 193 0
170 193 0
170 193 0
170 193 0
171 194 0
174 196 51
175 198 36
173 195 25
177 199 44
173 195 25
173 195 44
174 196 36
173 195 36
173 195 36
173 194 36
177 198 25
173 195 36
176 197 36
174 196 51
173 195 36
175 197 44
174 195 25
171 192 25
174 195 0
172 193 0
173 194 25
174 195 25
174 195 0
175 196 44
174 194 36
173 195 25
174 194 44
174 194 57
174 194 57
173 194 57
170 190 57
176 196 62
170 190 67
168 190 36
173 193 62
173 192 62
169 189 51
168 188 51
170 191 72
163 184 51
166 187 44
161 181 51
167 188 57
158 178 44
158 180 25
160 183 57
160 182 0
160 182 36
158 178 0
155 178 0
157 179 0
162 183 44
160 181 0
160 181 25
161 182 44
164 185 57
166 185 44
155 176 44
152 173 0
156 176 25
159 180 44
147 168 0
150 171 25
155 177 36
156 178 0
153 174 0
160 182 0
153 175 0
152 172 0
153 175 0
157 178 0
149 169 0
163 184 0
152 174 0
150 171 0
146 167 0
149 170 0
149 170 0
144 164 0
139 160 0
151 172 0
143 161 0
156 176 0
148 170 0
156 177 0
151 170 0
141 162 0
153 173 0
149 170 0
152 173 0
153 176 0
162 185 0
166 188 0
163 186 0
157 179 0
159 181 0
153 175 0
163 185 0
167 190 0
155 178 0
159 181 0
159 180 0
162 184 0
153 174 0
156 179 0
151 173 0
157 180 0
151 172 0
156 178 0
152 174 0
159 182 0
149 171 0
159 181 0
150 172 0
146 167 0
151 172 0
154 176 0
151 173 0
140 162 0
150 172 0
153 175 0
145 167 0
150 171 0
142 164 0
137 157 0
152 173 0
137 159 0
138 159 0
132 152 0
97 118 44
51 81 80
50 79 67
49 79 78
51 81 67
50 80 80
52 82 76
52 83 84
49 79 74
53 84 84
53 85 88
53 85 88
50 81 78
54 85 90
52 82 82
55 87 102
52 82 88
53 85 88
51 81 92
54 86 92
54 86 100
51 81 86
51 82 99
54 86 105
54 86 99
50 79 74
53 84 99
54 85 82
55 86 100
52 83 94
51 81 84
55 87 90
55 87 102
54 86 90
56 88 102
54 86 97
54 85 94
54 85 95
55 87 99
52 83 94
52 83 88
55 87 105
54 85 99
53 85 95
52 81 83
53 83 90
54 85 95
53 84 93
51 81 88
52 82 84
53 83 88
55 86 90
54 85 103
51 80 79
50 79 62
51 80 99
52 81 78
48 76 77
51 81 87
50 79 83
49 78 76
50 78 87
46 74 70
48 75 65
47 74 65
85 103 51
127 142 0
137 155 0
137 152 0
133 150 0
139 157 0
138 156 0
136 150 0
139 158 0
137 153 0
134 150 0
137 154 0
144 158 0
144 161 0
150 166 0
145 163 0
143 161 0
145 161 0
144 159 0
145 162 0
143 158 0
140 154 0
145 161 0
140 155 0
149 163 0
145 160 0
147 162 0
146 161 0
150 166 0
150 162 0
147 162 0
146 161 0
148 163 0
149 163 0
148 160 0
148 160 0
153 167 0
151 163 0
152 166 0
163 174 82
181 185 169
175 179 169
178 183 177
164 166 147
179 182 171
151 155 138
162 164 148
167 170 154
158 159 140
154 156 133
160 160 135
149 149 120
156 157 135
154 155 125
147 146 108
144 144 105
149 148 114
145 144 108
150 150 114
142 143 105
163 164 133
148 149 115
152 151 111
154 155 108
154 154 105
142 142 88
148 146 97
149 148 100
146 145 95
151 149 101
150 148 97
142 140 87
151 150 106
150 147 86
153 151 104
155 155 114
154 153 103
150 148 103
153 151 100
148 146 90
153 151 90
149 147 84
160 158 113
148 145 82
156 152 87
152 149 81
161 160 117
152 149 80
153 149 93
157 154 92
162 159 108
165 164 111
158 157 91
162 160 102
159 157 100
159 154 88
157 155 101
161 158 101
161 158 92
158 156 97
161 160 103
158 157 92
156 154 91
159 154 87
159 156 81
164 161 103
162 161 103
160 157 96
167 163 93
167 165 112
170 167 106
163 160 99
170 167 110
158 152 75
167 165 115
167 161 91
169 167 118
159 156 83
161 157 87
172 170 116
166 165 109
165 162 96
163 161 101
161 155 80
164 161 101
167 166 109
176 175 127
170 165 106
168 167 111
170 167 121
171 170 117
176 173 118
170 167 117
174 171 122
171 170 116
172 168 106
175 173 120
169 166 104
175 173 117
175 172 121
183 183 146
175 175 131
184 184 149
166 164 103
170 167 110
172 171 115
174 172 124
171 169 109
179 178 131
174 172 122
183 183 142
187 188 156
176 175 133
180 180 141
184 184 150
177 176 130
179 178 129
175 173 124
181 180 138
176 174 124
182 183 146
177 175 124
182 181 139
184 185 147
179 179 131
184 185 149
180 179 142
183 182 149
174 196 0
172 195 0
175 197 0
173 197 0
172 196 0
172 196 0
173 197 0
174 197 0
173 196 0
173 196 0
173 195 0
172 195 0
176 198 0
173 197 0
173 196 0
170 193 0
171 193 0
171 194 0
172 195 0
169 192 0
173 197 0
173 196 0
174 196 0
174 196 0
174 197 0
172 195 0
169 192 0
171 193 0
167 191 0
174 197 0
170 192 0
170 193 0
170 193 0
172 195 0
170 193 0
168 190 0
169 191 0
171 194 0
170 193 0
173 195 25
178 199 44
173 195 36
174 196 36
178 200 51
177 198 51
176 197 51
176 198 44
176 198 36
175 196 57
172 194 25
174 195 51
177 199 57
173 195 25
175 196 44
176 197 44
172 193 25
174 194 36
174 194 44
173 194 36
174 195 36
173 194 0
173 194 25
172 192 25
169 191 0
174 195 25
170 192 36
173 194 25
169 190 0
170 190 0
169 190 25
165 187 25
166 186 0
165 186 36
162 183 0
160 180 0
163 183 0
164 185 0
166 188 0
163 184 0
165 186 36
165 185 0
161 182 36
161 183 25
164 186 44
161 182 36
163 185 0
165 186 51
159 180 44
157 177 25
160 181 44
162 183 36
165 187 0
160 181 36
161 182 44
153 174 0
159 181 51
157 177 0
160 180 25
158 181 0
154 175 0
156 178 0
156 177 0
153 173 0
150 172 0
155 176 0
159 181 0
147 167 0
153 175 0
149 171 0
153 175 0
142 163 0
148 169 0
152 173 0
153 174 0
139 159 0
158 178 0
147 169 0
140 161 0
146 168 0
146 166 0
135 155 0
142 163 0
148 168 0
153 174 0
157 177 0
151 172 0
155 177 0
163 184 0
162 183 0
159 180 0
161 183 0
158 179 0
154 175 0
155 176 0
159 180 0
161 183 0
156 178 0
160 181 0
154 176 0
155 178 0
151 173 0
153 174 0
158 180 0
160 181 0
155 176 0
150 171 0
156 178 0
150 172 0
153 174 0
147 170 0
152 174 0
150 172 0
149 169 0
144 167 0
149 169 0
147 168 0
139 161 0
150 171 0
139 161 0
150 172 0
149 172 0
144 166 0
151 173 0
136 156 0
134 154 0
138 159 0
130 150 0
120 140 0
114 135 40
60 88 60
49 79 80
50 79 67
50 80 62
52 83 88
50 80 74
51 81 82
52 83 82
50 80 86
52 82 88
52 83 78
50 79 76
52 83 80
52 83 92
52 82 74
54 86 86
52 82 94
55 87 100
54 86 94
50 81 74
53 84 94
51 82 80
49 78 78
55 87 111
50 80 76
54 86 88
54 85 94
51 83 80
53 85 86
53 84 99
53 84 102
53 84 88
53 84 92
51 83 80
51 81 74
51 81 74
54 85 94
52 83 95
54 86 102
52 82 82
53 83 95
54 85 92
51 80 78
54 85 92
51 81 72
53 84 77
53 83 81
52 81 86
50 79 76
52 82 86
54 84 92
50 77 86
49 77 75
49 77 76
51 81 82
52 82 93
52 80 74
50 78 74
46 72 82
49 77 79
47 75 62
54 76 58
106 121 18
130 146 0
116 133 0
124 140 0
137 154 0
125 141 0
129 147 0
134 151 0
134 151 0
134 151 0
130 146 0
130 147 0
140 156 0
137 155 0
145 163 0
140 156 0
142 159 0
135 151 0
137 152 0
147 164 0
142 157 0
145 163 0
144 161 0
142 156 0
141 155 0
144 157 0
147 161 0
143 155 0
153 169 0
142 156 0
149 164 0
141 154 0
146 160 0
146 157 0
151 167 0
150 164 0
145 158 0
143 155 0
144 157 0
153 163 0
158 169 0
148 155 51
174 177 154
174 176 164
177 180 168
189 193 185
171 176 168
167 170 154
169 171 156
165 168 147
162 164 144
163 164 140
157 157 129
149 149 120
156 157 130
151 152 130
153 153 128
147 146 111
151 151 128
140 139 99
156 157 125
152 151 108
144 145 108
138 138 95
150 150 115
150 149 96
150 149 99
157 158 122
145 143 95
158 158 118
147 146 104
157 157 115
147 147 109
157 156 111
157 155 102
158 157 115
148 146 90
150 150 101
151 148 97
159 159 121
154 153 107
160 159 108
147 146 82
158 156 103
152 148 90
156 155 106
160 159 103
143 139 64
163 162 110
157 156 98
160 157 106
159 156 100
153 150 83
156 154 100
153 149 78
160 159 104
156 154 89
162 161 115
161 160 108
160 157 100
166 164 107
168 165 120
162 160 95
163 161 109
162 159 93
166 164 115
162 160 103
164 162 109
175 175 127
162 159 85
167 164 101
163 160 104
168 165 110
171 169 123
165 163 110
157 153 84
169 167 115
163 160 96
168 165 99
165 163 110
163 160 104
166 164 95
166 165 117
168 166 115
163 161 99
171 168 110
171 169 118
168 166 110
162 160 99
169 168 120
176 176 132
173 172 127
176 175 126
171 169 116
166 165 103
172 169 111
176 174 126
175 175 126
175 175 133
169 165 108
175 173 127
177 177 134
178 176 130
172 169 115
173 171 120
178 176 129
174 172 116
173 172 124
179 178 127
178 178 132
184 184 145
173 173 125
185 184 145
177 175 127
181 179 134
175 175 124
183 182 139
184 182 142
177 176 134
181 180 139
176 174 125
178 175 121
181 181 146
172 169 108
176 174 131
178 178 132
182 182 144
187 187 155
189 189 153
173 196 0
174 197 0
174 198 0
173 197 0
173 196 0
172 196 0
173 197 0
171 193 0
173 196 0
173 196 0
173 196 0
172 195 0
173 196 0
172 195 0
172 196 0
173 196 0
173 196 0
171 194 0
173 195 0
172 195 0
170 194 0
174 197 0
169 191 0
171 195 0
169 192 0
172 195 0
172 195 0
172 194 0
172 195 0
169 192 0
169 193 0
174 196 0
172 195 0
173 196 0
172 195 0
170 193 0
170 193 0
168 189 0
171 194 0
172 194 0
171 195 0
174 196 25
171 193 36
172 194 44
174 196 36
173 195 44
174 195 44
174 196 25
174 196 44
175 196 25
173 195 44
173 194 44
175 197 36
176 196 36
172 193 0
177 198 67
169 189 25
174 195 25
176 197 25
171 192 25
175 196 25
174 195 36
171 191 36
172 192 36
171 191 36
171 192 44
173 193 36
172 192 44
171 191 36
169 190 0
166 186 0
168 188 51
166 187 36
168 189 36
167 187 25
170 191 36
166 188 51
166 187 25
169 190 44
159 180 0
163 185 36
164 186 44
163 182 0
161 181 25
163 184 25
161 181 51
159 180 0
161 182 57
162 183 36
158 179 36
161 182 44
162 181 44
161 183 25
159 180 36
155 176 25
159 180 25
159 179 25
154 176 0
156 177 0
155 176 0
157 179 0
157 178 0
149 170 0
143 164 0
153 174 0
146 167 0
142 163 0
149 171 0
147 168 0
143 165 0
156 177 0
140 161 0
139 159 0
154 175 0
155 176 0
147 167 0
145 165 0
151 172 0
149 170 0
144 164 0
150 171 0
148 170 0
144 164 0
145 166 0
153 174 0
160 181 0
157 177 0
154 174 0
157 178 0
152 174 0
154 175 0
156 177 0
152 174 0
158 180 0
156 178 0
161 182 0
158 180 0
150 171 0
149 171 0
153 175 0
154 177 0
152 173 0
149 170 0
159 179 0
151 173 0
150 172 0
152 173 0
157 179 0
155 177 0
160 182 0
146 168 0
146 167 0
153 174 0
154 176 0
139 160 0
137 158 0
140 162 0
151 173 0
139 159 0
135 156 0
137 157 0
135 156 0
136 156 0
144 165 0
138 158 0
136 156 0
138 158 0
129 149 0
124 144 0
133 153 31
78 100 54
48 76 80
48 76 74
50 79 70
49 79 67
52 83 76
48 78 76
53 84 76
50 80 72
53 84 70
52 83 78
51 81 74
52 83 80
52 83 90
53 84 86
51 81 70
54 86 90
53 84 88
53 85 92
55 87 88
54 85 94
54 86 88
53 85 90
50 80 84
53 83 80
51 81 84
52 83 76
54 86 99
55 88 100
54 85 92
53 83 87
53 84 97
56 88 99
51 81 62
54 84 94
52 83 88
53 84 86
52 82 97
51 81 90
50 79 78
51 81 76
52 83 87
52 83 86
52 82 82
51 80 85
53 84 97
51 82 76
49 78 84
50 80 82
50 78 75
52 82 84
51 80 86
49 77 69
48 76 78
48 76 54
47 74 57
49 77 75
49 77 79
47 74 65
66 89 68
114 128 18
114 131 0
113 129 0
126 142 0
129 147 0
122 140 0
129 146 0
144 160 0
130 146 0
124 140 0
134 150 0
137 154 0
135 152 0
126 142 0
139 155 0
136 153 0
138 155 0
135 149 0
137 153 0
140 155 0
135 151 0
150 167 0
130 144 0
144 161 0
143 159 0
146 163 0
131 144 0
142 157 0
142 156 0
148 162 0
145 159 0
144 159 0
149 162 0
146 158 0
148 160 0
147 159 0
148 160 0
150 161 0
144 155 0
149 161 0
142 152 0
149 160 0
144 155 0
157 168 44
162 168 120
179 180 167
176 179 165
164 165 145
170 172 154
164 164 142
162 164 142
158 160 135
153 155 140
163 165 144
148 148 123
156 158 142
151 152 123
166 169 147
158 160 128
148 148 123
146 145 105
151 151 114
146 143 96
154 155 128
149 147 111
157 157 125
148 148 103
163 164 130
162 160 117
146 145 89
153 154 123
159 158 117
153 153 106
145 144 93
148 147 102
162 161 123
153 153 99
158 158 112
141 137 67
156 154 99
151 150 103
159 157 108
162 160 105
157 155 108
154 151 97
156 153 90
160 159 111
156 153 101
162 161 107
157 156 103
154 153 90
161 158 97
162 160 108
151 150 94
155 152 87
153 149 87
163 160 110
164 164 116
161 158 103
159 156 97
160 158 107
156 154 92
157 155 98
168 167 122
160 159 101
160 157 94
162 160 104
166 163 111
161 159 105
160 156 97
166 164 106
160 159 99
163 160 104
164 161 109
165 160 99
163 160 103
164 161 100
168 166 108
169 168 126
166 163 104
166 163 92
169 165 107
162 159 96
165 161 95
163 162 105
161 158 97
166 163 102
172 169 118
166 162 100
166 163 101
168 166 112
173 170 114
174 173 125
173 170 113
167 164 101
169 168 112
177 175 125
177 174 126
172 169 110
171 168 104
173 172 126
175 173 125
168 166 109
180 180 143
171 170 115
171 170 120
177 175 129
177 177 134
183 183 149
180 180 139
175 175 124
178 177 139
180 178 137
170 168 110
174 171 125
178 178 138
174 171 123
180 177 128
178 177 138
179 180 138
183 182 142
179 178 135
173 170 124
173 169 115
185 187 155
183 182 140
185 185 148
189 190 159
181 179 135
184 184 146
174 197 0
171 194 0
171 194 0
173 197 0
172 196 0
171 194 0
175 198 0
173 196 0
173 197 0
172 196 0
170 194 0
172 196 0
172 195 0
172 195 0
173 196 0
174 197 0
174 197 0
172 195 0
174 197 0
173 196 0
173 197 0
170 193 0
173 195 0
174 196 0
174 196 0
171 194 0
172 195 0
172 195 0
173 196 0
170 193 0
171 193 0
171 194 0
173 195 0
171 194 0
169 192 0
168 192 0
167 191 0
170 193 0
172 195 0
171 193 0
170 192 0
168 191 0
169 192 0
168 191 0
172 194 0
172 194 25
173 195 36
171 194 25
174 196 36
171 193 25
168 190 36
171 191 51
170 191 36
173 194 44
175 196 44
175 196 36
172 193 36
171 192 25
174 195 0
171 192 0
169 190 0
173 193 36
171 192 25
173 194 25
171 191 57
166 187 51
171 191 36
170 190 44
173 194 36
171 191 25
169 190 36
169 191 57
174 194 51
168 189 44
176 197 67
166 187 25
165 186 0
167 188 44
163 184 36
163 183 25
166 186 0
163 184 0
164 185 36
165 185 51
164 184 25
163 182 0
157 178 44
159 179 44
157 178 0
160 180 36
156 176 25
152 173 44
160 180 0
162 184 0
150 172 0
159 179 0
156 178 0
159 181 0
153 174 0
140 162 0
153 174 0
145 166 0
154 176 0
154 175 0
153 175 0
158 179 0
150 171 0
151 173 0
145 166 0
153 174 0
140 161 0
149 169 0
149 171 0
156 178 0
160 180 0
152 171 0
148 168 0
148 169 0
145 164 0
147 167 0
154 175 0
143 164 0
153 172 0
157 177 0
162 183 0
158 180 0
158 179 0
152 173 0
161 182 0
160 181 0
157 177 0
154 176 0
157 179 0
158 179 0
152 173 0
159 180 0
153 174 0
153 174 0
156 178 0
155 176 0
154 174 0
151 172 0
155 175 0
149 171 0
156 178 0
155 175 0
142 163 0
155 176 0
146 168 0
151 171 0
148 169 0
140 161 0
133 153 0
139 160 0
138 160 0
141 162 0
142 163 0
149 169 0
141 162 0
140 160 0
137 157 0
137 157 0
136 156 0
136 156 0
140 161 0
131 151 0
126 146 0
134 155 0
124 144 0
120 138 0
118 137 0
84 105 44
54 84 72
48 78 70
49 79 74
51 81 79
51 82 76
51 81 80
52 82 82
52 83 82
46 74 51
51 82 72
48 77 60
51 82 84
50 79 76
53 84 78
51 81 74
52 82 74
51 82 65
52 82 90
50 80 80
51 82 74
50 80 74
52 83 74
53 84 95
50 80 82
49 79 76
52 82 82
54 85 86
51 82 88
51 82 90
50 80 80
51 82 84
51 80 84
52 83 88
50 79 54
52 83 92
51 81 90
53 83 90
54 85 97
53 83 84
53 83 99
50 79 63
49 78 67
50 80 76
50 80 72
51 80 97
50 80 76
53 83 94
52 82 77
51 80 67
48 77 65
48 75 76
48 75 72
47 74 71
49 77 83
47 74 74
50 77 72
85 101 18
106 119 0
123 141 0
111 126 0
109 124 0
120 135 0
110 126 0
112 128 0
127 143 0
123 140 0
131 146 0
128 143 0
132 149 0
133 147 0
135 152 0
136 151 0
131 148 0
136 151 0
131 146 0
136 154 0
139 155 0
129 145 0
138 153 0
143 159 0
139 153 0
141 157 0
140 156 0
140 155 0
144 159 0
136 149 0
138 151 0
140 152 0
137 150 0
144 157 0
144 155 0
145 156 0
145 159 0
150 162 0
141 153 0
146 159 0
150 160 0
146 158 0
146 157 0
150 161 0
150 162 0
146 158 0
141 152 0
159 167 108
181 183 168
171 174 160
166 168 154
173 175 160
171 173 155
160 162 135
177 181 170
156 157 135
157 159 140
159 159 130
141 140 99
154 154 128
163 165 142
147 147 117
159 160 128
162 162 128
170 173 158
152 152 125
148 146 109
143 142 108
162 161 123
152 152 114
154 153 111
147 148 111
160 160 122
155 153 111
156 155 115
158 158 114
158 158 112
160 158 109
161 160 120
154 152 112
152 151 103
159 159 112
163 161 109
157 154 98
153 151 96
158 156 103
155 153 97
156 156 111
159 157 111
160 159 115
157 153 92
155 153 101
157 154 104
152 151 100
160 158 107
160 160 106
157 154 85
169 169 133
162 160 97
157 156 98
160 160 110
162 161 96
160 157 97
167 164 108
158 155 99
158 154 88
168 164 105
157 155 86
166 166 113
163 160 94
173 171 123
163 160 101
161 157 103
162 161 103
164 162 101
166 163 101
165 163 104
165 163 108
172 171 126
165 163 105
167 166 117
168 166 110
161 158 87
162 159 91
169 165 104
171 170 127
172 171 121
167 167 115
170 167 110
169 167 113
167 164 106
174 173 123
171 167 109
171 168 118
171 168 117
175 175 134
170 167 112
167 164 106
173 169 124
168 165 103
167 163 104
181 179 138
177 175 130
171 170 123
168 164 103
179 178 134
175 173 126
178 178 137
173 171 117
178 177 135
182 182 145
178 177 133
177 176 143
182 182 147
176 174 129
178 177 132
177 176 130
178 177 136
172 170 115
185 185 157
176 174 127
185 184 146
183 184 149
177 176 136
175 174 124
178 178 135
182 182 146
174 174 129
189 190 161
180 180 142
186 186 151
179 178 134
173 197 0
173 196 0
173 196 0
173 197 0
173 197 0
171 194 0
173 196 0
173 196 0
174 197 0
174 198 0
173 196 0
174 196 0
172 195 0
174 197 0
169 193 0
171 195 0
172 196 0
172 195 0
172 195 0
172 195 0
171 194 0
172 195 0
172 195 0
173 196 0
173 196 0
170 193 0
172 195 0
169 192 0
169 192 0
175 197 0
172 195 0
168 191 0
170 193 0
170 192 0
167 190 0
170 193 0
175 197 0
171 193 0
170 193 0
172 195 0
169 193 0
171 194 0
171 193 0
167 189 0
167 191 0
168 191 0
170 193 0
170 193 0
165 187 0
170 193 0
168 190 0
171 192 36
171 192 25
175 196 25
169 190 0
172 194 25
171 191 25
174 195 25
174 194 0
172 193 36
171 192 25
173 194 36
175 195 36
173 193 36
171 192 44
170 191 25
171 192 25
170 191 0
166 187 36
166 188 25
169 189 25
167 188 25
167 188 36
169 191 0
165 187 36
171 191 25
167 187 36
167 187 44
164 186 51
166 186 25
162 183 25
167 188 25
163 184 51
158 180 25
162 183 0
156 178 44
158 179 25
156 179 0
162 184 0
158 179 0
159 180 0
163 185 0
156 177 0
158 180 0
148 170 0
152 174 0
159 180 0
156 177 0
150 171 0
152 174 0
153 174 0
159 180 0
154 175 0
158 179 0
145 167 0
152 172 0
152 174 0
146 165 0
149 169 0
144 165 0
141 163 0
153 174 0
150 171 0
153 174 0
151 172 0
146 167 0
146 167 0
156 177 0
157 178 0
151 171 0
142 162 0
144 164 0
155 176 0
163 183 0
165 186 0
158 180 0
160 181 0
159 179 0
162 182 0
158 179 0
154 175 0
160 180 0
155 176 0
150 171 0
154 175 0
155 175 0
156 177 0
156 177 0
150 171 0
151 172 0
144 166 0
150 171 0
143 165 0
157 178 0
151 172 0
147 167 0
151 172 0
154 175 0
144 165 0
150 170 0
150 172 0
144 166 0
131 152 0
145 166 0
138 159 0
140 162 0
138 160 0
141 161 0
135 156 0
141 161 0
139 159 0
142 163 0
135 155 0
127 148 0
140 160 0
120 140 0
119 138 0
127 147 0
120 139 0
112 130 0
127 145 0
119 138 0
109 127 18
72 93 51
50 79 67
47 76 70
47 76 62
50 81 65
50 79 76
51 81 74
50 80 76
50 79 78
54 85 99
52 84 78
50 80 72
52 83 78
51 82 76
52 83 100
48 77 67
51 82 80
51 81 67
52 83 88
54 85 97
52 82 94
52 82 84
51 81 82
49 78 74
46 75 57
47 76 65
50 80 78
52 82 84
51 82 88
53 83 92
53 84 92
50 80 78
49 78 60
54 85 97
50 79 74
50 80 86
49 78 76
50 79 78
49 77 68
49 78 67
49 78 67
51 80 82
50 79 76
54 85 94
50 78 81
50 79 90
47 75 74
49 78 65
43 70 57
49 78 76
48 76 72
48 76 74
45 71 70
67 86 45
100 114 25
111 126 0
110 125 0
111 126 0
116 131 0
109 123 0
125 142 0
116 130 0
115 130 0
134 151 0
130 143 0
131 147 0
129 144 0
122 138 0
120 135 0
122 139 0
138 155 0
125 138 0
128 144 0
134 150 0
130 145 0
137 154 0
136 150 0
126 140 0
144 158 0
133 145 0
137 151 0
138 152 0
139 155 0
136 149 0
124 138 0
138 151 0
142 156 0
137 149 0
144 154 0
136 149 0
145 157 0
139 149 0
144 155 0
143 153 0
139 151 0
137 149 0
134 146 0
145 158 0
146 153 0
135 144 0
144 153 0
142 149 0
144 151 0
153 162 63
161 164 123
182 185 175
168 170 156
172 172 154
160 162 144
163 164 144
172 173 147
161 163 140
159 160 142
159 159 133
159 160 135
146 147 122
155 156 130
162 162 135
157 157 133
168 168 144
153 152 122
153 153 114
163 163 135
163 164 135
157 157 122
154 153 120
165 165 128
156 155 112
159 159 122
154 154 108
162 162 125
154 152 112
147 146 102
152 149 105
152 151 108
156 155 111
152 152 111
160 158 108
159 157 99
157 155 97
153 150 93
154 151 93
162 160 115
159 158 106
162 160 108
158 156 103
160 159 113
161 159 104
166 163 120
160 160 115
158 155 108
154 150 80
157 155 104
163 161 116
154 151 95
161 160 106
169 168 121
165 162 108
167 166 120
165 163 109
159 156 98
164 161 105
162 159 97
155 153 88
156 152 89
167 165 115
161 158 99
169 169 121
159 156 88
169 168 117
157 155 92
162 158 90
169 167 109
165 163 113
166 163 109
172 171 121
171 170 121
165 162 101
173 172 124
169 168 114
172 169 125
169 167 112
170 170 117
173 173 131
165 163 109
173 171 123
174 174 131
166 164 113
172 170 118
165 161 102
173 171 117
170 169 118
173 170 116
177 175 130
175 174 129
175 173 127
171 170 126
184 185 147
171 169 118
181 181 140
175 171 110
175 175 126
176 175 127
177 175 130
175 173 129
162 159 90
178 176 131
172 171 118
181 181 147
176 176 127
183 183 146
178 177 133
183 183 145
176 174 127
178 177 133
175 173 132
182 181 144
180 180 139
183 183 147
182 182 140
180 179 133
180 180 142
182 182 144
179 179 135
183 181 142
179 178 137
185 185 151
175 198 0
174 197 0
172 196 0
173 195 0
174 197 0
172 196 0
176 198 0
175 198 0
173 196 0
173 196 0
174 197 0
173 196 0
170 194 0
174 197 0
171 194 0
175 198 0
171 194 0
172 195 0
171 193 0
170 193 0
168 192 0
172 195 0
171 194 0
173 197 0
172 195 0
173 196 0
173 196 0
171 194 0
174 196 0
174 197 0
174 196 0
172 194 0
173 196 0
171 193 0
172 194 0
171 194 0
170 192 0
172 194 0
171 194 0
171 194 0
167 190 0
170 192 0
170 193 0
169 191 0
172 195 0
167 190 0
167 190 0
168 191 0
168 191 0
169 192 0
165 187 0
167 189 0
170 193 0
171 194 0
168 190 0
168 190 25
169 191 25
169 191 25
174 196 25
172 193 25
166 188 0
172 192 0
167 188 44
170 191 36
169 191 25
170 191 25
165 186 0
171 191 0
167 188 0
167 189 44
167 187 0
168 189 0
169 190 44
165 186 25
165 185 25
170 191 25
165 187 0
169 190 25
164 184 0
168 189 25
156 177 25
158 178 36
162 183 36
158 180 0
156 177 0
165 186 0
161 184 0
157 179 0
158 180 0
160 182 0
159 180 0
157 178 0
153 173 0
160 181 0
159 180 0
163 184 0
161 184 0
160 181 0
157 178 0
163 183 0
160 181 0
154 175 0
149 170 0
156 177 0
149 170 0
149 168 0
157 178 0
158 179 0
161 182 0
145 166 0
153 173 0
148 168 0
148 169 0
151 171 0
144 165 0
146 167 0
154 174 0
155 175 0
155 175 0
151 172 0
156 177 0
161 181 0
160 182 0
160 181 0
161 183 0
155 175 0
162 183 0
159 180 0
153 174 0
156 176 0
147 168 0
151 171 0
144 164 0
159 180 0
147 168 0
151 172 0
150 171 0
150 171 0
148 169 0
146 167 0
150 172 0
149 169 0
143 163 0
152 173 0
143 163 0
150 171 0
148 169 0
147 167 0
155 175 0
147 168 0
148 169 0
147 169 0
142 163 0
139 159 0
134 155 0
130 151 0
142 163 0
134 154 0
133 153 0
138 158 0
133 154 0
127 147 0
131 150 0
127 147 0
131 150 0
134 154 0
127 145 0
122 141 0
127 146 0
121 140 0
116 134 0
119 137 0
115 132 0
103 120 0
97 117 36
63 87 74
50 79 78
48 77 67
50 79 76
45 73 51
52 83 86
49 79 86
48 77 65
49 79 70
52 83 84
51 81 76
51 81 100
51 82 80
54 85 97
50 79 84
50 80 72
49 78 76
48 76 65
53 84 88
51 80 84
48 77 74
50 79 80
51 82 78
49 78 76
52 82 78
50 79 76
50 79 88
48 77 88
50 80 76
49 78 75
46 73 67
50 80 82
50 79 94
50 80 70
52 81 86
51 80 67
48 77 86
50 80 85
49 78 78
48 76 76
49 78 76
44 71 70
47 74 67
46 74 67
48 76 65
47 74 67
49 78 80
47 74 77
46 72 65
62 84 67
80 95 31
101 114 0
96 110 0
108 122 0
104 118 0
117 132 0
117 132 0
112 125 0
120 134 0
110 125 0
120 136 0
123 138 0
117 133 0
114 130 0
117 134 0
117 132 0
118 135 0
115 129 0
123 135 0
125 141 0
129 144 0
133 152 0
121 135 0
137 151 0
128 140 0
131 146 0
128 141 0
130 146 0
120 130 0
134 148 0
139 153 0
145 158 0
134 147 0
128 139 0
137 149 0
128 142 0
140 151 0
132 142 0
149 161 0
135 145 0
130 141 0
144 156 0
135 146 0
134 143 0
145 156 0
140 149 0
140 149 0
138 148 0
139 148 0
130 138 0
145 153 0
144 152 0
149 156 0
160 165 106
169 171 154
174 175 155
171 175 168
174 177 164
171 173 158
157 159 135
169 169 153
152 153 133
155 155 133
171 173 151
154 152 125
160 161 135
137 135 102
161 162 135
157 156 128
154 156 135
144 143 108
156 156 120
142 141 99
160 160 128
161 161 133
151 149 105
149 148 108
157 156 120
157 157 117
163 164 130
150 147 103
156 154 106
156 154 108
153 152 106
156 153 95
155 155 105
159 157 106
157 156 109
157 156 103
164 162 123
161 160 116
159 157 109
162 162 120
155 152 103
149 147 95
160 159 109
158 154 92
159 157 103
166 163 113
163 161 109
158 156 106
167 165 116
160 157 106
166 163 115
165 165 122
159 157 106
162 161 103
161 159 102
157 154 97
158 155 95
161 159 99
172 171 121
168 166 120
161 161 112
167 166 113
161 159 92
161 158 97
162 160 95
164 160 104
173 171 122
163 160 99
156 153 91
175 175 131
170 168 120
166 165 104
173 172 127
168 166 112
170 168 113
166 164 109
162 159 101
171 171 122
170 169 120
170 168 115
170 167 110
175 173 127
169 168 125
167 163 103
166 165 115
174 174 127
166 163 106
168 166 111
175 175 137
170 167 109
175 176 132
172 171 118
174 172 118
179 179 141
175 173 126
178 177 136
175 174 130
181 180 144
167 164 116
181 181 146
173 170 118
176 175 138
174 172 123
179 179 138
174 170 120
179 179 138
174 170 120
177 176 132
181 180 145
182 181 143
176 174 128
179 178 132
185 186 151
181 181 138
187 188 155
188 190 160
179 179 135
177 177 134
192 193 168
184 185 153
183 182 142
183 182 145
174 196 0
175 198 0
175 197 0
173 196 0
174 197 0
172 196 0
172 195 0
173 197 0
173 196 0
173 196 0
172 195 0
172 194 0
173 196 0
171 194 0
174 196 0
174 197 0
172 195 0
174 197 0
173 196 0
174 196 0
173 196 0
171 195 0
173 196 0
170 193 0
173 196 0
171 195 0
171 194 0
173 196 0
172 194 0
173 195 0
170 193 0
172 195 0
165 188 0
173 196 0
171 194 0
166 189 0
172 194 0
170 193 0
171 193 0
169 193 0
165 187 0
168 190 0
170 193 0
169 192 0
169 191 0
170 192 0
171 194 0
171 193 0
172 194 0
171 194 0
168 191 0
169 192 0
170 193 0
169 192 0
169 192 0
164 187 0
163 186 0
167 189 0
163 185 0
165 187 0
168 191 0
165 187 0
163 186 0
167 189 0
168 191 0
165 187 25
167 189 25
163 185 0
165 187 0
167 189 0
166 188 25
161 182 0
165 186 0
166 188 0
166 188 0
164 185 0
164 186 0
160 182 0
161 183 0
163 185 0
163 185 0
159 181 0
158 180 0
158 180 0
153 174 0
155 177 0
159 180 0
160 182 0
164 186 0
158 179 0
158 179 0
151 172 0
158 179 0
156 177 0
151 171 0
154 175 0
154 176 0
155 175 0
163 184 0
158 180 0
155 176 0
151 172 0
163 185 0
148 169 0
155 176 0
147 168 0
156 177 0
155 176 0
148 168 0
143 164 0
145 165 0
152 172 0
146 167 0
152 172 0
144 165 0
153 173 0
149 170 0
152 173 0
157 177 0
157 177 0
156 175 0
158 179 0
155 177 0
157 177 0
156 176 0
156 178 0
157 177 0
156 177 0
155 176 0
153 174 0
153 174 0
157 179 0
156 175 0
156 176 0
154 174 0
147 168 0
150 171 0
156 177 0
155 176 0
147 168 0
140 161 0
146 166 0
151 171 0
149 171 0
147 168 0
146 167 0
147 168 0
142 162 0
147 168 0
133 154 0
138 159 0
140 160 0
137 157 0
131 152 0
144 164 0
147 168 0
139 159 0
131 152 0
131 152 0
130 151 0
141 161 0
120 140 0
123 142 0
127 146 0
107 125 0
122 142 0
122 141 0
114 133 0
123 143 0
120 138 0
119 136 0
107 125 0
111 129 0
97 113 0
110 126 0
104 122 0
75 94 40
45 70 44
43 69 57
48 77 72
50 80 57
46 74 60
48 77 57
50 79 82
50 80 76
51 81 74
50 79 84
47 75 76
50 79 70
49 79 65
47 75 82
45 73 74
53 84 90
49 78 57
50 79 90
50 79 86
50 79 88
53 84 86
51 81 84
49 78 70
48 77 80
51 81 92
50 80 82
48 77 78
49 78 70
48 77 62
50 79 74
51 82 78
48 77 80
47 75 85
49 79 76
46 73 70
46 74 60
51 81 82
46 73 60
47 75 72
42 68 62
46 74 65
45 72 60
44 70 67
44 68 62
45 71 63
50 73 61
85 101 36
86 99 0
97 109 0
107 118 0
103 116 0
94 108 0
94 105 0
111 122 0
108 121 0
110 125 0
105 121 0
118 134 0
125 138 0
127 141 0
117 132 0
114 130 0
122 137 0
126 141 0
122 137 0
118 132 0
125 141 0
130 147 0
124 137 0
128 142 0
128 144 0
115 129 0
126 140 0
133 146 0
125 139 0
131 145 0
134 148 0
132 145 0
138 149 0
138 152 0
136 148 0
138 152 0
131 143 0
130 142 0
132 145 0
137 148 0
137 146 0
132 144 0
133 142 0
133 143 0
134 141 0
130 138 0
140 151 0
132 140 0
132 139 0
140 148 0
137 144 0
136 145 0
150 162 0
140 148 0
141 149 0
136 139 0
152 159 99
169 170 151
182 185 172
163 164 145
167 168 151
173 175 164
169 171 154
161 162 145
153 154 133
168 170 153
155 153 125
155 155 133
164 164 142
166 168 144
155 155 128
152 151 120
158 158 135
153 149 122
165 165 133
156 157 135
147 145 102
156 155 122
155 155 120
158 156 122
160 160 120
153 151 111
158 157 114
148 146 95
154 152 105
158 158 125
148 145 99
158 157 112
152 149 96
154 152 109
153 150 88
166 166 128
157 156 109
151 149 92
148 147 93
157 154 96
161 161 120
156 153 97
156 154 103
156 155 103
161 158 104
161 159 108
161 158 109
156 154 94
159 157 109
155 153 96
161 162 112
156 153 98
155 153 86
154 151 90
161 160 100
162 159 108
164 162 118
157 153 84
158 154 87
161 158 103
162 160 109
167 164 107
161 160 110
165 163 113
167 166 121
171 170 125
172 170 118
162 160 105
166 164 111
169 168 116
173 172 127
167 166 119
168 168 116
171 169 125
168 164 108
170 169 115
174 173 125
169 166 119
171 169 115
175 174 132
171 171 125
172 170 118
169 169 118
171 170 119
162 158 100
179 178 138
173 171 124
176 173 123
170 169 124
167 164 106
175 174 129
168 165 109
168 167 113
179 179 137
174 173 127
172 170 118
182 181 139
174 173 132
176 173 122
187 188 156
170 168 113
175 174 133
180 180 145
181 180 147
174 170 120
177 177 134
186 186 154
182 180 137
170 168 115
173 172 130
181 180 142
176 177 135
181 180 142
185 187 151
181 181 146
180 179 140
186 187 154
191 192 166
187 187 156
184 183 144
182 182 142
174 197 0
170 194 0
176 198 0
175 197 0
175 197 0
173 197 0
175 198 0
173 196 0
174 197 0
175 198 0
175 198 0
172 195 0
173 196 0
174 197 0
173 196 0
172 195 0
170 194 0
175 197 0
173 195 0
174 196 0
170 193 0
172 194 0
172 195 0
171 194 0
171 194 0
173 195 0
169 191 0
173 196 0
170 193 0
170 193 0
171 194 0
168 191 0
171 194 0
173 195 0
174 196 0
171 194 0
170 193 0
170 192 0
172 195 0
166 188 0
171 193 0
172 194 0
173 195 0
164 186 0
169 191 0
169 192 0
170 192 0
166 189 0
172 194 0
166 189 0
168 191 0
167 188 0
171 193 0
170 193 0
168 190 0
167 189 0
170 192 0
162 183 0
167 190 0
171 193 0
170 191 0
165 188 0
170 192 0
168 191 0
165 187 0
168 189 0
165 188 0
164 187 0
170 192 0
166 188 0
167 189 0
165 186 0
165 186 0
161 184 0
165 188 0
160 182 0
165 186 0
160 182 0
159 181 0
159 181 0
163 184 0
162 183 0
165 187 0
161 183 0
154 176 0
167 189 0
159 181 0
160 182 0
161 182 0
152 174 0
160 182 0
153 173 0
158 180 0
162 184 0
159 181 0
154 176 0
160 181 0
151 172 0
154 176 0
148 167 0
158 179 0
152 172 0
153 174 0
153 173 0
156 176 0
154 175 0
148 169 0
157 177 0
142 161 0
144 164 0
144 164 0
145 164 0
154 175 0
146 166 0
149 170 0
159 180 0
147 167 0
157 178 0
155 176 0
155 175 0
150 170 0
158 177 0
156 177 0
156 177 0
154 175 0
157 178 0
157 178 0
153 174 0
159 179 0
151 171 0
152 172 0
147 167 0
155 176 0
150 171 0
150 169 0
155 176 0
149 169 0
143 163 0
151 172 0
145 166 0
153 173 0
139 160 0
143 165 0
145 166 0
144 164 0
132 153 0
147 168 0
147 167 0
136 157 0
139 159 0
143 162 0
142 163 0
142 161 0
140 160 0
138 158 0
135 155 0
135 155 0
144 163 0
127 147 0
134 154 0
110 130 0
134 154 0
120 139 0
123 143 0
118 137 0
120 138 0
122 141 0
126 144 0
108 127 0
122 141 0
123 142 0
119 136 0
94 111 0
110 128 0
105 122 0
116 132 0
105 121 0
100 116 0
70 88 18
51 73 51
45 72 60
47 75 65
46 73 74
45 72 62
44 72 62
47 75 47
49 78 62
45 73 57
49 78 72
47 76 51
47 75 67
47 75 82
51 81 72
47 74 70
50 78 92
46 74 44
48 77 67
48 76 62
50 80 78
46 74 57
47 74 76
50 79 88
49 79 60
47 75 76
50 79 82
48 76 65
50 79 76
46 74 70
43 70 62
45 73 60
49 78 74
45 72 62
45 72 62
46 74 70
48 76 60
46 73 72
43 69 72
46 72 62
46 73 62
47 74 77
52 72 63
67 82 25
79 90 0
82 91 0
82 95 0
102 114 0
100 114 0
99 112 0
104 116 0
93 106 0
112 126 0
107 121 0
111 124 0
109 121 0
107 120 0
119 133 0
122 136 0
105 119 0
114 127 0
124 139 0
123 136 0
123 137 0
126 141 0
117 131 0
121 132 0
133 149 0
130 146 0
130 144 0
120 136 0
128 140 0
120 134 0
130 143 0
137 150 0
134 148 0
130 143 0
133 143 0
137 150 0
138 150 0
141 155 0
131 144 0
138 150 0
137 148 0
137 150 0
133 145 0
132 143 0
129 140 0
141 150 0
135 147 0
135 146 0
133 140 0
134 143 0
136 145 0
134 143 0
135 142 0
137 144 0
131 137 0
129 137 0
138 143 0
144 150 0
136 140 0
139 145 0
166 173 128
184 187 174
176 178 162
166 166 145
170 172 154
173 174 159
169 169 149
169 172 159
160 161 144
171 173 160
161 162 142
158 157 133
157 157 128
162 162 135
168 170 149
159 161 140
155 156 128
152 150 117
165 165 130
175 176 151
160 161 130
165 166 130
157 156 123
157 157 122
153 151 99
160 159 114
155 152 99
157 155 111
162 162 130
153 151 108
157 156 109
162 159 112
161 160 117
158 158 117
162 163 123
158 157 108
163 163 125
153 152 100
158 156 102
158 156 105
160 159 117
162 162 125
168 165 121
164 161 121
163 161 117
161 159 112
167 166 129
158 154 101
159 156 96
160 158 109
160 158 103
161 159 115
157 156 99
160 156 88
161 161 110
173 171 127
165 163 109
161 160 112
165 162 107
164 161 112
170 170 132
167 166 120
165 164 106
168 167 114
164 162 107
169 168 127
165 163 108
167 167 123
169 166 118
167 166 118
172 171 130
163 162 113
170 168 118
167 164 112
169 167 117
177 176 136
168 166 109
169 168 114
173 171 121
161 159 103
166 163 101
178 178 137
182 179 136
179 178 135
171 168 124
170 167 115
172 170 121
175 173 125
171 169 120
176 176 130
176 175 126
175 173 134
173 172 122
175 174 131
172 170 116
181 180 139
177 178 138
174 174 128
178 178 134
168 166 112
180 180 144
180 179 137
182 182 151
189 190 163
177 176 135
184 186 153
181 180 136
185 186 161
188 190 163
179 178 138
182 182 141
188 188 158
181 180 137
187 188 159
183 184 146
182 181 142
186 187 157
191 193 166
184 183 144
174 196 0
175 198 0
174 197 0
172 196 0
175 198 0
173 196 0
174 197 0
173 195 0
173 197 0
173 196 0
170 193 0
171 195 0
172 195 0
172 194 0
176 198 0
174 197 0
174 197 0
171 194 0
174 196 0
173 196 0
173 196 0
173 196 0
171 194 0
171 194 0
171 194 0
171 193 0
170 194 0
170 192 0
173 196 0
173 195 0
171 194 0
173 195 0
172 195 0
172 195 0
171 194 0
172 194 0
172 194 0
169 191 0
168 191 0
172 195 0
172 195 0
173 195 0
169 191 0
170 192 0
167 189 0
166 189 0
169 192 0
171 193 0
170 192 0
171 192 0
166 188 0
172 194 0
169 192 0
170 193 0
165 188 0
164 186 0
168 191 0
166 188 0
169 191 0
165 188 0
163 186 0
168 190 0
165 186 0
160 182 0
165 187 0
165 187 0
166 188 0
161 183 0
165 187 0
174 196 0
166 189 0
166 188 0
159 181 0
169 191 0
163 185 0
164 187 0
166 187 0
166 187 0
164 186 0
158 180 0
154 175 0
167 189 0
161 182 0
168 187 0
166 188 0
157 179 0
162 184 0
164 185 0
155 176 0
155 176 0
151 173 0
156 178 0
162 183 0
164 185 0
157 178 0
154 175 0
160 181 0
161 182 0
154 175 0
155 176 0
155 175 0
162 182 0
154 175 0
154 176 0
160 181 0
154 173 0
152 172 0
153 173 0
150 171 0
149 169 0
152 172 0
147 168 0
151 172 0
157 177 0
150 170 0
144 165 0
150 172 0
149 170 0
152 173 0
160 181 0
146 168 0
153 173 0
161 182 0
158 179 0
153 173 0
155 174 0
158 178 0
149 170 0
151 171 0
144 164 0
149 170 0
156 177 0
151 170 0
148 170 0
150 171 0
150 170 0
143 164 0
139 159 0
148 168 0
151 171 0
137 158 0
143 164 0
151 171 0
139 160 0
146 167 0
149 169 0
142 163 0
136 157 0
142 162 0
143 164 0
133 154 0
146 166 0
145 165 0
136 156 0
139 158 0
133 154 0
141 163 0
136 156 0
131 151 0
136 156 0
130 150 0
117 136 0
127 146 0
134 153 0
114 133 0
124 142 0
104 121 0
123 143 0
108 127 0
120 138 0
110 128 0
105 123 0
114 131 0
100 117 0
108 125 0
99 115 0
103 118 0
106 122 0
88 102 0
74 89 0
81 97 36
64 85 62
43 69 62
43 70 62
44 71 65
45 73 62
46 73 54
46 74 74
47 76 78
48 77 67
44 70 54
43 69 72
46 74 67
47 75 74
48 78 65
47 74 80
45 73 70
48 76 84
50 80 78
48 77 60
46 74 72
45 72 78
48 77 70
49 79 72
48 77 76
46 73 78
46 75 70
47 75 74
48 76 84
46 73 72
49 78 82
50 79 88
49 77 70
45 71 60
46 74 62
47 75 65
44 70 54
40 64 47
57 75 41
63 74 0
70 83 0
92 103 0
78 87 0
85 97 0
95 106 0
97 108 0
86 97 0
97 112 0
94 106 0
98 110 0
95 108 0
93 106 0
106 118 0
105 118 0
110 124 0
117 132 0
103 116 0
115 130 0
120 136 0
124 139 0
116 128 0
123 136 0
117 130 0
127 142 0
127 143 0
118 134 0
134 149 0
112 126 0
122 137 0
133 146 0
129 145 0
134 148 0
126 139 0
135 148 0
125 138 0
137 152 0
135 147 0
129 142 0
128 140 0
135 148 0
137 149 0
138 148 0
126 138 0
131 142 0
134 147 0
132 143 0
139 151 0
129 137 0
127 136 0
137 145 0
133 144 0
130 137 0
134 143 0
142 151 0
129 136 0
139 147 0
131 139 0
137 143 0
143 149 0
136 141 0
133 136 0
137 143 0
147 152 81
161 165 138
172 174 158
182 185 177
166 166 147
174 176 163
177 179 167
172 171 153
154 154 130
165 165 142
150 150 128
163 163 133
166 166 140
161 160 133
177 179 161
168 166 140
155 155 122
165 165 130
164 164 140
169 169 144
153 152 117
160 160 128
168 168 142
155 154 111
161 160 128
161 161 133
158 156 108
144 142 95
154 152 102
161 160 128
166 165 137
167 166 128
162 159 117
161 158 108
154 152 105
158 158 120
157 155 111
156 152 95
167 166 120
155 152 99
157 155 99
163 161 118
162 160 114
160 159 115
157 155 103
164 162 114
157 153 106
164 162 116
165 164 113
160 157 103
163 161 112
158 156 103
161 159 104
165 165 121
164 163 121
169 168 126
159 157 96
170 170 131
162 160 104
168 168 124
165 161 107
169 168 122
168 166 119
174 173 128
171 170 126
172 172 130
162 158 111
173 173 131
166 163 110
170 168 117
178 176 134
169 167 115
171 167 108
173 171 127
177 177 135
173 173 128
173 171 131
168 165 104
171 170 117
170 166 105
170 168 116
167 165 112
173 172 126
171 169 120
169 166 117
168 166 115
170 168 118
172 170 124
174 173 130
177 176 133
180 180 144
168 166 110
179 177 134
174 173 127
176 174 127
179 180 140
179 178 135
187 188 160
175 174 122
184 185 154
178 177 130
180 178 135
175 172 123
177 174 125
177 176 134
180 181 144
178 178 140
179 178 146
183 184 154
178 178 136
188 188 156
182 183 146
177 174 126
189 190 156
186 187 157
184 184 154
192 194 169
177 175 126
174 197 0
173 196 0
172 195 0
175 197 0
175 197 0
174 196 0
175 198 0
174 197 0
174 197 0
172 195 0
175 198 0
174 197 0
174 197 0
172 193 0
173 196 0
173 196 0
175 198 0
173 195 0
174 196 0
175 198 0
172 195 0
175 197 0
175 198 0
174 197 0
173 196 0
173 195 0
174 196 0
174 197 0
172 195 0
169 191 0
169 191 0
168 191 0
172 195 0
171 194 0
170 193 0
173 195 0
175 197 0
171 193 0
172 194 0
167 190 0
172 194 0
171 193 0
171 194 0
169 192 0
169 191 0
171 193 0
167 189 0
167 190 0
172 195 0
169 190 0
172 194 0
166 189 0
165 188 0
167 190 0
168 189 0
167 189 0
166 188 0
168 189 0
168 190 0
166 188 0
164 186 0
166 188 0
164 186 0
162 183 0
163 185 0
167 189 0
165 186 0
166 187 0
168 189 0
163 183 0
162 185 0
170 191 0
168 190 0
168 190 0
158 179 0
164 186 0
162 183 0
163 184 0
165 186 0
164 186 0
162 184 0
163 184 0
161 182 0
162 184 0
152 174 0
160 180 0
157 177 0
160 182 0
161 183 0
156 177 0
157 178 0
157 178 0
156 177 0
160 180 0
159 180 0
152 173 0
153 174 0
142 163 0
156 177 0
155 176 0
158 178 0
149 169 0
155 175 0
149 170 0
159 178 0
157 177 0
152 173 0
154 174 0
149 170 0
153 173 0
146 167 0
152 173 0
150 172 0
149 171 0
147 167 0
145 165 0
152 174 0
146 166 0
151 172 0
156 177 0
162 181 0
154 173 0
154 176 0
152 172 0
145 165 0
147 166 0
156 176 0
142 163 0
151 171 0
151 171 0
156 178 0
148 168 0
152 172 0
142 163 0
146 167 0
146 167 0
136 156 0
144 164 0
146 166 0
143 164 0
144 165 0
142 162 0
145 166 0
151 172 0
145 166 0
137 157 0
145 165 0
135 155 0
141 161 0
141 161 0
145 166 0
130 149 0
135 155 0
146 166 0
132 152 0
139 159 0
139 158 0
133 153 0
131 150 0
130 148 0
114 133 0
138 158 0
122 141 0
123 142 0
115 135 0
120 139 0
112 130 0
109 127 0
119 137 0
116 134 0
111 128 0
98 115 0
101 117 0
102 119 0
114 130 0
116 132 0
90 105 0
110 125 0
94 109 0
74 88 0
85 99 0
94 107 0
76 89 18
77 91 40
58 75 36
42 67 47
43 69 62
46 74 54
45 72 47
44 71 67
45 72 70
45 72 62
46 74 65
43 68 57
46 73 67
44 70 62
47 75 60
45 72 74
47 75 70
44 70 65
47 74 70
50 79 82
45 72 70
46 74 74
46 74 62
44 71 62
46 73 67
41 66 51
43 69 67
47 75 67
44 70 65
43 69 54
43 69 65
43 69 62
40 64 51
49 65 36
61 72 44
80 91 25
72 80 0
79 91 0
88 101 0
83 95 0
86 98 0
96 109 0
97 109 0
109 121 0
89 101 0
92 104 0
97 109 0
105 119 0
109 122 0
100 114 0
117 131 0
115 129 0
92 105 0
109 123 0
114 129 0
107 121 0
126 141 0
108 122 0
112 124 0
111 123 0
130 145 0
129 143 0
118 132 0
115 129 0
128 142 0
123 138 0
115 127 0
135 149 0
122 136 0
129 144 0
136 148 0
138 154 0
132 146 0
121 134 0
131 144 0
123 134 0
129 143 0
133 145 0
132 145 0
126 136 0
134 142 0
126 139 0
128 137 0
134 146 0
133 142 0
125 136 0
128 137 0
130 136 0
131 141 0
128 137 0
138 148 0
122 129 0
134 140 0
135 142 0
133 143 0
132 135 0
135 141 0
135 142 0
135 141 0
125 126 0
139 147 0
135 139 0
152 154 105
175 177 160
181 183 174
166 165 147
162 161 140
172 175 165
166 166 151
170 170 151
165 166 144
165 165 144
168 168 147
168 170 153
159 156 111
158 157 135
161 161 137
164 165 142
159 158 128
166 166 142
158 157 133
157 156 117
161 159 125
163 162 130
158 156 122
164 164 137
168 169 140
157 155 117
163 164 128
154 151 95
170 168 133
154 153 111
161 159 120
157 153 105
163 161 120
150 149 108
161 159 105
157 154 108
168 168 137
170 170 130
170 170 133
154 153 105
167 165 117
168 166 128
169 168 126
165 163 118
169 168 131
163 163 114
163 161 110
160 157 112
170 167 122
165 163 118
159 157 108
173 172 129
156 154 94
156 155 106
168 167 124
166 164 117
168 168 123
173 173 133
164 162 117
165 162 97
164 162 113
167 166 115
163 160 104
170 168 121
170 168 118
165 162 104
166 163 113
169 165 103
176 176 135
166 164 109
173 170 129
173 172 127
169 167 116
170 168 124
174 172 135
173 172 128
170 168 124
172 171 130
171 169 118
171 169 118
172 170 123
170 167 120
181 180 141
167 165 107
178 176 135
181 181 145
168 164 110
176 176 137
176 175 134
178 177 137
173 171 121
172 171 126
181 182 143
174 174 135
182 182 147
180 180 139
175 175 123
175 175 134
177 176 133
179 178 143
175 173 129
185 186 157
179 179 142
179 178 137
180 179 135
180 179 140
182 181 142
180 179 138
177 175 130
181 181 142
179 181 145
179 177 133
182 183 151
182 180 144
178 176 126
190 191 164
174 197 0
172 196 0
175 197 0
175 198 0
176 198 0
174 197 0
176 198 0
175 196 0
173 196 0
175 198 0
173 197 0
174 196 0
173 196 0
171 194 0
173 196 0
173 195 0
176 197 0
174 197 0
171 194 0
173 196 0
169 192 0
172 194 0
172 195 0
170 194 0
170 192 0
172 195 0
175 197 0
170 192 0
171 194 0
174 196 0
172 195 0
168 191 0
173 196 0
170 192 0
172 195 0
173 196 0
170 192 0
166 189 0
173 196 0
168 192 0
170 192 0
170 192 0
166 189 0
169 191 0
170 192 0
168 190 0
171 194 0
166 189 0
168 190 0
170 192 0
172 193 0
171 191 0
165 187 0
172 194 0
166 189 0
169 191 0
172 193 0
168 191 0
166 187 0
165 187 0
166 189 0
168 189 0
167 189 0
169 191 0
173 194 0
163 185 0
171 193 0
169 190 0
167 189 0
162 184 0
161 182 0
165 186 0
158 180 0
159 180 0
167 189 0
168 189 0
169 190 0
167 189 0
169 190 0
157 178 0
161 181 0
162 183 0
167 188 0
158 179 0
161 181 0
158 179 0
160 181 0
158 179 0
162 184 0
165 186 0
155 176 0
158 178 0
164 185 0
158 179 0
159 179 0
163 184 0
157 177 0
164 184 0
149 170 0
155 176 0
154 175 0
148 169 0
152 173 0
151 173 0
155 174 0
153 174 0
156 176 0
146 167 0
150 170 0
156 176 0
152 172 0
144 165 0
150 170 0
154 175 0
157 178 0
156 178 0
153 173 0
155 177 0
153 173 0
154 175 0
147 168 0
154 174 0
151 172 0
147 168 0
155 174 0
146 166 0
158 178 0
140 162 0
150 170 0
149 170 0
158 179 0
147 168 0
139 160 0
142 162 0
150 170 0
145 166 0
150 171 0
139 160 0
145 164 0
145 167 0
148 167 0
144 164 0
140 160 0
148 167 0
142 162 0
136 157 0
139 159 0
147 167 0
140 161 0
135 155 0
149 170 0
134 155 0
142 162 0
140 160 0
134 153 0
135 155 0
135 155 0
129 149 0
138 158 0
137 157 0
126 145 0
127 146 0
126 145 0
121 139 0
105 125 0
117 134 0
112 130 0
105 122 0
107 126 0
121 137 0
109 126 0
113 131 0
109 125 0
106 122 0
109 125 0
95 111 0
99 114 0
91 106 0
95 110 0
97 110 0
77 90 0
95 109 0
78 90 0
73 85 0
98 111 0
73 85 0
52 67 18
65 79 40
35 56 51
39 64 51
39 64 54
45 72 54
44 70 44
45 72 57
43 68 65
46 73 57
41 66 57
41 68 54
47 74 62
45 72 60
41 66 54
43 68 65
44 71 54
42 68 62
46 74 57
43 69 44
43 69 54
45 71 72
43 69 47
37 59 40
42 64 40
46 65 40
52 67 31
70 82 40
62 72 0
75 84 0
62 71 0
63 75 0
82 92 0
78 89 0
79 90 0
92 101 0
80 91 0
82 94 0
88 100 0
87 102 0
85 97 0
99 113 0
102 114 0
105 117 0
100 113 0
106 119 0
115 129 0
105 117 0
114 128 0
117 131 0
113 127 0
127 142 0
121 137 0
117 132 0
112 125 0
113 124 0
114 126 0
127 140 0
114 128 0
127 142 0
127 141 0
128 142 0
126 139 0
116 129 0
129 141 0
122 134 0
128 140 0
130 143 0
128 140 0
125 137 0
122 136 0
135 151 0
129 142 0
121 134 0
125 137 0
133 143 0
129 141 0
126 139 0
133 147 0
137 141 0
126 137 0
126 136 0
133 142 0
130 139 0
136 145 0
130 140 0
134 146 0
131 139 0
135 141 0
138 146 0
131 137 0
127 132 0
125 129 0
128 133 0
130 134 0
135 141 0
131 136 0
130 133 0
134 137 0
140 144 0
156 157 114
178 180 163
166 165 147
170 171 153
161 162 144
166 165 144
173 173 160
170 171 157
178 180 161
163 163 140
163 161 135
162 163 144
158 160 140
156 154 120
165 165 144
171 172 147
157 159 130
154 151 111
171 172 149
164 164 137
152 151 120
160 158 120
164 162 125
160 159 125
159 156 114
162 160 125
162 162 135
161 159 114
156 154 108
163 162 125
157 156 114
165 163 117
158 156 120
158 154 106
168 167 122
160 158 111
153 150 93
163 160 121
158 156 109
162 161 120
161 159 115
164 162 114
167 167 130
162 160 110
159 157 106
167 165 120
158 155 99
157 154 100
161 158 107
168 168 129
167 166 123
162 158 104
164 163 112
169 169 131
170 170 125
164 159 106
161 157 95
162 161 113
162 159 103
170 168 126
168 167 120
167 165 117
165 161 114
179 179 142
165 162 104
172 172 126
158 156 108
168 166 113
171 168 122
174 172 122
172 170 121
174 173 130
171 167 119
177 177 139
176 175 134
174 171 123
177 177 135
174 175 130
178 176 136
171 168 115
174 173 123
171 168 120
172 170 130
179 179 142
174 172 133
168 167 112
170 168 118
177 176 137
180 179 140
177 175 131
175 174 132
175 173 120
178 176 138
177 176 136
186 187 155
184 185 154
181 181 147
178 177 137
183 183 150
179 178 133
190 190 161
180 179 144
177 176 138
174 174 133
185 186 152
183 182 146
186 186 151
183 182 144
192 194 171
183 183 147
189 189 165
182 182 142
180 180 140
192 194 169
174 197 0
174 197 0
173 196 0
174 196 0
175 198 0
173 196 0
173 196 0
175 197 0
173 196 0
174 197 0
172 195 0
172 195 0
173 195 0
174 197 0
170 193 0
174 196 0
171 194 0
174 196 0
174 197 0
173 195 0
173 196 0
174 197 0
174 196 0
174 196 0
173 195 0
171 194 0
172 195 0
171 193 0
173 194 0
170 193 0
173 196 0
174 196 0
167 189 0
171 194 0
169 192 0
174 196 0
169 192 0
171 194 0
172 194 0
172 195 0
170 192 0
169 191 0
170 192 0
167 189 0
168 190 0
169 191 0
169 190 0
173 195 0
168 190 0
170 191 0
168 191 0
167 189 0
166 188 0
168 190 0
176 197 0
168 190 0
168 190 0
169 191 0
171 192 0
167 189 0
166 188 0
172 193 0
167 188 0
170 192 0
165 187 0
168 190 0
169 189 0
167 189 0
170 191 0
166 187 0
159 181 0
164 186 0
159 179 0
167 189 0
164 185 0
160 180 0
158 179 0
166 187 0
159 180 0
163 185 0
161 183 0
165 186 0
163 184 0
168 188 0
164 185 0
160 181 0
156 177 0
162 182 0
164 185 0
163 184 0
156 177 0
160 179 0
157 178 0
155 174 0
160 181 0
157 177 0
163 183 0
157 177 0
156 176 0
155 175 0
156 176 0
150 169 0
152 172 0
165 186 0
142 162 0
152 172 0
154 173 0
156 177 0
143 164 0
151 171 0
144 165 0
149 170 0
157 177 0
159 180 0
149 169 0
150 171 0
151 171 0
153 174 0
147 167 0
152 172 0
157 177 0
154 175 0
149 169 0
156 176 0
151 171 0
145 167 0
148 168 0
150 171 0
153 175 0
145 166 0
143 164 0
152 172 0
148 169 0
152 172 0
150 171 0
152 172 0
149 171 0
139 160 0
145 165 0
128 149 0
144 165 0
152 173 0
148 170 0
148 169 0
147 168 0
141 161 0
148 168 0
136 156 0
139 159 0
137 157 0
142 162 0
137 157 0
134 154 0
137 157 0
140 160 0
136 156 0
128 147 0
129 149 0
137 156 0
134 155 0
130 149 0
122 141 0
122 142 0
115 134 0
131 149 0
125 143 0
109 127 0
119 137 0
108 125 0
104 121 0
114 133 0
109 127 0
108 125 0
110 126 0
109 126 0
108 123 0
105 119 0
98 113 0
82 96 0
92 107 0
76 89 0
82 96 0
79 93 0
75 88 0
84 97 0
78 91 0
71 84 0
68 78 0
62 73 0
53 62 0
51 63 25
66 79 36
51 69 40
61 78 47
46 65 44
42 63 44
40 61 47
38 61 54
43 68 72
41 67 47
39 62 44
40 65 57
39 63 44
40 64 60
40 64 60
38 61 54
43 63 51
43 57 36
36 50 36
50 60 18
68 77 0
76 87 0
59 68 0
56 64 0
65 76 0
80 91 0
69 79 0
83 96 0
75 87 0
84 94 0
89 100 0
79 90 0
83 95 0
90 102 0
92 105 0
102 116 0
93 105 0
97 111 0
97 110 0
107 120 0
111 124 0
108 121 0
108 120 0
111 125 0
111 126 0
115 130 0
114 129 0
114 129 0
111 125 0
131 146 0
125 138 0
111 125 0
119 131 0
116 130 0
127 143 0
126 142 0
125 139 0
129 143 0
114 129 0
122 135 0
125 139 0
131 141 0
123 138 0
128 139 0
132 146 0
128 140 0
121 135 0
130 144 0
124 138 0
122 134 0
133 145 0
131 143 0
131 143 0
127 141 0
127 139 0
124 135 0
136 145 0
132 141 0
130 139 0
132 141 0
132 142 0
129 139 0
125 131 0
125 131 0
132 140 0
124 132 0
140 148 0
133 138 0
131 135 0
122 127 0
121 122 0
122 127 0
126 131 0
131 134 0
130 134 0
123 126 0
132 133 0
124 124 25
146 145 103
172 174 165
159 159 142
174 176 165
163 163 149
179 180 167
164 163 137
160 158 133
169 170 157
172 172 153
178 179 162
157 155 125
156 155 133
162 160 130
154 155 133
164 162 133
177 178 159
165 163 133
163 162 122
153 152 122
164 160 120
157 155 125
173 174 147
174 174 144
175 175 149
165 162 120
174 173 142
163 161 117
162 161 117
172 173 144
156 153 105
168 167 135
157 153 108
163 161 122
159 156 109
164 162 128
171 170 140
163 159 115
168 168 133
169 169 130
165 164 131
166 164 117
168 167 133
158 153 101
165 163 116
169 166 125
173 171 130
165 162 107
164 161 116
158 156 103
160 158 103
159 156 102
160 156 100
164 160 113
167 165 123
169 168 118
175 174 131
160 158 107
163 160 107
170 170 130
168 165 112
164 160 104
172 171 135
177 176 134
172 170 125
173 172 126
169 168 122
163 161 118
172 172 129
173 171 133
172 168 115
169 166 113
174 173 125
164 163 117
172 169 123
175 173 130
168 164 107
176 176 138
165 163 111
179 180 140
179 179 136
170 168 118
172 169 124
176 175 135
180 179 142
174 174 130
176 175 138
177 174 122
177 177 137
185 186 155
177 177 139
177 176 134
183 181 144
180 180 149
184 184 152
178 176 140
187 188 158
186 187 160
184 183 151
186 188 161
175 174 130
189 189 158
188 189 161
183 183 147
179 177 133
191 192 166
188 189 159
191 193 169
184 184 151
186 186 154
186 187 157
189 191 165
175 197 0
173 197 0
174 198 0
175 197 0
172 196 0
175 198 0
176 198 0
173 196 0
174 196 0
173 195 0
173 196 0
174 197 0
173 196 0
173 195 0
175 197 0
175 198 0
173 195 0
174 197 0
172 194 0
172 194 0
173 195 0
174 196 0
174 197 0
172 194 0
174 195 0
172 196 0
170 193 0
173 195 0
172 194 0
172 193 0
172 194 0
173 195 0
171 193 0
172 194 0
172 195 0
172 194 0
171 193 0
170 192 0
169 191 0
171 193 0
173 195 0
172 195 0
168 190 0
170 191 0
172 194 0
173 194 0
172 193 0
172 195 0
169 191 0
170 192 0
172 194 0
168 188 0
170 191 0
171 193 0
172 193 0
171 192 0
169 191 0
170 192 0
170 192 0
163 184 0
168 190 0
171 193 0
166 188 0
162 184 0
170 191 0
169 191 0
162 184 0
161 183 0
170 191 0
166 186 0
162 183 0
162 183 0
157 179 0
169 190 0
165 185 0
171 191 0
163 185 0
164 185 0
165 186 0
165 187 0
164 185 0
162 183 0
160 181 0
162 184 0
163 184 0
165 186 0
162 183 0
158 179 0
168 190 0
155 177 0
153 172 0
156 176 0
160 181 0
154 174 0
152 174 0
160 180 0
153 173 0
155 174 0
156 176 0
162 181 0
156 176 0
154 174 0
152 173 0
157 176 0
158 179 0
148 168 0
151 171 0
150 171 0
158 179 0
152 172 0
153 174 0
149 170 0
148 169 0
149 170 0
150 170 0
149 170 0
143 164 0
146 168 0
142 162 0
152 172 0
145 165 0
141 161 0
156 176 0
154 173 0
144 166 0
158 179 0
144 164 0
141 162 0
150 170 0
140 161 0
137 158 0
146 166 0
149 169 0
143 163 0
153 173 0
137 157 0
148 168 0
152 173 0
148 169 0
151 171 0
133 154 0
149 171 0
142 163 0
133 154 0
143 164 0
135 156 0
145 165 0
131 152 0
145 165 0
141 161 0
147 166 0
139 159 0
128 148 0
129 149 0
139 160 0
135 155 0
129 149 0
124 144 0
136 156 0
132 151 0
130 149 0
138 159 0
131 150 0
123 143 0
120 140 0
120 138 0
113 131 0
112 130 0
119 136 0
115 133 0
122 141 0
113 131 0
106 124 0
104 121 0
106 124 0
112 129 0
99 115 0
92 108 0
94 109 0
104 120 0
88 101 0
82 96 0
84 97 0
82 95 0
81 94 0
77 91 0
61 72 0
79 92 0
75 87 0
71 81 0
75 85 0
62 73 0
66 76 0
73 83 0
58 68 0
57 66 0
54 65 0
49 57 0
46 55 0
59 69 0
37 45 0
43 50 0
51 59 0
55 64 0
43 52 0
66 77 0
55 62 0
56 63 0
53 62 0
49 60 0
76 84 0
80 90 0
85 95 0
57 66 0
57 68 0
78 87 0
72 83 0
75 84 0
85 95 0
82 93 0
82 93 0
89 103 0
81 91 0
100 112 0
92 103 0
91 103 0
87 99 0
108 122 0
109 122 0
111 124 0
111 124 0
115 128 0
102 113 0
110 122 0
116 129 0
117 131 0
125 138 0
118 133 0
119 132 0
115 126 0
123 137 0
120 134 0
119 131 0
123 136 0
132 144 0
122 135 0
115 130 0
125 140 0
118 133 0
124 136 0
121 134 0
132 146 0
119 132 0
126 138 0
127 140 0
133 146 0
124 137 0
126 137 0
135 150 0
127 139 0
129 141 0
128 140 0
132 145 0
131 142 0
127 134 0
129 141 0
125 136 0
129 140 0
123 132 0
126 134 0
125 137 0
129 137 0
130 136 0
122 131 0
132 140 0
134 141 0
133 142 0
132 137 0
131 138 0
122 130 0
124 126 0
133 138 0
131 137 0
128 131 0
126 131 0
139 145 0
131 135 0
118 119 0
116 117 0
135 136 44
154 154 114
170 170 147
171 172 157
174 175 164
169 170 151
172 173 159
169 168 145
170 171 153
173 172 149
169 169 149
160 160 133
174 174 155
156 154 125
170 170 149
164 162 133
163 163 142
159 158 128
170 169 142
162 159 128
162 161 122
167 166 135
167 167 140
159 157 114
163 162 130
162 161 128
159 156 115
167 165 133
163 162 122
162 160 111
165 163 117
163 160 122
172 172 142
161 159 111
168 168 137
166 166 129
173 173 140
168 167 131
172 173 135
150 146 95
161 160 120
158 154 106
169 168 127
171 169 136
167 163 109
163 160 120
173 172 137
168 167 120
169 168 127
166 164 119
169 166 121
171 170 126
176 175 143
170 170 134
164 162 114
169 168 129
176 177 145
159 156 100
173 173 130
170 167 125
172 170 129
167 165 112
174 172 130
166 164 116
163 161 115
175 175 141
171 169 122
172 169 126
169 168 122
175 175 139
166 165 120
175 174 134
167 165 112
175 175 138
172 170 121
178 177 137
172 170 119
183 184 150
173 172 131
176 174 131
179 178 142
184 184 149
182 182 150
174 171 127
177 176 133
181 182 147
177 175 134
186 188 160
178 176 133
178 177 139
180 178 138
182 182 152
181 180 138
179 179 139
178 177 140
186 186 153
184 183 150
187 188 159
179 179 143
188 190 165
184 183 154
180 178 131
181 182 151
187 187 154
191 193 168
190 192 165
189 189 163
189 189 160
192 194 170
180 179 138
186 187 156
173 196 0
173 196 0
173 195 0
175 197 0
175 198 0
176 198 0
173 195 0
173 196 0
173 196 0
172 195 0
173 196 0
173 196 0
175 197 0
175 197 0
172 194 0
175 198 0
175 197 0
172 194 0
173 195 0
174 196 0
174 196 0
171 193 0
175 197 0
173 195 0
172 195 0
176 197 0
172 194 0
172 195 0
172 194 0
172 194 0
170 192 0
172 194 0
171 193 0
171 193 0
171 193 0
174 196 0
170 192 0
173 196 0
173 195 0
169 191 0
169 191 0
167 190 0
169 190 0
171 193 0
168 189 0
166 188 0
169 191 0
171 193 0
169 190 0
170 192 0
170 192 0
168 190 0
171 192 0
169 191 0
172 194 0
163 185 0
165 187 0
169 190 0
171 193 0
174 195 0
168 190 0
167 189 0
169 191 0
162 183 0
164 186 0
169 190 0
162 184 0
164 186 0
168 189 0
164 185 0
170 191 0
165 186 0
166 187 0
160 181 0
166 187 0
165 185 0
167 189 0
159 180 0
168 190 0
163 184 0
162 183 0
159 179 0
162 183 0
162 183 0
168 190 0
162 183 0
164 185 0
165 186 0
155 175 0
158 179 0
160 180 0
154 174 0
158 179 0
159 180 0
155 176 0
156 175 0
158 177 0
160 180 0
150 170 0
153 174 0
156 177 0
158 178 0
156 176 0
153 173 0
156 178 0
151 171 0
151 171 0
154 175 0
158 178 0
152 172 0
153 174 0
155 175 0
155 175 0
151 171 0
149 170 0
156 176 0
157 177 0
150 170 0
156 177 0
149 170 0
155 176 0
151 172 0
144 164 0
151 172 0
145 165 0
144 164 0
143 162 0
150 171 0
151 172 0
150 170 0
141 162 0
153 174 0
147 167 0
148 168 0
145 166 0
143 164 0
144 164 0
138 159 0
141 161 0
135 155 0
144 164 0
144 165 0
142 163 0
147 168 0
151 172 0
144 165 0
137 157 0
141 162 0
141 161 0
140 161 0
136 155 0
135 155 0
146 166 0
127 148 0
142 163 0
130 150 0
130 149 0
136 156 0
123 142 0
120 139 0
128 148 0
122 143 0
125 143 0
123 142 0
120 139 0
120 139 0
120 138 0
121 139 0
112 130 0
127 145 0
113 130 0
106 123 0
112 128 0
112 130 0
98 114 0
106 124 0
107 124 0
102 119 0
89 104 0
95 110 0
92 108 0
83 96 0
97 110 0
86 101 0
85 97 0
85 99 0
82 96 0
75 89 0
74 86 0
90 102 0
74 86 0
68 79 0
63 76 0
78 90 0
64 74 0
70 81 0
58 70 0
68 77 0
59 68 0
54 64 0
57 67 0
82 93 0
70 82 0
71 82 0
70 79 0
68 78 0
68 77 0
70 79 0
75 86 0
70 80 0
78 88 0
67 78 0
81 93 0
100 111 0
77 88 0
77 87 0
75 88 0
90 104 0
74 86 0
85 94 0
82 93 0
95 106 0
99 112 0
93 107 0
84 95 0
90 103 0
101 113 0
107 121 0
85 98 0
89 104 0
109 121 0
97 110 0
107 121 0
104 116 0
103 119 0
110 124 0
107 118 0
113 126 0
97 110 0
112 127 0
123 138 0
125 141 0
120 130 0
127 139 0
127 141 0
125 139 0
110 125 0
126 141 0
122 137 0
116 128 0
124 137 0
118 134 0
124 137 0
118 131 0
121 133 0
127 138 0
123 137 0
119 130 0
125 137 0
127 138 0
132 143 0
126 139 0
126 136 0
135 147 0
131 144 0
136 144 0
125 132 0
128 135 0
135 146 0
128 140 0
130 139 0
128 140 0
135 147 0
126 135 0
123 131 0
136 145 0
130 136 0
133 142 0
140 149 0
130 137 0
126 131 0
125 127 0
117 120 0
126 130 0
131 134 0
133 139 0
124 126 0
129 130 0
123 129 0
125 127 0
126 128 0
124 122 51
155 156 120
179 179 160
171 172 164
172 173 158
166 165 147
167 166 147
173 174 157
159 157 135
167 167 142
168 169 149
167 167 144
174 174 151
162 160 130
166 164 135
166 165 142
168 167 140
169 169 147
164 163 140
168 168 137
168 166 140
165 163 130
172 174 151
174 173 149
154 152 114
159 155 120
165 163 130
164 163 120
162 161 128
164 163 128
172 171 138
166 165 125
163 160 111
166 164 125
170 170 140
171 171 140
170 170 140
169 169 135
158 154 105
165 163 125
165 164 129
168 165 123
166 165 115
172 171 135
165 163 123
161 159 111
165 161 109
167 165 114
163 161 109
160 158 120
172 170 125
165 164 120
167 165 120
168 165 115
170 170 132
174 174 141
174 171 134
176 173 129
168 166 119
169 167 121
181 180 147
176 174 136
177 178 142
179 180 148
171 170 122
173 173 138
175 173 134
167 164 113
172 169 122
179 179 148
175 174 134
175 173 126
166 163 109
180 179 151
177 174 133
174 172 132
175 175 143
174 175 135
181 181 144
174 172 124
172 170 123
183 183 151
179 179 142
177 175 134
186 186 157
184 184 154
179 178 146
180 180 140
178 177 133
182 183 151
188 189 158
176 173 137
182 181 145
184 185 154
186 185 155
183 184 152
184 185 159
185 185 157
187 188 160
176 175 133
188 189 163
188 189 161
192 194 169
185 186 155
188 190 162
186 186 155
189 190 163
190 190 165
184 182 146
173 196 0
176 198 0
173 197 0
174 196 0
174 197 0
175 197 0
175 198 0
174 196 0
173 196 0
175 197 0
174 196 0
172 195 0
174 196 0
176 197 0
174 196 0
174 196 0
174 196 0
173 195 0
172 195 0
171 193 0
174 196 0
173 195 0
173 194 0
174 197 0
171 194 0
175 197 0
172 195 0
172 194 0
171 193 0
171 192 0
174 196 0
172 194 0
174 195 0
174 197 0
171 194 0
172 195 0
170 192 0
172 194 0
172 193 0
175 197 0
172 194 0
165 187 0
170 192 0
172 194 0
168 190 0
175 198 0
172 193 0
172 193 0
170 192 0
170 191 0
168 190 0
170 192 0
168 189 0
167 189 0
171 193 0
167 188 0
166 187 0
171 193 0
163 184 0
166 186 0
165 187 0
167 188 0
170 191 0
170 192 0
166 187 0
164 185 0
165 186 0
167 189 0
168 189 0
166 188 0
167 188 0
169 190 0
168 189 0
162 184 0
168 189 0
165 185 0
166 188 0
166 186 0
159 179 0
169 190 0
162 183 0
165 186 0
155 175 0
168 188 0
161 181 0
162 183 0
163 183 0
163 184 0
169 190 0
158 179 0
165 186 0
163 184 0
160 180 0
164 184 0
156 177 0
152 173 0
155 176 0
152 172 0
155 175 0
157 178 0
149 169 0
158 178 0
158 178 0
153 174 0
158 178 0
148 168 0
155 176 0
147 168 0
150 171 0
152 172 0
156 175 0
155 175 0
150 171 0
158 179 0
146 165 0
144 163 0
149 168 0
149 170 0
149 169 0
154 175 0
156 177 0
152 171 0
154 173 0
139 160 0
152 172 0
153 173 0
145 165 0
146 166 0
142 162 0
150 171 0
138 158 0
152 173 0
140 160 0
141 161 0
147 168 0
159 180 0
144 164 0
141 161 0
144 165 0
145 166 0
139 160 0
143 164 0
139 159 0
136 157 0
141 162 0
148 169 0
135 155 0
143 163 0
139 159 0
135 155 0
130 150 0
136 157 0
133 154 0
126 147 0
139 159 0
136 156 0
135 155 0
130 150 0
124 145 0
128 147 0
124 144 0
126 145 0
133 152 0
119 138 0
129 147 0
129 148 0
125 144 0
123 142 0
123 141 0
113 131 0
114 132 0
118 135 0
106 124 0
105 122 0
115 131 0
97 113 0
110 127 0
103 120 0
101 117 0
93 108 0
96 112 0
82 97 0
93 108 0
104 118 0
95 109 0
74 88 0
102 117 0
93 107 0
85 99 0
77 89 0
90 103 0
90 102 0
77 88 0
71 82 0
75 85 0
68 80 0
70 82 0
92 103 0
64 76 0
71 83 0
80 92 0
74 85 0
70 82 0
83 95 0
79 91 0
81 93 0
69 81 0
76 87 0
76 86 0
81 92 0
72 84 0
63 76 0
62 74 0
85 95 0
79 91 0
72 84 0
94 107 0
86 97 0
88 100 0
85 96 0
88 101 0
88 100 0
86 100 0
91 103 0
91 102 0
97 111 0
89 101 0
104 118 0
109 122 0
111 125 0
100 115 0
123 138 0
102 115 0
111 126 0
120 132 0
120 134 0
108 124 0
115 130 0
116 130 0
116 132 0
121 138 0
120 133 0
112 127 0
119 135 0
127 141 0
124 138 0
119 133 0
123 138 0
121 135 0
127 141 0
122 135 0
125 137 0
130 144 0
123 138 0
123 137 0
125 141 0
123 135 0
132 147 0
136 149 0
124 137 0
126 139 0
130 142 0
122 135 0
122 134 0
130 142 0
124 137 0
139 150 0
135 144 0
134 145 0
114 120 0
124 135 0
123 132 0
133 143 0
127 137 0
128 136 0
120 125 0
124 133 0
134 143 0
131 139 0
126 131 0
127 135 0
125 134 0
128 136 0
122 122 0
134 138 0
123 127 0
130 133 0
121 123 0
131 133 0
128 132 0
127 129 0
121 123 0
118 119 0
122 125 25
139 139 95
173 176 162
162 160 144
172 172 159
169 168 147
172 173 157
182 183 167
169 170 153
170 170 149
167 167 149
159 157 133
169 169 142
170 169 149
173 173 151
164 161 130
168 168 144
180 180 161
166 166 140
175 174 153
163 160 128
161 159 133
172 172 147
161 158 117
178 179 149
175 176 149
167 168 142
153 151 117
168 167 137
162 161 125
176 177 151
165 163 135
161 157 120
164 162 125
169 167 130
164 162 130
175 176 151
176 175 147
158 155 108
163 160 120
172 172 140
167 166 133
169 166 130
174 173 136
171 170 136
172 171 126
174 174 144
169 167 133
172 171 136
179 179 153
177 175 143
172 171 137
169 167 118
167 165 124
173 172 127
171 169 132
170 169 121
170 170 134
165 164 123
171 170 130
175 174 133
166 163 118
175 175 140
170 168 122
176 175 139
180 180 145
182 182 150
179 180 143
169 166 120
180 180 152
175 174 147
172 170 125
173 172 130
177 176 141
181 180 144
172 170 126
181 180 147
181 180 144
179 178 137
187 187 156
179 177 134
180 180 142
179 179 147
174 172 128
184 185 150
176 173 127
180 179 147
178 177 142
182 182 143
178 178 140
174 173 126
182 182 153
184 185 154
185 185 155
187 187 162
187 189 161
187 188 163
194 196 178
182 182 147
187 187 155
190 192 169
194 196 173
189 190 167
192 195 172
186 187 158
192 193 169
195 197 178
172 196 0
176 198 0
174 197 0
175 198 0
172 196 0
175 197 0
174 197 0
176 198 0
174 197 0
174 197 0
173 196 0
175 198 0
175 197 0
174 197 0
174 197 0
174 196 0
173 196 0
174 196 0
174 196 0
174 197 0
173 195 0
173 195 0
175 197 0
173 195 0
174 196 0
171 193 0
175 196 0
172 195 0
174 196 0
172 194 0
172 194 0
169 192 0
169 191 0
174 197 0
174 196 0
174 195 0
172 194 0
171 193 0
171 193 0
169 191 0
174 196 0
174 196 0
173 195 0
169 192 0
167 189 0
173 194 0
168 189 0
172 193 0
172 193 0
166 187 0
173 194 0
172 194 0
173 195 0
163 185 0
169 190 0
167 189 0
166 189 0
169 190 0
167 188 0
167 189 0
166 187 0
165 187 0
167 189 0
165 186 0
166 188 0
169 190 0
170 192 0
165 186 0
165 186 0
169 190 0
165 186 0
167 187 0
167 188 0
166 187 0
162 183 0
168 189 0
163 183 0
165 186 0
164 184 0
157 179 0
160 180 0
166 187 0
159 180 0
162 182 0
160 180 0
156 177 0
161 182 0
153 174 0
162 182 0
154 175 0
160 181 0
161 182 0
157 177 0
151 171 0
154 175 0
156 176 0
157 177 0
156 177 0
158 179 0
154 174 0
148 169 0
155 175 0
152 172 0
149 168 0
152 172 0
152 173 0
152 172 0
155 176 0
146 168 0
156 176 0
153 172 0
144 165 0
154 175 0
155 174 0
157 178 0
150 170 0
148 168 0
149 169 0
154 175 0
146 165 0
149 170 0
154 174 0
143 163 0
146 167 0
139 159 0
154 174 0
147 167 0
145 166 0
145 166 0
141 161 0
146 167 0
155 175 0
147 167 0
145 165 0
141 161 0
140 160 0
136 156 0
145 166 0
144 164 0
151 171 0
145 166 0
148 168 0
139 159 0
153 173 0
141 161 0
131 152 0
148 168 0
135 156 0
129 150 0
138 158 0
139 159 0
142 164 0
133 153 0
135 155 0
126 147 0
133 152 0
131 151 0
129 149 0
125 144 0
137 156 0
131 150 0
123 142 0
123 143 0
116 134 0
137 155 0
114 132 0
114 132 0
120 137 0
118 135 0
122 141 0
118 136 0
115 134 0
115 133 0
107 124 0
104 122 0
97 114 0
108 127 0
117 134 0
105 121 0
95 110 0
110 127 0
105 120 0
101 115 0
94 107 0
95 109 0
97 113 0
98 114 0
91 105 0
77 91 0
69 83 0
86 100 0
86 100 0
77 88 0
70 82 0
69 83 0
86 98 0
75 87 0
70 83 0
77 90 0
64 77 0
77 90 0
87 100 0
85 98 0
93 106 0
88 99 0
74 83 0
84 95 0
82 93 0
87 97 0
96 110 0
76 88 0
81 93 0
78 90 0
82 94 0
83 96 0
96 108 0
91 104 0
89 102 0
91 104 0
90 102 0
105 119 0
101 115 0
95 108 0
97 111 0
101 115 0
98 113 0
100 113 0
101 114 0
100 113 0
108 122 0
99 110 0
100 116 0
113 128 0
110 123 0
102 116 0
111 125 0
109 125 0
123 137 0
117 129 0
96 110 0
122 136 0
134 146 0
117 132 0
112 125 0
127 141 0
123 137 0
123 140 0
117 132 0
127 140 0
124 138 0
129 144 0
130 144 0
132 146 0
124 138 0
128 141 0
125 138 0
128 142 0
133 143 0
118 132 0
132 145 0
128 140 0
119 130 0
113 122 0
133 146 0
133 145 0
131 144 0
135 146 0
139 148 0
126 136 0
136 148 0
134 144 0
125 137 0
140 149 0
121 129 0
124 132 0
134 144 0
140 149 0
123 130 0
121 126 0
139 147 0
130 135 0
136 142 0
130 135 0
131 136 0
126 129 0
125 127 0
133 137 0
121 123 0
135 137 0
123 127 0
123 125 0
120 121 0
120 119 0
124 122 0
121 121 0
127 127 0
142 144 103
146 147 128
172 173 163
177 177 167
176 177 167
179 181 167
169 168 153
166 165 142
169 169 151
168 166 144
170 168 149
176 176 155
162 161 130
162 158 128
183 184 165
161 160 135
177 176 151
166 165 137
181 182 163
172 171 144
162 158 117
172 173 147
159 156 117
168 165 125
167 167 137
165 163 130
163 161 125
163 161 128
168 168 140
167 166 130
167 165 122
166 162 123
165 164 136
155 154 109
172 170 140
167 165 133
171 170 137
175 175 147
166 163 122
166 164 123
162 159 109
170 168 126
165 162 110
160 156 109
165 162 121
173 172 128
168 166 129
172 171 139
178 176 144
171 169 129
171 170 137
162 157 99
182 182 152
173 170 124
176 175 144
172 171 131
176 175 139
180 181 149
183 183 151
181 182 151
176 176 139
174 172 134
176 176 140
174 172 124
175 175 142
175 174 135
181 182 151
180 178 142
178 177 140
182 182 149
173 172 127
176 175 139
184 183 153
184 184 145
189 191 162
181 182 147
179 178 142
179 178 145
183 182 148
178 178 142
174 174 142
174 173 137
179 179 143
185 184 152
177 175 134
174 172 135
183 183 152
181 181 148
180 179 135
185 186 158
181 180 146
192 193 167
186 185 158
185 186 159
190 191 168
190 191 167
183 183 151
188 189 162
188 188 163
188 187 159
191 191 169
194 196 176
189 191 168
189 189 161
175 198 0
173 196 0
173 196 0
174 197 0
175 198 0
176 198 0
177 198 0
174 197 0
175 197 0
175 197 0
175 198 0
176 198 0
175 197 0
177 199 0
175 197 0
174 197 0
175 197 0
175 197 0
173 196 0
172 193 0
172 194 0
172 194 0
174 196 0
173 194 0
172 194 0
174 195 0
172 195 0
174 196 0
173 195 0
171 193 0
175 197 0
171 194 0
172 193 0
171 193 0
170 192 0
172 193 0
170 192 0
171 193 0
173 195 0
173 195 0
173 193 0
173 195 0
176 196 0
176 197 0
168 189 0
175 196 0
173 193 0
169 191 0
172 192 0
172 194 0
171 192 0
168 190 0
172 194 0
166 187 0
165 187 0
167 189 0
170 190 0
164 185 0
168 189 0
162 185 0
166 188 0
166 187 0
169 190 0
161 182 0
171 191 0
165 185 0
164 186 0
173 194 0
168 190 0
162 183 0
168 189 0
170 191 0
165 186 0
168 189 0
167 188 0
163 183 0
168 189 0
164 183 0
164 184 0
166 186 0
168 189 0
163 184 0
164 184 0
156 177 0
167 187 0
158 179 0
167 186 0
165 187 0
155 175 0
162 182 0
155 176 0
160 180 0
161 182 0
153 173 0
158 177 0
145 165 0
155 176 0
149 171 0
149 170 0
150 170 0
153 174 0
154 174 0
154 175 0
146 166 0
152 173 0
156 178 0
146 167 0
154 175 0
152 173 0
150 172 0
143 164 0
153 173 0
151 171 0
143 164 0
149 170 0
143 163 0
144 163 0
149 170 0
148 169 0
147 166 0
144 165 0
153 173 0
146 167 0
147 166 0
148 168 0
133 154 0
149 170 0
136 156 0
153 173 0
140 161 0
147 168 0
142 163 0
141 161 0
146 167 0
126 146 0
147 168 0
139 160 0
144 164 0
147 168 0
146 166 0
139 161 0
141 162 0
139 160 0
137 158 0
136 157 0
140 160 0
139 159 0
142 163 0
125 145 0
146 167 0
127 147 0
140 160 0
136 156 0
138 157 0
141 160 0
132 151 0
132 151 0
130 150 0
128 147 0
132 152 0
131 150 0
128 147 0
131 150 0
133 153 0
123 142 0
135 155 0
116 134 0
131 149 0
106 126 0
113 131 0
124 142 0
118 137 0
111 128 0
111 129 0
123 142 0
118 135 0
100 116 0
106 123 0
98 115 0
92 109 0
110 126 0
103 119 0
92 108 0
88 105 0
102 118 0
97 112 0
97 113 0
94 110 0
81 97 0
69 84 0
79 94 0
93 109 0
88 103 0
93 107 0
90 104 0
75 89 0
86 99 0
77 90 0
78 92 0
81 94 0
98 112 0
80 91 0
80 93 0
75 89 0
85 97 0
80 94 0
83 96 0
93 106 0
82 96 0
88 100 0
91 104 0
90 103 0
72 83 0
67 82 0
91 103 0
96 110 0
91 102 0
102 114 0
94 108 0
82 95 0
85 100 0
81 93 0
91 104 0
103 115 0
113 129 0
91 104 0
94 107 0
92 105 0
111 124 0
101 114 0
107 120 0
110 122 0
103 117 0
104 117 0
127 142 0
103 120 0
121 136 0
122 137 0
119 132 0
126 140 0
108 121 0
122 136 0
111 126 0
131 145 0
123 139 0
121 134 0
120 137 0
128 143 0
122 137 0
132 146 0
126 138 0
128 145 0
132 144 0
116 131 0
128 142 0
135 148 0
128 144 0
125 139 0
125 134 0
133 148 0
132 145 0
138 152 0
126 138 0
123 135 0
138 154 0
128 140 0
131 141 0
134 146 0
133 143 0
124 132 0
139 151 0
131 140 0
131 143 0
134 143 0
130 141 0
131 140 0
126 133 0
130 137 0
130 137 0
133 141 0
132 139 0
126 132 0
128 133 0
129 133 0
135 141 0
128 133 0
131 135 0
134 136 0
135 137 0
130 135 0
133 138 0
131 134 0
123 122 0
128 129 0
124 126 0
125 128 0
126 125 0
130 131 0
129 130 51
145 144 99
173 175 149
176 176 161
176 177 161
169 168 153
184 184 170
183 184 167
176 175 155
165 162 137
173 173 155
172 172 157
176 175 151
164 162 133
173 173 155
167 164 135
163 162 130
176 175 153
164 160 130
178 178 155
152 148 105
168 167 137
170 168 137
161 158 117
171 169 135
162 161 125
169 166 128
171 170 137
171 170 136
173 173 144
173 174 142
167 166 123
175 173 142
160 157 117
173 172 140
169 167 131
168 167 136
177 176 144
173 171 135
176 176 150
169 166 126
169 168 133
180 180 145
181 180 154
173 172 135
169 166 125
171 170 135
173 172 131
170 167 125
166 164 120
178 177 144
176 176 142
175 175 144
177 176 147
172 171 133
176 175 147
176 175 134
181 180 147
174 172 140
179 178 142
181 182 152
179 178 142
170 167 121
177 177 147
181 182 148
178 178 141
176 174 135
189 191 169
176 174 137
178 178 145
175 174 130
180 179 142
175 175 138
174 172 131
186 188 162
190 192 169
185 186 159
185 186 158
190 191 164
185 185 155
186 185 156
184 184 151
184 184 149
193 193 166
187 188 161
184 184 155
184 184 152
188 191 170
183 185 155
183 184 157
187 190 167
194 195 171
190 190 166
194 197 178
186 186 159
186 187 164
194 195 175
198 202 182
193 196 176
200 204 191
192 195 174
185 191 140
173 196 0
172 196 0
172 196 0
174 197 0
175 198 0
174 197 0
175 197 0
176 198 0
176 198 0
173 195 0
174 197 0
174 196 0
173 196 0
175 197 0
174 196 0
174 196 0
175 198 0
175 196 0
173 195 0
175 197 0
174 197 0
173 195 0
173 194 0
173 195 0
174 196 0
174 197 0
175 197 0
173 196 0
172 194 0
172 194 0
172 194 0
175 197 0
174 195 0
171 193 0
173 194 0
172 194 0
176 197 0
170 193 0
174 195 0
170 192 0
172 193 0
170 192 0
176 197 0
175 197 0
171 192 0
173 194 0
170 191 0
175 196 0
171 193 0
168 189 0
167 187 0
170 191 0
171 191 0
172 193 0
173 194 0
172 193 0
170 191 0
168 189 0
166 187 0
167 188 0
164 185 0
167 188 0
160 182 0
171 192 0
170 191 0
168 189 0
164 185 0
170 189 0
165 184 0
166 187 0
166 186 0
166 186 0
166 187 0
168 188 0
164 184 0
160 180 0
168 190 0
167 188 0
164 185 0
161 182 0
163 183 0
159 179 0
164 184 0
161 182 0
167 188 0
163 183 0
157 178 0
163 182 0
161 181 0
156 177 0
155 174 0
152 172 0
160 180 0
154 174 0
156 176 0
156 176 0
151 172 0
154 176 0
144 165 0
151 172 0
153 174 0
153 174 0
154 174 0
151 172 0
154 176 0
156 178 0
154 175 0
160 180 0
148 170 0
159 179 0
147 167 0
155 175 0
153 175 0
150 171 0
148 169 0
159 179 0
155 176 0
145 166 0
145 165 0
146 166 0
153 174 0
148 168 0
148 169 0
147 167 0
150 171 0
151 172 0
142 162 0
146 167 0
144 166 0
143 164 0
153 173 0
139 159 0
153 174 0
144 166 0
147 167 0
147 168 0
144 164 0
146 167 0
144 166 0
147 167 0
145 166 0
143 164 0
146 167 0
136 157 0
147 168 0
138 158 0
140 161 0
146 166 0
132 153 0
145 166 0
134 154 0
142 162 0
133 154 0
135 156 0
143 163 0
134 155 0
129 149 0
134 155 0
118 137 0
124 144 0
129 148 0
124 142 0
130 149 0
134 153 0
129 148 0
136 156 0
114 132 0
115 134 0
121 139 0
125 144 0
116 134 0
119 137 0
117 135 0
103 120 0
115 133 0
111 129 0
100 116 0
114 132 0
113 131 0
103 118 0
110 127 0
94 110 0
106 123 0
99 114 0
104 120 0
102 117 0
98 114 0
101 116 0
102 117 0
105 119 0
98 113 0
91 107 0
95 109 0
84 100 0
90 105 0
103 118 0
83 97 0
87 100 0
74 89 0
91 105 0
96 109 0
87 98 0
89 102 0
91 104 0
79 92 0
82 94 0
77 89 0
97 109 0
90 101 0
90 104 0
92 104 0
104 117 0
80 93 0
105 121 0
100 115 0
103 115 0
108 123 0
103 116 0
103 116 0
107 120 0
110 125 0
100 114 0
104 116 0
107 121 0
90 104 0
111 125 0
108 123 0
101 114 0
111 126 0
109 124 0
108 121 0
111 126 0
119 134 0
108 124 0
114 128 0
104 117 0
117 130 0
106 120 0
122 137 0
121 137 0
118 134 0
120 136 0
119 132 0
123 136 0
115 127 0
131 147 0
136 150 0
115 129 0
118 131 0
124 139 0
128 142 0
131 145 0
121 135 0
127 140 0
129 143 0
130 144 0
124 139 0
136 148 0
129 141 0
135 149 0
125 139 0
125 139 0
129 143 0
131 146 0
122 133 0
137 149 0
125 137 0
128 139 0
127 138 0
127 138 0
131 142 0
133 145 0
128 140 0
133 141 0
125 135 0
129 138 0
135 143 0
132 140 0
130 134 0
130 136 0
130 139 0
130 138 0
116 122 0
137 145 0
129 132 0
124 130 0
128 132 0
135 142 0
125 126 0
128 131 0
128 134 0
131 134 0
133 136 0
126 126 0
125 125 0
122 126 0
121 120 0
122 123 0
121 119 0
125 126 0
120 118 0
126 126 67
147 144 114
167 167 153
180 181 171
170 170 153
176 176 159
185 186 177
180 181 171
172 170 151
179 179 159
175 173 155
170 171 155
175 175 157
173 173 157
173 172 147
165 164 140
165 162 135
169 167 142
169 168 144
168 167 142
177 176 157
166 162 128
170 166 135
168 165 130
168 166 130
175 175 149
163 162 135
171 169 138
171 170 138
174 172 138
166 163 128
169 166 125
178 176 147
179 179 154
173 172 140
172 171 135
174 171 140
174 175 144
176 175 142
171 170 130
180 181 155
170 167 135
167 166 128
166 165 123
183 184 160
172 170 129
171 169 130
181 182 151
175 173 134
171 170 135
173 171 132
176 175 141
180 179 152
173 173 138
172 172 141
174 174 134
181 180 149
172 170 135
179 178 152
183 182 152
179 179 144
183 184 155
173 173 134
182 182 151
180 179 143
179 179 146
172 171 135
182 180 150
174 173 140
181 182 151
178 177 141
174 172 133
185 185 151
182 183 157
174 171 133
182 181 148
182 181 145
180 180 149
181 179 142
180 180 143
186 187 164
181 180 146
184 184 152
190 190 167
189 190 162
185 185 154
199 202 188
185 185 157
192 194 171
191 193 172
188 189 166
187 187 155
187 188 163
188 189 167
198 201 184
198 204 179
185 195 131
174 191 63
172 193 0
174 198 0
173 196 0
172 196 0
172 195 0
173 196 0
173 197 0
175 198 0
176 198 0
175 198 0
175 197 0
175 196 0
176 198 0
174 196 0
176 198 0
177 198 0
174 195 0
176 198 0
176 198 0
173 195 0
174 196 0
175 197 0
174 196 0
177 198 0
173 195 0
172 194 0
173 196 0
177 198 0
173 195 0
172 194 0
173 195 0
173 194 0
173 194 0
172 194 0
172 194 0
171 192 0
174 195 0
174 196 0
173 194 0
172 194 0
170 191 0
172 194 0
169 190 0
170 192 0
174 195 0
170 191 0
174 195 0
172 193 0
165 186 0
170 191 0
170 191 0
172 193 0
170 192 0
168 189 0
175 195 0
167 189 0
173 194 0
163 184 0
174 195 0
167 187 0
167 187 0
170 191 0
166 188 0
170 191 0
166 187 0
165 186 0
162 182 0
168 188 0
165 185 0
169 190 0
162 183 0
171 191 0
169 188 0
170 191 0
166 186 0
166 188 0
169 189 0
159 180 0
166 186 0
160 180 0
167 186 0
161 182 0
160 180 0
160 180 0
169 190 0
159 179 0
161 182 0
157 177 0
158 178 0
165 185 0
161 182 0
157 179 0
158 179 0
156 176 0
157 177 0
155 177 0
155 175 0
155 176 0
153 174 0
151 172 0
150 172 0
152 174 0
158 178 0
155 175 0
158 178 0
148 170 0
156 176 0
156 177 0
150 170 0
157 177 0
152 172 0
157 178 0
151 173 0
153 172 0
148 167 0
150 171 0
149 170 0
152 173 0
146 166 0
152 172 0
154 174 0
139 160 0
148 169 0
146 167 0
152 172 0
146 166 0
159 178 0
146 166 0
146 168 0
143 164 0
152 172 0
150 171 0
152 173 0
141 162 0
145 165 0
149 170 0
140 161 0
142 162 0
148 169 0
141 160 0
142 163 0
144 165 0
146 167 0
144 164 0
142 163 0
145 165 0
139 160 0
135 156 0
137 158 0
139 159 0
144 165 0
133 153 0
133 154 0
133 154 0
139 159 0
122 142 0
141 161 0
134 154 0
134 154 0
123 143 0
133 154 0
130 149 0
128 149 0
121 141 0
132 153 0
123 141 0
125 144 0
131 150 0
116 135 0
127 146 0
131 151 0
123 141 0
114 133 0
118 137 0
122 141 0
122 139 0
126 143 0
112 130 0
113 131 0
109 126 0
103 121 0
108 125 0
104 121 0
99 115 0
106 122 0
90 107 0
102 119 0
110 127 0
110 126 0
99 116 0
105 119 0
91 106 0
94 110 0
91 107 0
80 94 0
85 97 0
86 101 0
87 103 0
92 107 0
87 102 0
92 108 0
105 119 0
79 90 0
98 112 0
93 108 0
99 113 0
87 100 0
105 119 0
82 96 0
107 123 0
95 110 0
93 108 0
94 108 0
101 117 0
81 96 0
108 122 0
104 117 0
107 123 0
103 116 0
103 118 0
96 112 0
106 121 0
98 114 0
114 129 0
108 125 0
98 113 0
98 112 0
114 130 0
116 130 0
113 128 0
112 127 0
103 118 0
98 112 0
109 124 0
117 132 0
95 110 0
109 122 0
121 136 0
120 135 0
119 135 0
117 133 0
127 141 0
124 140 0
116 129 0
121 137 0
125 141 0
123 139 0
125 140 0
132 146 0
118 134 0
123 139 0
130 146 0
123 138 0
128 144 0
128 143 0
131 145 0
128 144 0
131 146 0
126 141 0
120 134 0
131 143 0
134 149 0
134 147 0
144 159 0
131 144 0
139 154 0
126 140 0
127 139 0
139 152 0
136 148 0
123 132 0
124 131 0
138 152 0
134 145 0
127 136 0
133 144 0
129 135 0
134 143 0
130 137 0
134 144 0
130 140 0
129 134 0
134 141 0
127 132 0
129 137 0
123 130 0
129 136 0
128 135 0
122 128 0
129 133 0
132 136 0
136 142 0
136 142 0
129 133 0
119 120 0
132 133 0
133 135 0
125 124 0
124 127 0
124 126 0
116 115 0
125 126 0
128 127 0
122 121 0
127 125 0
139 138 88
167 168 140
172 170 155
176 175 159
172 172 155
187 188 181
181 182 169
175 173 151
169 169 151
175 175 159
178 179 163
171 169 147
171 171 153
170 170 153
174 173 149
171 170 151
167 166 140
172 171 147
164 160 131
172 170 140
174 173 142
183 184 163
179 178 153
185 187 166
173 172 144
168 167 135
163 159 130
179 179 156
173 171 135
165 163 125
161 157 114
172 171 135
173 171 140
171 169 133
167 163 122
178 177 150
172 171 135
169 167 132
175 173 141
179 179 151
168 165 130
174 172 134
175 174 136
175 174 142
173 171 134
175 174 144
177 176 144
172 171 139
174 172 139
181 180 150
175 174 142
175 174 137
179 178 138
184 185 164
187 189 161
178 179 147
185 186 151
174 172 134
174 171 134
175 173 138
182 179 147
185 185 165
178 179 156
184 185 158
178 178 144
183 183 148
182 181 143
182 181 147
180 179 143
182 182 155
183 182 150
181 182 151
188 189 165
190 192 167
190 191 165
191 193 169
188 189 161
185 186 161
186 185 154
191 192 170
184 184 156
187 189 162
191 193 172
179 178 146
188 189 159
187 188 163
195 195 170
194 196 178
188 189 164
195 201 174
180 188 117
174 189 69
169 186 25
173 194 0
173 193 0
169 189 0
174 197 0
171 195 0
175 197 0
173 197 0
173 197 0
174 196 0
174 197 0
174 197 0
176 198 0
176 198 0
174 197 0
173 196 0
175 196 0
175 197 0
172 195 0
172 194 0
176 198 0
173 196 0
173 195 0
176 197 0
178 199 0
176 198 0
175 196 0
178 199 0
174 196 0
176 197 0
172 194 0
172 194 0
172 194 0
174 195 0
173 194 0
176 198 0
173 194 0
174 195 0
174 195 0
172 193 0
171 193 0
174 195 0
171 192 0
173 195 0
172 193 0
171 193 0
172 193 0
172 192 0
172 193 0
176 196 0
171 193 0
171 192 0
167 187 0
169 190 0
175 196 0
174 196 0
169 190 0
172 194 0
170 191 0
169 190 0
170 192 0
167 188 0
168 190 0
170 190 0
170 191 0
168 188 0
170 190 0
172 192 0
165 187 0
166 186 0
166 186 0
168 188 0
167 188 0
164 185 0
163 183 0
163 183 0
169 189 0
166 186 0
163 184 0
163 185 0
166 187 0
167 188 0
162 184 0
164 185 0
162 182 0
160 181 0
164 184 0
165 187 0
165 186 0
162 182 0
154 174 0
161 182 0
159 179 0
153 173 0
156 176 0
149 170 0
153 175 0
150 172 0
162 183 0
154 175 0
154 174 0
154 174 0
158 179 0
153 174 0
160 180 0
162 183 0
151 173 0
153 173 0
151 171 0
147 168 0
154 174 0
158 179 0
152 173 0
150 172 0
156 176 0
158 180 0
141 161 0
154 174 0
154 175 0
146 167 0
149 170 0
152 173 0
152 172 0
141 161 0
148 168 0
146 166 0
148 168 0
137 158 0
153 173 0
147 167 0
153 174 0
140 160 0
144 165 0
146 166 0
156 177 0
139 159 0
147 169 0
140 161 0
149 169 0
152 173 0
145 166 0
143 163 0
147 167 0
144 165 0
143 164 0
137 157 0
133 153 0
128 148 0
144 164 0
140 160 0
145 165 0
144 163 0
140 160 0
141 161 0
131 151 0
137 157 0
138 159 0
134 154 0
133 153 0
128 148 0
136 156 0
129 150 0
140 160 0
129 149 0
119 139 0
128 147 0
122 141 0
131 151 0
120 139 0
128 147 0
119 138 0
124 144 0
121 141 0
122 141 0
112 132 0
117 136 0
114 132 0
112 129 0
96 113 0
118 137 0
123 141 0
113 132 0
114 132 0
120 137 0
113 131 0
107 125 0
111 127 0
113 130 0
117 133 0
109 125 0
104 121 0
109 127 0
114 130 0
100 115 0
91 107 0
94 108 0
101 116 0
96 113 0
94 110 0
90 106 0
95 110 0
102 118 0
97 112 0
81 97 0
102 118 0
90 104 0
96 110 0
94 108 0
102 118 0
95 109 0
93 109 0
109 124 0
93 109 0
113 129 0
98 112 0
104 120 0
103 119 0
102 117 0
104 119 0
94 110 0
100 115 0
111 125 0
109 123 0
110 123 0
95 110 0
114 130 0
93 108 0
107 124 0
113 129 0
112 127 0
109 125 0
106 122 0
112 128 0
118 133 0
115 130 0
117 131 0
111 127 0
125 141 0
107 123 0
121 135 0
113 129 0
116 130 0
124 140 0
114 130 0
120 133 0
116 130 0
122 138 0
126 140 0
121 136 0
125 141 0
124 139 0
120 134 0
125 142 0
122 135 0
126 143 0
120 134 0
126 141 0
129 142 0
130 146 0
126 139 0
125 139 0
124 138 0
126 140 0
130 146 0
131 146 0
130 144 0
131 142 0
126 140 0
126 139 0
138 151 0
134 146 0
128 138 0
129 142 0
140 155 0
127 135 0
125 136 0
142 154 0
127 136 0
121 128 0
130 141 0
143 154 0
135 143 0
140 149 0
137 145 0
131 137 0
133 143 0
124 133 0
131 140 0
135 141 0
135 144 0
134 141 0
125 129 0
124 128 0
132 136 0
132 136 0
127 133 0
132 135 0
132 134 0
138 145 0
131 134 0
128 133 0
129 129 0
136 141 0
130 134 0
130 129 0
130 130 0
124 124 0
112 109 0
125 121 0
117 115 0
125 124 0
137 136 76
146 144 111
179 180 163
176 176 163
186 188 179
186 186 175
165 163 144
184 184 169
179 178 165
175 173 147
168 165 142
169 168 144
171 168 144
176 174 149
178 177 157
181 180 159
179 178 159
170 168 137
175 173 149
172 172 149
177 176 154
169 168 144
173 169 135
180 179 155
173 171 137
169 168 137
174 172 142
181 181 157
177 176 153
181 182 159
174 172 140
177 176 149
170 168 131
176 175 151
173 172 145
176 175 147
182 181 156
176 176 145
172 170 142
174 173 142
168 167 133
183 182 158
178 178 145
180 180 148
167 164 125
177 176 144
175 173 142
184 184 161
179 178 150
175 173 143
176 175 146
182 183 156
179 179 146
179 178 147
179 178 145
189 189 163
171 170 132
186 187 164
181 180 151
186 186 162
186 188 163
186 187 159
184 184 156
188 190 169
181 180 145
187 186 159
186 186 155
183 182 151
183 183 147
180 177 144
189 190 165
186 188 167
186 187 161
193 195 173
190 191 168
188 188 162
194 195 178
191 193 173
182 183 154
190 192 171
194 195 172
189 190 164
196 199 182
190 195 157
181 188 128
175 192 80
172 192 0
170 190 0
172 192 0
170 191 0
172 191 0
172 191 0
170 190 0
172 195 0
174 198 0
175 197 0
173 196 0
174 198 0
175 197 0
174 197 0
173 196 0
174 197 0
174 197 0
173 196 0
173 197 0
174 197 0
175 197 0
174 196 0
175 197 0
176 197 0
174 196 0
175 197 0
175 196 0
175 197 0
174 196 0
173 194 0
176 198 0
173 195 0
173 193 0
175 196 0
174 196 0
172 193 0
173 195 0
174 195 0
174 196 0
173 194 0
176 196 0
173 194 0
165 186 0
174 195 0
170 191 0
173 194 0
174 194 0
173 195 0
173 194 0
173 195 0
171 192 0
171 191 0
170 192 0
170 191 0
173 194 0
171 192 0
172 193 0
170 191 0
172 193 0
171 192 0
166 187 0
168 189 0
166 187 0
170 191 0
169 190 0
171 192 0
174 194 0
171 192 0
172 192 0
170 190 0
169 190 0
173 194 0
169 190 0
161 183 0
166 187 0
171 190 0
164 184 0
163 183 0
165 186 0
165 187 0
162 182 0
162 183 0
163 184 0
161 181 0
164 184 0
164 185 0
163 185 0
166 186 0
159 179 0
153 173 0
160 181 0
160 181 0
156 177 0
162 183 0
155 176 0
160 180 0
159 181 0
157 180 0
153 174 0
156 176 0
151 172 0
158 177 0
158 179 0
152 174 0
154 174 0
154 175 0
154 174 0
148 169 0
160 180 0
146 166 0
158 180 0
148 169 0
156 176 0
151 171 0
151 171 0
155 176 0
145 165 0
144 165 0
156 176 0
158 179 0
155 175 0
152 172 0
144 165 0
144 165 0
151 171 0
146 167 0
146 167 0
157 177 0
149 169 0
150 172 0
146 166 0
143 165 0
159 180 0
151 172 0
155 176 0
148 169 0
143 164 0
138 160 0
135 156 0
146 166 0
147 166 0
144 165 0
146 167 0
140 161 0
135 155 0
146 167 0
141 163 0
147 168 0
136 156 0
148 169 0
142 163 0
148 168 0
138 158 0
144 165 0
140 162 0
142 163 0
133 154 0
123 145 0
137 157 0
141 162 0
134 153 0
135 155 0
132 151 0
138 158 0
130 150 0
130 149 0
133 153 0
128 148 0
134 153 0
127 145 0
135 155 0
133 152 0
131 152 0
134 154 0
131 151 0
121 141 0
127 147 0
129 148 0
122 142 0
124 143 0
120 138 0
105 124 0
113 131 0
131 151 0
112 131 0
129 147 0
101 119 0
105 123 0
114 132 0
108 126 0
101 119 0
111 128 0
122 140 0
120 138 0
95 111 0
113 130 0
119 136 0
100 117 0
107 124 0
104 118 0
93 110 0
94 108 0
110 127 0
94 110 0
106 122 0
94 110 0
95 111 0
114 131 0
104 118 0
97 113 0
104 119 0
110 126 0
94 110 0
99 114 0
90 106 0
106 122 0
114 130 0
99 113 0
105 121 0
85 100 0
109 127 0
101 117 0
117 133 0
105 119 0
96 110 0
108 124 0
95 112 0
115 130 0
102 118 0
108 122 0
113 129 0
106 120 0
119 132 0
110 124 0
94 107 0
104 118 0
118 133 0
109 122 0
124 137 0
121 136 0
122 138 0
124 137 0
117 132 0
117 130 0
108 123 0
122 138 0
119 134 0
119 136 0
123 139 0
122 137 0
129 145 0
123 139 0
119 132 0
119 132 0
132 149 0
127 143 0
125 139 0
124 139 0
121 135 0
129 143 0
123 135 0
132 145 0
132 146 0
128 144 0
131 147 0
134 149 0
138 152 0
137 151 0
131 147 0
139 154 0
133 148 0
136 151 0
129 141 0
131 143 0
142 154 0
131 143 0
134 146 0
133 147 0
142 155 0
134 145 0
138 151 0
132 144 0
143 155 0
130 141 0
136 147 0
131 140 0
135 147 0
135 145 0
134 144 0
139 150 0
127 134 0
125 130 0
134 144 0
129 136 0
136 146 0
131 135 0
134 139 0
135 145 0
133 136 0
129 136 0
128 133 0
134 140 0
127 132 0
133 134 0
136 138 0
124 127 0
125 127 0
125 124 0
125 125 0
132 133 0
116 111 0
129 129 0
127 128 0
127 129 0
123 122 0
125 122 0
124 122 0
124 117 51
157 156 114
166 167 137
172 172 153
180 180 171
176 175 151
165 160 137
179 179 163
177 175 151
180 180 165
180 177 155
183 183 163
179 180 161
175 173 151
177 176 153
178 177 155
179 177 155
180 180 163
176 176 157
174 171 145
168 166 137
174 173 149
180 179 156
179 179 151
173 171 144
171 169 140
173 172 142
176 175 155
164 159 128
175 173 149
176 176 151
176 175 144
183 184 165
181 180 154
170 169 140
182 182 157
179 178 151
178 176 151
173 170 137
172 170 134
179 178 141
177 177 146
178 178 151
178 177 139
174 173 134
183 182 159
179 178 144
180 180 152
171 169 126
180 179 147
181 180 151
182 181 155
180 180 146
191 192 169
181 182 161
177 177 146
183 182 157
179 177 143
183 183 152
185 184 158
181 180 150
189 190 166
188 189 165
180 179 147
187 188 162
188 189 166
195 198 183
190 193 172
186 187 167
187 188 165
197 199 182
190 192 174
182 180 151
193 195 175
195 198 184
194 196 174
197 203 182
185 193 137
181 191 116
169 186 25
171 192 0
171 191 0
170 189 0
170 189 0
170 190 0
173 193 0
168 187 0
168 188 0
171 191 0
171 191 0
173 196 0
173 196 0
174 197 0
175 197 0
173 197 0
173 196 0
173 196 0
174 197 0
174 197 0
174 197 0
177 199 0
174 197 0
173 196 0
173 196 0
174 196 0
173 196 0
175 197 0
176 197 0
176 198 0
175 197 0
179 200 0
176 198 0
175 197 0
174 196 0
174 195 0
171 193 0
175 197 0
174 196 0
177 198 0
175 197 0
175 196 0
175 195 0
175 196 0
174 195 0
174 196 0
173 194 0
170 191 0
173 195 0
177 197 0
171 192 0
170 193 0
175 196 0
173 194 0
174 195 0
171 192 0
172 193 0
171 192 0
173 193 0
172 193 0
169 190 0
169 190 0
172 193 0
175 196 0
169 191 0
167 186 0
172 193 0
170 190 0
171 193 0
171 191 0
172 192 0
170 190 0
168 189 0
168 189 0
167 188 0
171 191 0
170 190 0
169 190 0
167 186 0
171 191 0
168 187 0
167 187 0
168 188 0
167 188 0
161 182 0
158 179 0
165 186 0
162 182 0
172 192 0
159 181 0
164 184 0
163 183 0
163 184 0
159 181 0
160 180 0
158 179 0
150 170 0
156 177 0
160 181 0
152 174 0
152 173 0
153 174 0
152 172 0
158 179 0
159 180 0
162 181 0
159 180 0
158 178 0
157 178 0
153 175 0
156 177 0
153 174 0
152 171 0
150 170 0
157 177 0
154 175 0
155 176 0
159 179 0
153 173 0
152 172 0
151 171 0
151 173 0
154 173 0
161 182 0
150 170 0
149 169 0
149 169 0
150 170 0
156 177 0
157 177 0
156 177 0
147 168 0
146 166 0
151 171 0
151 172 0
147 168 0
162 183 0
147 169 0
151 171 0
152 173 0
150 170 0
144 165 0
149 169 0
151 172 0
142 163 0
147 168 0
143 164 0
139 160 0
142 162 0
149 171 0
147 168 0
143 164 0
145 166 0
143 163 0
134 154 0
141 163 0
140 160 0
137 158 0
144 164 0
141 161 0
135 156 0
140 160 0
144 164 0
145 165 0
134 155 0
133 154 0
131 151 0
135 154 0
123 143 0
136 155 0
144 163 0
140 161 0
136 156 0
130 151 0
127 147 0
130 150 0
131 151 0
118 137 0
122 141 0
129 148 0
122 141 0
121 139 0
124 143 0
110 129 0
127 146 0
115 134 0
117 136 0
111 130 0
121 140 0
116 133 0
108 126 0
116 133 0
118 136 0
115 133 0
109 129 0
106 125 0
98 114 0
113 131 0
105 122 0
108 125 0
108 124 0
104 120 0
112 129 0
105 122 0
112 129 0
108 123 0
109 125 0
104 121 0
114 130 0
114 131 0
111 128 0
108 125 0
102 118 0
97 112 0
106 122 0
107 123 0
114 131 0
93 108 0
103 118 0
103 118 0
102 117 0
108 123 0
110 127 0
107 122 0
107 122 0
92 108 0
107 123 0
111 128 0
106 122 0
107 124 0
106 121 0
105 121 0
115 133 0
109 125 0
109 123 0
108 122 0
113 128 0
118 133 0
114 131 0
121 137 0
116 132 0
129 146 0
124 141 0
113 126 0
119 135 0
114 130 0
122 139 0
113 129 0
114 131 0
119 137 0
132 148 0
131 149 0
124 141 0
127 140 0
130 147 0
116 130 0
124 139 0
130 146 0
130 144 0
133 149 0
128 145 0
132 147 0
121 136 0
126 141 0
116 131 0
123 138 0
127 141 0
123 139 0
131 146 0
120 136 0
124 137 0
123 136 0
140 151 0
140 157 0
130 144 0
139 153 0
129 142 0
136 148 0
122 137 0
124 137 0
133 146 0
134 146 0
129 143 0
137 149 0
134 146 0
123 135 0
127 136 0
134 143 0
135 144 0
144 157 0
127 135 0
129 137 0
126 133 0
129 137 0
139 148 0
130 138 0
131 140 0
132 141 0
136 145 0
125 133 0
129 134 0
132 137 0
137 144 0
129 138 0
131 136 0
129 134 0
130 136 0
132 134 0
120 122 0
130 131 0
129 132 0
131 134 0
129 128 0
132 133 0
129 132 0
135 137 0
125 125 0
131 133 0
130 129 0
132 133 0
129 127 0
131 130 0
124 122 0
132 131 0
126 126 0
133 130 72
155 154 111
164 165 137
187 188 179
181 179 169
179 179 163
183 182 167
167 164 142
181 181 171
179 176 159
176 175 155
172 171 153
181 180 157
181 182 167
171 168 142
175 174 155
176 175 151
173 172 147
175 174 151
182 182 164
174 174 149
172 170 140
177 176 147
176 175 149
174 172 147
175 174 145
177 177 153
176 176 154
168 165 133
182 181 163
178 177 147
176 175 147
180 179 147
175 172 141
187 187 163
179 177 152
187 188 166
182 181 156
179 178 148
174 172 136
183 183 156
182 182 159
184 185 164
179 177 147
186 187 167
187 189 168
184 183 162
187 188 166
189 190 165
182 180 156
183 183 154
181 179 150
182 182 156
190 192 168
181 180 149
175 171 131
183 182 154
183 183 149
187 189 167
191 193 169
183 183 158
179 178 145
185 186 161
190 193 170
190 192 168
185 185 156
193 194 176
193 194 175
184 187 146
185 190 133
179 189 113
172 185 58
170 187 0
170 189 0
170 189 0
169 188 0
171 192 0
168 186 0
167 187 0
171 190 0
169 187 0
172 192 0
171 189 0
170 190 0
171 190 0
169 189 0
172 195 0
173 196 0
172 195 0
174 197 0
174 196 0
175 198 0
173 195 0
175 198 0
175 198 0
175 198 0
174 197 0
175 198 0
172 195 0
175 198 0
175 197 0
174 197 0
176 198 0
175 197 0
172 195 0
174 197 0
176 198 0
173 195 0
176 198 0
175 197 0
171 192 0
174 195 0
176 196 0
172 194 0
175 195 0
177 198 0
175 195 0
172 193 0
175 196 0
175 196 0
177 197 0
174 195 0
175 196 0
171 192 0
173 193 0
175 195 0
172 193 0
173 194 0
169 190 0
172 194 0
172 193 0
173 194 0
167 188 0
172 193 0
170 190 0
176 197 0
174 194 0
166 187 0
169 190 0
165 185 0
170 192 0
173 193 0
170 190 0
168 189 0
172 193 0
173 193 0
159 180 0
165 185 0
173 193 0
167 188 0
169 189 0
168 188 0
167 187 0
166 187 0
171 191 0
162 184 0
167 187 0
164 185 0
164 185 0
167 189 0
164 184 0
165 187 0
163 183 0
158 179 0
160 180 0
155 176 0
157 178 0
155 177 0
164 185 0
154 176 0
164 186 0
158 179 0
155 176 0
154 174 0
159 181 0
154 175 0
162 182 0
153 174 0
156 177 0
159 180 0
158 179 0
159 180 0
156 177 0
164 185 0
149 168 0
155 176 0
155 176 0
155 174 0
150 169 0
159 179 0
157 178 0
157 177 0
161 182 0
151 171 0
158 178 0
153 173 0
149 170 0
152 172 0
150 171 0
150 171 0
147 168 0
149 170 0
148 167 0
154 175 0
143 164 0
150 171 0
150 172 0
147 168 0
144 165 0
135 156 0
151 172 0
150 171 0
146 167 0
156 177 0
143 163 0
145 166 0
149 170 0
149 170 0
144 165 0
151 172 0
156 178 0
143 164 0
147 169 0
147 167 0
153 175 0
148 168 0
142 163 0
144 165 0
134 154 0
145 167 0
142 162 0
142 163 0
131 151 0
146 167 0
137 158 0
139 160 0
140 162 0
139 160 0
134 154 0
140 161 0
136 156 0
144 165 0
149 169 0
138 158 0
135 155 0
133 153 0
130 149 0
133 152 0
126 145 0
132 152 0
132 153 0
132 152 0
134 154 0
131 152 0
128 148 0
134 153 0
121 140 0
122 141 0
129 148 0
118 136 0
116 136 0
120 139 0
120 139 0
124 143 0
113 132 0
125 143 0
124 142 0
112 128 0
124 143 0
119 137 0
129 147 0
126 143 0
122 140 0
105 122 0
108 126 0
105 122 0
111 129 0
116 132 0
112 129 0
108 124 0
101 118 0
112 130 0
109 127 0
110 128 0
102 121 0
107 124 0
108 124 0
99 116 0
121 137 0
112 130 0
97 114 0
108 124 0
98 113 0
108 124 0
113 130 0
102 117 0
112 127 0
106 122 0
110 127 0
109 124 0
106 121 0
113 130 0
113 132 0
106 122 0
111 128 0
116 132 0
113 131 0
111 125 0
114 130 0
110 126 0
116 132 0
124 140 0
121 136 0
124 139 0
118 135 0
126 142 0
118 134 0
121 138 0
128 145 0
115 130 0
134 150 0
122 138 0
130 145 0
122 137 0
122 140 0
125 139 0
121 138 0
126 141 0
131 148 0
129 143 0
130 146 0
128 144 0
124 141 0
138 156 0
132 149 0
124 139 0
126 140 0
139 155 0
121 137 0
139 155 0
138 153 0
136 152 0
133 150 0
121 136 0
129 143 0
138 152 0
136 153 0
134 150 0
141 157 0
131 144 0
136 151 0
134 148 0
126 141 0
136 149 0
141 155 0
130 142 0
135 148 0
133 148 0
135 149 0
126 139 0
140 151 0
132 145 0
129 139 0
143 156 0
132 144 0
126 135 0
141 148 0
125 134 0
129 138 0
132 142 0
138 150 0
137 146 0
139 149 0
132 139 0
130 141 0
140 148 0
136 146 0
140 144 0
127 129 0
137 143 0
135 144 0
128 133 0
134 140 0
132 137 0
133 140 0
134 139 0
133 135 0
128 129 0
133 138 0
132 133 0
134 135 0
133 134 0
132 132 0
130 129 0
132 131 0
126 125 0
135 137 0
125 124 0
120 115 0
123 119 0
127 125 0
124 120 0
130 127 0
120 115 0
136 138 44
149 150 108
163 163 133
174 174 149
170 169 149
188 190 179
179 177 159
171 169 151
181 179 161
188 189 179
178 176 154
176 175 155
173 172 151
169 167 145
171 169 144
172 169 144
184 184 168
178 176 156
177 176 152
180 180 160
178 177 156
172 170 140
188 189 168
181 180 158
176 175 143
178 177 154
183 183 158
183 184 156
179 178 159
187 188 174
181 179 152
183 181 155
171 168 138
189 190 172
189 190 167
177 176 152
191 193 183
187 186 163
178 176 145
177 175 145
184 183 159
177 176 149
192 193 171
187 188 165
188 188 166
183 183 160
181 181 149
184 183 156
181 179 151
179 177 142
177 176 142
185 185 156
188 190 172
194 196 178
184 184 154
188 187 157
185 186 163
194 197 179
191 192 175
186 187 159
189 195 157
182 190 122
177 187 91
171 185 58
167 184 0
165 180 0
170 187 0
171 188 0
170 189 0
170 188 0
170 188 0
167 184 0
169 187 0
170 188 0
170 190 0
168 186 0
171 189 0
170 189 0
168 189 0
169 188 0
170 191 0
170 188 0
175 197 0
173 197 0
174 196 0
173 196 0
174 197 0
174 198 0
171 195 0
175 197 0
173 196 0
175 198 0
175 197 0
175 197 0
175 198 0
173 196 0
177 198 0
175 198 0
175 197 0
174 197 0
175 197 0
175 197 0
177 198 0
175 197 0
174 196 0
176 197 0
175 196 0
174 196 0
176 198 0
177 198 0
176 197 0
174 196 0
174 195 0
175 196 0
173 195 0
174 195 0
172 193 0
174 194 0
176 197 0
176 197 0
170 191 0
173 195 0
171 192 0
171 191 0
171 193 0
174 195 0
173 194 0
174 194 0
172 192 0
172 193 0
169 190 0
172 193 0
172 193 0
173 193 0
172 192 0
170 191 0
174 194 0
171 192 0
170 191 0
170 191 0
168 189 0
170 190 0
169 190 0
164 186 0
166 187 0
169 189 0
166 186 0
166 187 0
167 188 0
165 185 0
166 186 0
161 181 0
165 185 0
164 184 0
158 179 0
165 185 0
161 182 0
161 183 0
162 183 0
160 180 0
162 184 0
164 185 0
163 185 0
159 180 0
160 181 0
160 182 0
161 181 0
156 177 0
158 179 0
157 179 0
161 183 0
160 180 0
161 182 0
161 182 0
154 175 0
158 178 0
160 181 0
154 176 0
159 180 0
153 173 0
158 177 0
151 171 0
157 176 0
147 168 0
150 170 0
160 182 0
155 176 0
142 162 0
151 171 0
154 175 0
156 175 0
153 173 0
153 175 0
151 172 0
157 178 0
154 174 0
148 168 0
152 172 0
150 170 0
150 169 0
146 167 0
148 170 0
150 172 0
150 170 0
148 169 0
145 166 0
148 167 0
141 162 0
160 181 0
152 173 0
147 168 0
150 170 0
152 173 0
141 161 0
149 170 0
150 171 0
143 165 0
145 166 0
143 165 0
145 167 0
153 174 0
146 167 0
141 162 0
150 171 0
147 169 0
133 154 0
138 159 0
135 156 0
141 161 0
145 167 0
148 169 0
137 158 0
137 158 0
132 153 0
140 160 0
138 159 0
141 162 0
137 158 0
131 152 0
138 159 0
140 162 0
139 160 0
141 162 0
133 152 0
122 142 0
129 149 0
128 148 0
128 147 0
126 146 0
130 150 0
127 146 0
133 154 0
117 136 0
136 156 0
123 142 0
136 155 0
113 132 0
126 144 0
122 141 0
118 138 0
118 138 0
118 136 0
119 137 0
125 142 0
111 128 0
120 139 0
119 138 0
115 134 0
114 133 0
109 129 0
117 134 0
118 136 0
107 124 0
108 126 0
113 130 0
112 129 0
120 138 0
115 132 0
117 135 0
118 136 0
100 118 0
102 119 0
101 118 0
106 123 0
119 136 0
110 128 0
95 113 0
101 117 0
107 124 0
119 136 0
103 118 0
117 133 0
113 128 0
112 129 0
102 118 0
112 127 0
117 134 0
125 142 0
112 129 0
119 135 0
111 127 0
115 133 0
115 131 0
124 139 0
120 138 0
120 136 0
114 130 0
113 129 0
115 131 0
121 137 0
121 137 0
108 121 0
120 137 0
122 138 0
118 136 0
124 140 0
129 144 0
121 137 0
119 134 0
130 148 0
119 133 0
118 133 0
116 132 0
124 139 0
130 147 0
127 142 0
128 146 0
123 140 0
126 141 0
122 137 0
131 148 0
134 151 0
129 146 0
139 154 0
120 135 0
130 146 0
131 145 0
132 146 0
134 149 0
135 151 0
135 151 0
126 138 0
142 157 0
136 152 0
129 142 0
129 144 0
133 147 0
135 149 0
130 141 0
128 140 0
139 152 0
130 145 0
130 143 0
134 145 0
139 150 0
135 148 0
142 155 0
144 155 0
130 144 0
123 132 0
136 149 0
135 146 0
130 140 0
129 139 0
134 148 0
133 143 0
134 147 0
134 143 0
139 150 0
134 146 0
141 149 0
131 139 0
136 145 0
136 144 0
145 154 0
133 140 0
143 149 0
126 131 0
136 142 0
128 134 0
126 128 0
131 134 0
140 149 0
130 135 0
135 138 0
136 139 0
137 140 0
134 136 0
136 137 0
130 133 0
128 128 0
133 136 0
138 140 0
125 124 0
129 127 0
143 143 0
131 133 0
125 123 0
132 132 0
139 141 0
135 134 0
127 124 0
129 129 0
126 124 0
130 129 0
133 131 52
152 154 102
150 147 95
174 173 151
171 171 151
182 181 159
183 182 171
182 180 159
180 179 157
195 197 181
182 180 162
184 184 171
186 186 166
186 186 173
186 185 167
187 187 171
182 183 164
187 186 169
173 169 145
186 185 170
185 185 167
177 176 149
180 178 154
187 188 172
172 170 142
175 172 138
189 189 170
179 178 147
189 191 174
187 187 169
176 176 153
183 182 161
181 181 153
180 178 155
187 187 162
186 186 164
186 186 166
186 185 165
197 199 183
186 186 157
187 186 165
191 193 182
190 191 167
193 195 183
193 195 177
191 191 170
191 193 175
196 198 184
194 197 176
180 182 134
182 186 142
181 187 134
167 174 64
170 183 57
168 180 0
169 182 0
170 185 0
167 181 0
166 183 0
167 182 0
165 180 0
168 184 0
165 181 0
167 181 0
169 184 0
170 187 0
170 189 0
165 181 0
168 185 0
173 191 0
168 187 0
169 187 0
170 187 0
170 188 0
169 187 0
171 189 0
168 187 0
175 197 0
176 198 0
173 197 0
173 196 0
175 197 0
173 196 0
176 198 0
171 195 0
175 197 0
177 199 0
172 195 0
176 198 0
175 197 0
174 197 0
173 195 0
175 197 0
174 197 0
175 197 0
176 198 0
176 198 0
177 199 0
175 197 0
174 196 0
175 197 0
176 197 0
174 195 0
176 197 0
175 197 0
175 197 0
175 196 0
177 198 0
174 195 0
174 195 0
175 196 0
176 196 0
175 196 0
175 195 0
173 194 0
175 196 0
174 194 0
173 194 0
172 193 0
174 194 0
177 197 0
171 193 0
172 193 0
174 195 0
171 192 0
172 192 0
171 191 0
170 190 0
168 190 0
168 190 0
165 186 0
173 192 0
168 189 0
171 191 0
172 191 0
169 189 0
167 189 0
166 186 0
166 187 0
168 189 0
161 183 0
166 186 0
166 187 0
167 188 0
166 187 0
164 185 0
160 181 0
165 186 0
164 185 0
161 182 0
161 182 0
165 186 0
161 183 0
158 180 0
163 184 0
157 177 0
166 186 0
167 187 0
163 184 0
161 183 0
158 178 0
159 180 0
162 182 0
163 183 0
160 180 0
162 183 0
155 175 0
156 176 0
159 178 0
153 174 0
161 181 0
159 180 0
154 174 0
155 176 0
157 177 0
160 181 0
158 179 0
156 177 0
155 176 0
161 182 0
151 172 0
162 183 0
148 169 0
162 183 0
146 166 0
156 176 0
157 178 0
155 176 0
153 172 0
152 173 0
159 180 0
151 171 0
157 178 0
139 160 0
148 169 0
154 175 0
147 168 0
153 173 0
147 168 0
147 167 0
156 177 0
146 168 0
158 180 0
147 168 0
160 180 0
145 166 0
149 171 0
153 175 0
151 172 0
147 168 0
138 159 0
150 172 0
139 160 0
143 164 0
150 171 0
153 174 0
140 161 0
145 166 0
141 161 0
140 161 0
147 169 0
132 153 0
145 166 0
146 166 0
131 153 0
144 165 0
149 171 0
142 162 0
134 154 0
145 165 0
129 150 0
135 155 0
139 160 0
139 160 0
136 157 0
143 163 0
135 156 0
128 148 0
136 155 0
139 160 0
133 152 0
137 158 0
140 160 0
125 145 0
124 144 0
129 150 0
128 148 0
130 150 0
128 149 0
128 148 0
128 149 0
132 151 0
124 143 0
129 149 0
132 150 0
118 137 0
116 135 0
109 128 0
125 143 0
123 141 0
122 139 0
115 133 0
117 137 0
113 131 0
122 140 0
114 133 0
117 136 0
133 153 0
117 136 0
113 130 0
107 123 0
109 128 0
118 136 0
118 136 0
117 134 0
116 135 0
106 122 0
112 130 0
113 131 0
114 130 0
111 129 0
115 132 0
113 131 0
113 130 0
113 130 0
116 132 0
123 141 0
117 133 0
113 132 0
113 129 0
124 142 0
118 135 0
115 130 0
108 126 0
110 126 0
112 129 0
109 126 0
113 129 0
115 132 0
117 134 0
121 137 0
110 128 0
125 142 0
117 133 0
126 145 0
120 137 0
131 149 0
108 124 0
121 138 0
125 142 0
123 139 0
128 144 0
124 139 0
123 140 0
134 149 0
123 140 0
136 153 0
125 141 0
129 147 0
137 155 0
127 143 0
129 146 0
127 144 0
137 154 0
128 145 0
132 149 0
129 144 0
133 148 0
134 151 0
136 154 0
130 147 0
124 142 0
135 151 0
128 143 0
134 150 0
135 150 0
134 149 0
134 150 0
140 156 0
132 148 0
140 154 0
140 156 0
135 149 0
133 147 0
134 147 0
138 154 0
139 152 0
141 156 0
140 155 0
132 147 0
134 146 0
139 150 0
126 139 0
131 144 0
140 153 0
140 153 0
140 153 0
136 151 0
137 150 0
137 150 0
142 155 0
139 148 0
141 153 0
140 151 0
135 145 0
131 140 0
140 148 0
130 136 0
134 142 0
135 145 0
139 148 0
139 144 0
140 150 0
135 142 0
139 148 0
143 148 0
142 148 0
136 140 0
133 137 0
142 146 0
143 147 0
138 144 0
133 138 0
133 134 0
132 135 0
132 134 0
133 135 0
134 137 0
133 134 0
134 137 0
141 143 0
133 132 0
132 132 0
131 129 0
136 135 0
135 137 0
136 135 0
140 141 0
136 137 0
132 132 0
136 137 0
127 124 0
125 120 0
137 136 0
127 124 0
130 129 0
139 138 25
153 151 84
163 163 111
150 146 92
170 170 133
177 180 159
176 176 144
175 173 154
191 192 174
201 203 198
178 176 155
185 185 170
192 192 175
181 179 160
196 197 185
190 191 178
194 195 183
180 179 162
179 177 156
186 186 167
189 190 176
180 180 163
187 188 174
198 201 191
189 190 177
189 190 172
181 180 159
191 192 174
184 185 165
180 178 151
190 190 175
190 190 167
184 184 166
186 186 157
181 181 150
179 181 149
179 184 138
182 188 132
171 177 106
167 175 63
167 177 77
169 179 57
162 174 0
161 173 0
162 172 0
164 175 0
164 176 0
161 170 0
163 178 0
164 176 0
166 179 0
167 184 0
167 181 0
169 185 0
168 185 0
167 182 0
163 177 0
169 185 0
167 186 0
168 185 0
167 179 0
167 180 0
169 185 0
171 188 0
168 184 0
167 184 0
170 186 0
166 181 0
168 184 0
170 186 0
168 184 0
174 197 0
172 195 0
173 195 0
173 196 0
174 197 0
175 197 0
177 199 0
174 196 0
175 197 0
174 197 0
176 198 0
174 196 0
173 196 0
174 196 0
176 198 0
174 196 0
177 198 0
176 199 0
174 196 0
174 197 0
176 197 0
175 197 0
175 197 0
175 197 0
174 197 0
175 197 0
173 195 0
174 195 0
175 196 0
174 195 0
178 199 0
173 194 0
174 195 0
175 196 0
176 197 0
175 196 0
177 197 0
174 194 0
176 196 0
174 194 0
176 196 0
174 195 0
171 193 0
177 198 0
175 196 0
174 195 0
174 193 0
173 193 0
173 194 0
170 191 0
172 193 0
170 191 0
172 193 0
172 193 0
165 186 0
168 189 0
169 190 0
171 192 0
169 190 0
168 188 0
166 186 0
171 191 0
165 186 0
167 187 0
165 186 0
166 187 0
163 184 0
162 183 0
159 180 0
163 183 0
162 183 0
162 183 0
159 179 0
163 183 0
161 182 0
157 179 0
163 184 0
154 174 0
165 185 0
159 180 0
162 183 0
161 181 0
160 180 0
161 181 0
155 175 0
158 178 0
157 177 0
158 179 0
153 174 0
163 184 0
164 184 0
151 170 0
152 173 0
155 176 0
157 178 0
152 172 0
159 179 0
156 177 0
157 177 0
146 166 0
159 179 0
160 181 0
154 176 0
153 172 0
153 174 0
153 173 0
159 179 0
146 167 0
162 183 0
149 169 0
148 168 0
150 171 0
145 166 0
157 178 0
159 180 0
150 171 0
152 172 0
158 179 0
142 163 0
156 178 0
154 176 0
161 182 0
152 173 0
145 166 0
151 172 0
147 168 0
144 165 0
149 171 0
148 169 0
154 176 0
154 175 0
149 171 0
146 167 0
153 175 0
140 160 0
146 168 0
139 160 0
132 153 0
149 169 0
152 172 0
138 158 0
143 165 0
149 170 0
148 169 0
146 168 0
143 165 0
147 169 0
136 157 0
146 166 0
141 160 0
136 157 0
137 158 0
140 161 0
134 154 0
137 157 0
140 161 0
141 163 0
137 157 0
134 154 0
144 164 0
133 153 0
125 144 0
144 165 0
127 145 0
135 154 0
132 153 0
132 152 0
130 149 0
135 155 0
132 153 0
127 148 0
127 148 0
128 148 0
136 156 0
116 135 0
119 139 0
117 135 0
125 145 0
133 153 0
131 151 0
115 134 0
130 150 0
133 153 0
120 139 0
117 135 0
120 139 0
126 147 0
126 144 0
138 156 0
124 143 0
117 135 0
117 136 0
114 131 0
111 130 0
120 138 0
111 129 0
119 137 0
125 144 0
119 138 0
109 127 0
123 141 0
111 129 0
118 136 0
120 139 0
121 139 0
117 133 0
119 135 0
114 131 0
127 146 0
122 139 0
109 126 0
110 126 0
124 141 0
111 127 0
110 127 0
112 128 0
125 142 0
116 133 0
112 129 0
119 137 0
129 147 0
119 135 0
122 140 0
116 132 0
127 145 0
114 131 0
132 148 0
122 139 0
125 142 0
115 132 0
121 139 0
119 136 0
128 146 0
119 136 0
118 135 0
123 137 0
129 146 0
120 134 0
125 141 0
136 155 0
128 144 0
130 147 0
135 153 0
132 150 0
127 145 0
127 141 0
127 143 0
137 154 0
132 146 0
129 145 0
128 143 0
131 146 0
129 144 0
131 148 0
136 151 0
127 144 0
133 149 0
140 156 0
131 148 0
135 151 0
147 164 0
133 147 0
138 153 0
139 155 0
129 145 0
140 155 0
137 149 0
137 154 0
136 151 0
133 145 0
142 155 0
135 147 0
132 144 0
123 134 0
138 153 0
136 149 0
135 149 0
136 150 0
139 150 0
126 139 0
131 146 0
141 153 0
139 150 0
137 147 0
138 149 0
145 156 0
131 140 0
131 141 0
135 147 0
143 152 0
136 145 0
144 151 0
134 137 0
136 146 0
142 149 0
142 147 0
133 141 0
143 153 0
132 136 0
133 139 0
130 135 0
132 133 0
137 140 0
143 152 0
138 143 0
138 141 0
142 148 0
137 140 0
130 134 0
141 145 0
131 136 0
137 138 0
132 134 0
135 138 0
134 137 0
136 137 0
138 139 0
145 149 0
136 137 0
134 136 0
133 130 0
127 123 0
138 135 0
136 136 0
142 142 0
143 144 0
131 126 0
139 136 0
137 138 0
135 133 0
134 129 0
141 142 0
137 136 0
145 144 0
143 141 0
144 143 0
136 134 0
145 145 0
147 149 25
141 138 52
147 145 51
153 152 76
155 155 84
168 172 108
155 156 89
164 163 106
161 161 102
172 174 125
169 169 130
165 168 99
168 170 120
173 175 120
170 171 111
158 157 93
169 172 118
167 169 96
167 171 95
166 172 81
162 166 63
156 162 44
160 166 52
157 164 0
160 170 0
161 170 0
159 169 0
162 169 0
162 171 0
161 169 0
163 175 0
157 166 0
160 170 0
163 173 0
165 176 0
161 174 0
163 174 0
165 177 0
168 182 0
163 173 0
162 171 0
167 183 0
167 181 0
167 183 0
166 181 0
165 179 0
167 182 0
168 183 0
165 180 0
166 181 0
166 180 0
167 184 0
166 183 0
166 183 0
167 184 0
170 185 0
170 188 0
169 186 0
169 187 0
171 189 0
168 185 0
168 185 0
175 197 0
175 198 0
173 196 0
174 197 0
173 196 0
174 197 0
175 197 0
175 197 0
175 197 0
176 198 0
174 197 0
176 198 0
174 197 0
174 196 0
176 198 0
175 197 0
177 199 0
173 195 0
172 195 0
175 196 0
175 197 0
179 200 0
176 197 0
174 197 0
171 193 0
175 197 0
176 198 0
176 197 0
178 199 0
175 196 0
174 196 0
176 197 0
175 196 0
175 196 0
176 197 0
174 195 0
174 195 0
178 198 0
172 193 0
175 196 0
176 197 0
173 194 0
175 195 0
171 191 0
174 195 0
172 193 0
171 192 0
169 190 0
175 195 0
171 192 0
170 191 0
170 190 0
167 187 0
166 187 0
168 189 0
171 192 0
166 186 0
171 191 0
160 180 0
166 187 0
169 189 0
166 187 0
165 186 0
169 189 0
166 187 0
167 187 0
168 188 0
165 185 0
167 187 0
164 186 0
162 184 0
163 183 0
164 183 0
164 186 0
164 185 0
165 185 0
163 184 0
160 180 0
162 182 0
163 184 0
166 186 0
159 180 0
158 178 0
159 179 0
164 185 0
162 183 0
162 182 0
157 178 0
161 182 0
161 182 0
156 175 0
159 179 0
169 189 0
157 178 0
159 179 0
162 183 0
154 175 0
158 180 0
155 176 0
161 181 0
154 174 0
160 181 0
155 175 0
152 173 0
154 176 0
151 172 0
154 175 0
153 173 0
158 179 0
151 173 0
161 182 0
153 174 0
149 170 0
149 170 0
150 171 0
151 171 0
151 171 0
149 169 0
157 178 0
158 179 0
154 175 0
158 179 0
142 163 0
155 175 0
151 173 0
155 176 0
144 165 0
137 159 0
145 166 0
150 171 0
147 168 0
144 166 0
150 172 0
141 161 0
135 157 0
154 176 0
152 173 0
146 166 0
148 169 0
144 165 0
143 165 0
146 167 0
145 166 0
148 169 0
144 165 0
138 160 0
145 166 0
137 158 0
151 173 0
150 171 0
137 157 0
137 158 0
140 161 0
135 157 0
141 162 0
137 158 0
135 157 0
148 168 0
127 148 0
135 156 0
133 153 0
134 154 0
131 151 0
137 157 0
133 153 0
137 158 0
128 147 0
123 144 0
134 154 0
133 153 0
134 155 0
130 151 0
131 151 0
120 139 0
140 160 0
123 142 0
130 151 0
131 150 0
128 147 0
125 145 0
127 147 0
133 152 0
123 142 0
121 138 0
122 141 0
128 146 0
129 150 0
134 153 0
113 132 0
123 142 0
111 129 0
126 145 0
114 132 0
115 133 0
107 124 0
116 134 0
113 130 0
132 151 0
124 143 0
118 137 0
119 138 0
121 140 0
121 140 0
117 135 0
124 142 0
109 126 0
125 142 0
119 136 0
126 144 0
117 136 0
111 128 0
110 128 0
122 139 0
125 144 0
121 138 0
124 142 0
129 147 0
116 132 0
109 125 0
124 141 0
120 137 0
120 138 0
123 140 0
117 136 0
132 148 0
138 157 0
115 131 0
136 155 0
128 145 0
128 145 0
115 133 0
129 148 0
131 149 0
124 140 0
139 156 0
123 140 0
125 140 0
118 135 0
127 144 0
126 143 0
118 135 0
131 148 0
122 138 0
137 156 0
132 147 0
128 144 0
138 154 0
133 150 0
130 145 0
143 159 0
133 150 0
133 151 0
132 150 0
134 151 0
131 147 0
127 141 0
143 160 0
126 141 0
132 149 0
128 143 0
135 149 0
134 147 0
146 162 0
122 136 0
132 148 0
134 148 0
135 149 0
134 149 0
137 150 0
140 155 0
130 146 0
141 154 0
139 153 0
137 153 0
145 159 0
144 158 0
137 150 0
137 149 0
139 152 0
136 150 0
140 153 0
134 146 0
137 151 0
138 150 0
144 158 0
140 151 0
141 153 0
138 147 0
140 153 0
139 150 0
134 143 0
133 143 0
145 157 0
131 139 0
142 152 0
135 140 0
139 144 0
137 144 0
139 146 0
130 136 0
141 149 0
138 144 0
141 150 0
142 148 0
138 145 0
129 134 0
147 153 0
147 152 0
134 137 0
141 148 0
139 143 0
142 147 0
136 141 0
136 139 0
137 140 0
132 136 0
135 136 0
138 139 0
143 143 0
139 140 0
142 144 0
145 148 0
129 128 0
138 139 0
132 130 0
139 140 0
135 133 0
139 141 0
143 144 0
142 144 0
132 129 0
145 147 0
138 137 0
133 130 0
137 136 0
141 141 0
132 130 0
136 136 0
144 144 0
143 143 0
146 146 0
143 144 0
147 149 0
146 148 0
144 143 0
146 148 0
145 145 0
155 158 0
156 160 0
151 155 0
146 148 0
150 155 0
150 153 0
156 163 0
157 162 0
150 153 0
155 160 0
156 163 0
154 160 0
156 161 0
156 162 0
160 168 0
158 165 0
160 166 0
157 165 0
161 170 0
161 173 0
161 169 0
156 166 0
164 174 0
159 169 0
163 175 0
164 175 0
161 173 0
163 176 0
165 173 0
169 182 0
164 174 0
163 174 0
165 179 0
165 178 0
165 179 0
166 176 0
165 180 0
166 182 0
166 181 0
166 182 0
164 180 0
167 182 0
166 181 0
165 181 0
168 185 0
169 184 0
166 180 0
166 180 0
170 188 0
167 182 0
169 186 0
167 184 0
169 187 0
173 196 0
175 197 0
173 196 0
176 198 0
175 198 0
174 196 0
176 198 0
175 198 0
175 198 0
173 196 0
172 195 0
175 197 0
177 199 0
175 197 0
172 195 0
173 195 0
175 197 0
173 195 0
177 198 0
176 197 0
174 196 0
177 199 0
174 196 0
175 197 0
174 196 0
174 196 0
176 197 0
174 196 0
176 197 0
175 196 0
176 197 0
177 197 0
172 194 0
174 195 0
177 198 0
173 193 0
176 196 0
171 192 0
172 193 0
175 195 0
173 193 0
176 197 0
174 194 0
175 195 0
173 194 0
170 190 0
175 195 0
171 191 0
170 191 0
169 190 0
170 190 0
171 190 0
169 190 0
166 187 0
168 189 0
167 188 0
169 190 0
170 190 0
169 189 0
167 186 0
169 190 0
171 190 0
165 187 0
169 190 0
166 187 0
168 188 0
165 186 0
162 183 0
168 189 0
168 189 0
161 182 0
164 185 0
161 183 0
159 180 0
163 183 0
165 186 0
161 182 0
159 180 0
168 188 0
165 186 0
161 181 0
168 188 0
157 177 0
164 184 0
164 185 0
153 173 0
159 180 0
157 178 0
156 176 0
165 185 0
160 180 0
160 181 0
163 182 0
159 179 0
161 182 0
153 174 0
155 176 0
158 179 0
164 184 0
154 174 0
153 173 0
150 171 0
155 175 0
155 177 0
148 169 0
148 169 0
153 175 0
152 173 0
153 174 0
154 174 0
157 177 0
152 173 0
155 176 0
152 173 0
155 177 0
152 173 0
159 180 0
158 179 0
146 166 0
151 171 0
148 170 0
146 167 0
150 172 0
157 178 0
147 168 0
149 169 0
152 173 0
147 168 0
153 174 0
153 173 0
145 166 0
146 167 0
155 175 0
142 164 0
152 174 0
145 166 0
147 168 0
136 157 0
151 172 0
146 168 0
153 175 0
134 156 0
140 162 0
149 171 0
146 166 0
148 169 0
136 157 0
139 160 0
147 168 0
142 163 0
144 165 0
139 160 0
143 164 0
135 156 0
142 163 0
136 156 0
139 160 0
135 156 0
148 168 0
131 151 0
133 153 0
134 155 0
141 162 0
142 161 0
136 156 0
135 156 0
136 157 0
130 150 0
122 142 0
137 158 0
144 165 0
133 152 0
135 155 0
124 145 0
129 149 0
131 151 0
127 145 0
131 150 0
131 150 0
127 146 0
131 151 0
136 156 0
123 140 0
133 151 0
117 136 0
123 143 0
121 139 0
117 136 0
116 135 0
129 148 0
131 150 0
126 143 0
125 144 0
128 146 0
114 133 0
126 144 0
112 130 0
113 131 0
119 137 0
137 156 0
120 139 0
110 127 0
124 143 0
119 137 0
124 143 0
111 130 0
114 132 0
119 138 0
121 140 0
124 142 0
121 140 0
132 151 0
120 137 0
116 134 0
104 120 0
130 147 0
124 141 0
120 138 0
110 129 0
116 134 0
123 140 0
124 140 0
129 148 0
114 131 0
120 138 0
129 146 0
129 147 0
127 144 0
128 147 0
124 142 0
130 148 0
126 144 0
122 140 0
119 135 0
135 153 0
115 129 0
130 148 0
129 145 0
138 155 0
135 154 0
122 139 0
132 150 0
129 145 0
130 146 0
128 144 0
131 149 0
142 158 0
132 148 0
142 160 0
124 141 0
131 148 0
141 157 0
136 154 0
114 128 0
137 156 0
140 156 0
134 150 0
126 141 0
138 155 0
139 155 0
139 153 0
132 149 0
135 151 0
144 161 0
137 152 0
132 146 0
147 164 0
136 153 0
153 170 0
136 150 0
145 164 0
135 149 0
142 158 0
133 148 0
145 160 0
135 150 0
138 151 0
142 155 0
137 150 0
145 156 0
141 155 0
142 155 0
139 152 0
143 158 0
132 146 0
136 146 0
141 154 0
141 153 0
148 161 0
136 145 0
131 140 0
143 154 0
139 151 0
145 158 0
143 155 0
136 142 0
134 142 0
136 146 0
144 153 0
139 149 0
139 149 0
141 149 0
141 147 0
142 148 0
136 144 0
142 148 0
135 140 0
133 137 0
141 148 0
131 135 0
130 133 0
143 149 0
145 151 0
141 144 0
146 150 0
140 141 0
138 141 0
144 151 0
140 141 0
136 139 0
141 143 0
142 144 0
130 129 0
142 146 0
139 138 0
141 137 0
136 138 0
134 132 0
143 144 0
139 140 0
144 144 0
144 145 0
140 138 0
144 145 0
138 137 0
144 146 0
147 151 0
141 141 0
147 148 0
137 130 0
146 146 0
149 147 0
141 142 0
146 147 0
147 149 0
148 151 0
147 150 0
151 156 0
148 151 0
150 153 0
149 151 0
153 157 0
151 154 0
154 158 0
158 163 0
155 159 0
155 159 0
154 157 0
152 157 0
156 163 0
154 159 0
155 162 0
154 158 0
159 166 0
161 171 0
155 164 0
166 178 0
158 167 0
163 173 0
160 168 0
165 175 0
158 166 0
160 168 0
161 170 0
165 177 0
164 174 0
164 176 0
165 177 0
161 173 0
165 178 0
163 174 0
166 180 0
166 180 0
165 177 0
166 179 0
167 180 0
167 182 0
171 185 0
166 180 0
164 177 0
165 180 0
170 186 0
170 187 0
168 183 0
168 184 0
171 187 0
167 183 0
168 182 0
169 186 0
170 187 0
173 196 0
177 199 0
175 197 0
174 196 0
176 198 0
175 197 0
175 197 0
173 196 0
175 198 0
175 198 0
175 197 0
175 197 0
175 196 0
174 197 0
177 198 0
172 193 0
176 197 0
174 196 0
177 198 0
174 196 0
175 197 0
177 199 0
176 197 0
176 197 0
174 196 0
175 196 0
176 197 0
176 197 0
174 195 0
176 197 0
176 197 0
178 198 0
176 197 0
175 197 0
176 197 0
174 194 0
174 194 0
172 192 0
177 197 0
172 192 0
175 195 0
173 193 0
174 194 0
174 195 0
172 193 0
171 192 0
174 195 0
172 193 0
175 195 0
171 192 0
173 194 0
168 189 0
169 190 0
170 191 0
170 191 0
173 194 0
165 186 0
167 186 0
170 191 0
166 188 0
166 186 0
163 183 0
163 183 0
165 186 0
166 187 0
167 187 0
168 188 0
164 185 0
163 184 0
163 184 0
164 185 0
162 183 0
169 189 0
163 185 0
165 185 0
164 184 0
164 186 0
159 179 0
167 187 0
165 185 0
163 183 0
159 180 0
165 186 0
158 179 0
158 178 0
158 179 0
159 180 0
153 173 0
160 181 0
161 182 0
162 182 0
155 176 0
151 172 0
161 181 0
155 176 0
164 185 0
159 178 0
162 182 0
158 178 0
161 181 0
149 171 0
161 182 0
158 179 0
153 173 0
156 177 0
150 170 0
153 174 0
150 170 0
149 170 0
155 176 0
149 169 0
151 172 0
147 168 0
149 170 0
155 176 0
160 181 0
153 174 0
157 178 0
155 177 0
153 174 0
151 173 0
149 170 0
147 168 0
152 174 0
152 173 0
153 173 0
157 179 0
155 177 0
145 166 0
149 170 0
149 171 0
147 168 0
153 175 0
142 164 0
147 169 0
151 173 0
146 168 0
149 170 0
146 168 0
143 164 0
150 172 0
149 170 0
146 168 0
145 168 0
148 171 0
150 172 0
150 171 0
149 170 0
136 158 0
145 168 0
127 147 0
136 157 0
151 172 0
140 161 0
137 158 0
144 166 0
143 163 0
147 168 0
133 155 0
129 150 0
134 154 0
139 160 0
138 159 0
139 160 0
130 150 0
134 154 0
132 151 0
136 156 0
145 164 0
140 160 0
120 139 0
130 151 0
129 149 0
128 147 0
131 152 0
135 155 0
133 153 0
132 151 0
134 153 0
128 148 0
139 157 0
127 148 0
126 146 0
138 158 0
117 137 0
124 144 0
121 141 0
126 144 0
117 136 0
135 155 0
123 143 0
126 144 0
117 136 0
123 142 0
125 145 0
125 142 0
125 144 0
127 144 0
130 149 0
121 141 0
117 135 0
132 151 0
107 126 0
111 128 0
131 150 0
121 140 0
127 145 0
125 146 0
118 137 0
126 144 0
125 141 0
117 136 0
135 155 0
123 142 0
135 154 0
118 136 0
131 148 0
116 133 0
129 148 0
126 143 0
128 147 0
133 153 0
129 145 0
127 144 0
119 137 0
133 153 0
139 157 0
130 148 0
137 154 0
126 142 0
133 151 0
135 153 0
130 149 0
129 146 0
135 151 0
125 142 0
128 145 0
128 145 0
117 133 0
138 157 0
138 156 0
124 141 0
130 150 0
129 148 0
134 150 0
128 147 0
130 146 0
133 150 0
133 147 0
135 152 0
132 147 0
131 149 0
134 148 0
141 159 0
133 152 0
136 154 0
135 149 0
137 154 0
139 156 0
130 147 0
135 150 0
145 162 0
143 162 0
135 150 0
139 154 0
143 159 0
143 161 0
133 148 0
140 156 0
133 147 0
141 158 0
136 149 0
134 147 0
134 147 0
139 155 0
147 162 0
137 152 0
144 157 0
138 153 0
141 155 0
144 161 0
138 150 0
136 148 0
140 153 0
144 157 0
134 146 0
140 150 0
129 139 0
134 147 0
138 148 0
138 151 0
139 148 0
140 147 0
141 153 0
141 149 0
134 145 0
142 151 0
140 152 0
140 149 0
143 152 0
142 151 0
138 146 0
140 146 0
131 136 0
146 155 0
134 138 0
145 151 0
139 144 0
137 142 0
141 146 0
141 144 0
139 144 0
146 151 0
141 146 0
146 151 0
144 148 0
144 146 0
137 141 0
143 145 0
145 148 0
142 145 0
144 148 0
144 145 0
139 142 0
147 149 0
148 152 0
144 148 0
138 140 0
141 140 0
145 150 0
139 140 0
146 146 0
137 133 0
132 128 0
141 141 0
147 151 0
148 148 0
143 142 0
135 133 0
140 140 0
143 140 0
149 149 0
149 151 0
145 144 0
149 148 0
152 156 0
153 157 0
147 148 0
147 147 0
151 153 0
153 157 0
156 160 0
153 157 0
154 158 0
150 152 0
156 163 0
154 159 0
158 165 0
152 153 0
167 176 0
159 165 0
151 154 0
158 164 0
158 165 0
158 166 0
159 168 0
158 164 0
158 166 0
163 172 0
162 171 0
161 168 0
163 174 0
161 171 0
160 169 0
164 174 0
166 176 0
164 175 0
166 180 0
165 176 0
165 177 0
165 178 0
167 181 0
165 178 0
166 177 0
164 179 0
164 176 0
165 180 0
168 180 0
164 180 0
169 184 0
163 175 0
166 179 0
164 179 0
169 187 0
168 184 0
167 183 0
167 182 0
168 183 0
170 183 0
170 187 0
175 198 0
175 197 0
175 197 0
176 198 0
175 197 0
175 197 0
175 197 0
176 198 0
174 196 0
175 197 0
176 198 0
175 198 0
176 197 0
175 197 0
175 197 0
176 198 0
176 198 0
174 197 0
176 197 0
173 196 0
176 197 0
176 198 0
177 198 0
176 197 0
173 195 0
175 196 0
175 196 0
173 194 0
174 195 0
176 197 0
172 194 0
173 195 0
173 194 0
176 196 0
176 198 0
176 196 0
174 194 0
175 196 0
174 194 0
175 196 0
175 196 0
174 195 0
169 190 0
171 192 0
172 193 0
171 192 0
170 191 0
172 193 0
171 191 0
169 190 0
173 193 0
172 193 0
172 193 0
166 187 0
173 194 0
161 182 0
172 192 0
170 191 0
171 191 0
169 189 0
164 185 0
167 189 0
169 189 0
163 185 0
161 182 0
165 185 0
168 188 0
169 190 0
163 185 0
170 189 0
161 182 0
161 182 0
163 184 0
162 182 0
166 187 0
160 181 0
165 185 0
160 180 0
160 181 0
155 176 0
164 184 0
161 181 0
164 184 0
158 179 0
162 183 0
159 179 0
155 175 0
162 182 0
161 182 0
160 181 0
161 181 0
161 180 0
161 182 0
157 177 0
160 181 0
160 181 0
157 178 0
148 167 0
155 176 0
153 175 0
160 181 0
152 173 0
157 178 0
158 178 0
150 171 0
157 177 0
160 182 0
154 175 0
153 174 0
147 167 0
147 168 0
159 179 0
152 173 0
153 174 0
151 173 0
158 180 0
155 177 0
151 172 0
154 175 0
153 175 0
156 177 0
155 176 0
152 174 0
150 172 0
145 167 0
156 178 0
152 172 0
139 160 0
140 162 0
147 168 0
146 168 0
145 167 0
144 167 0
148 169 0
148 170 0
149 171 0
149 171 0
148 170 0
136 158 0
149 171 0
151 172 0
146 168 0
145 167 0
145 166 0
142 164 0
140 161 0
142 163 0
145 166 0
150 171 0
142 163 0
142 161 0
141 161 0
138 159 0
148 170 0
128 149 0
136 157 0
147 168 0
134 155 0
137 158 0
128 149 0
139 160 0
141 162 0
128 150 0
146 167 0
138 158 0
133 154 0
137 158 0
146 168 0
137 156 0
132 152 0
140 160 0
138 159 0
140 159 0
132 153 0
136 156 0
137 156 0
132 152 0
136 156 0
139 159 0
128 149 0
123 143 0
131 150 0
126 145 0
131 150 0
132 152 0
124 144 0
125 145 0
139 159 0
115 135 0
135 153 0
124 143 0
126 144 0
129 148 0
124 144 0
121 139 0
129 149 0
121 140 0
132 150 0
131 149 0
124 142 0
124 143 0
129 149 0
127 146 0
128 147 0
133 151 0
120 137 0
115 133 0
125 143 0
134 152 0
127 145 0
140 158 0
126 145 0
131 150 0
130 149 0
122 139 0
131 148 0
128 146 0
123 141 0
126 143 0
132 151 0
126 145 0
130 149 0
132 148 0
128 148 0
126 144 0
136 153 0
130 147 0
116 134 0
129 145 0
137 156 0
128 145 0
132 151 0
136 155 0
129 147 0
126 144 0
131 149 0
132 150 0
141 158 0
125 143 0
127 145 0
138 155 0
142 162 0
125 141 0
133 152 0
135 150 0
142 158 0
140 157 0
133 150 0
136 154 0
133 150 0
136 154 0
136 153 0
135 151 0
139 157 0
135 150 0
135 153 0
130 148 0
133 150 0
136 153 0
135 153 0
138 156 0
137 153 0
132 148 0
135 149 0
129 143 0
139 155 0
130 144 0
134 149 0
125 140 0
139 155 0
136 149 0
136 151 0
144 158 0
150 166 0
141 154 0
141 155 0
136 150 0
141 154 0
144 158 0
142 155 0
132 145 0
138 153 0
140 155 0
144 157 0
146 162 0
142 154 0
139 151 0
145 156 0
141 152 0
142 153 0
139 149 0
137 150 0
143 157 0
134 143 0
150 160 0
142 152 0
141 153 0
144 153 0
155 165 0
145 155 0
141 151 0
139 147 0
145 155 0
145 153 0
128 133 0
141 151 0
141 147 0
141 147 0
144 153 0
138 143 0
143 149 0
142 150 0
139 143 0
146 153 0
142 146 0
140 146 0
138 141 0
140 144 0
135 137 0
143 147 0
144 150 0
147 151 0
142 146 0
150 155 0
146 151 0
144 148 0
137 139 0
144 148 0
143 145 0
142 145 0
140 143 0
147 147 0
149 155 0
141 143 0
144 144 0
143 142 0
145 145 0
145 149 0
143 145 0
141 142 0
147 151 0
145 147 0
151 153 0
144 146 0
146 147 0
153 158 0
149 152 0
147 150 0
153 158 0
150 149 0
149 149 0
153 156 0
157 161 0
151 154 0
156 161 0
149 151 0
152 153 0
156 161 0
154 156 0
151 158 0
156 162 0
158 163 0
156 160 0
154 161 0
158 163 0
159 167 0
156 159 0
159 165 0
159 166 0
159 166 0
161 169 0
162 174 0
163 174 0
162 173 0
159 167 0
160 171 0
162 172 0
163 171 0
162 174 0
166 178 0
157 165 0
159 169 0
162 173 0
163 175 0
167 181 0
166 180 0
164 176 0
167 178 0
163 175 0
168 181 0
166 179 0
164 176 0
168 184 0
164 177 0
166 182 0
166 181 0
168 184 0
167 182 0
168 182 0
170 187 0
176 198 0
173 196 0
174 196 0
172 194 0
176 198 0
175 197 0
175 197 0
174 196 0
176 198 0
175 197 0
176 197 0
175 197 0
175 196 0
177 198 0
176 198 0
174 196 0
172 194 0
175 197 0
174 195 0
177 197 0
174 196 0
176 197 0
176 196 0
174 195 0
174 195 0
175 196 0
179 199 0
176 197 0
175 196 0
174 195 0
175 195 0
174 195 0
172 193 0
172 193 0
171 192 0
176 196 0
174 194 0
172 193 0
172 193 0
173 193 0
174 194 0
174 195 0
171 192 0
171 192 0
170 190 0
173 193 0
169 189 0
172 192 0
170 191 0
172 193 0
174 194 0
172 193 0
168 189 0
169 190 0
171 191 0
170 190 0
171 191 0
165 187 0
169 189 0
162 183 0
167 188 0
165 186 0
170 190 0
173 194 0
167 188 0
167 188 0
173 192 0
165 186 0
167 188 0
167 188 0
168 189 0
166 187 0
160 181 0
170 191 0
155 176 0
168 189 0
164 184 0
166 185 0
163 184 0
163 184 0
165 186 0
163 183 0
167 187 0
159 179 0
163 183 0
164 185 0
156 177 0
161 182 0
162 183 0
155 176 0
154 174 0
157 178 0
161 182 0
161 182 0
157 179 0
157 177 0
161 181 0
151 172 0
163 183 0
157 177 0
154 174 0
160 180 0
157 178 0
159 180 0
156 177 0
156 178 0
158 179 0
153 174 0
155 176 0
151 171 0
155 177 0
151 172 0
153 174 0
158 179 0
153 175 0
151 173 0
145 166 0
152 173 0
150 172 0
154 176 0
150 171 0
150 172 0
159 180 0
142 164 0
148 169 0
149 170 0
150 172 0
140 161 0
151 173 0
152 173 0
150 171 0
150 172 0
145 165 0
154 176 0
145 167 0
149 171 0
142 163 0
147 168 0
147 169 0
148 170 0
144 165 0
143 165 0
152 173 0
150 171 0
142 163 0
149 171 0
132 153 0
151 172 0
139 160 0
144 164 0
136 157 0
151 172 0
145 166 0
137 159 0
147 168 0
141 161 0
140 161 0
154 175 0
149 171 0
137 158 0
140 161 0
133 153 0
143 164 0
137 157 0
144 164 0
140 162 0
136 156 0
134 154 0
140 161 0
137 157 0
121 142 0
134 153 0
135 155 0
142 163 0
134 156 0
139 158 0
131 152 0
133 152 0
130 151 0
140 160 0
133 152 0
146 167 0
136 156 0
132 152 0
132 153 0
132 151 0
127 147 0
134 155 0
123 142 0
132 151 0
125 145 0
126 146 0
126 144 0
124 144 0
135 155 0
130 149 0
124 143 0
127 147 0
123 141 0
124 143 0
131 149 0
129 148 0
130 149 0
131 149 0
133 152 0
122 142 0
122 141 0
131 149 0
121 139 0
120 139 0
128 145 0
138 157 0
123 142 0
125 143 0
141 161 0
124 142 0
136 154 0
129 148 0
132 149 0
134 153 0
121 139 0
123 141 0
122 140 0
124 142 0
122 138 0
131 149 0
128 147 0
129 148 0
134 153 0
137 155 0
119 136 0
122 141 0
134 153 0
135 152 0
132 150 0
129 149 0
131 148 0
123 141 0
134 153 0
130 148 0
131 146 0
136 154 0
136 153 0
130 149 0
137 156 0
135 152 0
130 147 0
129 145 0
138 156 0
134 153 0
137 154 0
139 156 0
136 152 0
142 160 0
141 158 0
133 151 0
133 151 0
134 151 0
141 158 0
140 156 0
134 152 0
138 155 0
143 158 0
134 151 0
142 157 0
139 156 0
144 161 0
136 148 0
136 152 0
135 153 0
142 157 0
138 151 0
135 149 0
138 154 0
132 148 0
134 150 0
141 154 0
141 156 0
139 153 0
139 153 0
141 154 0
142 156 0
139 154 0
138 149 0
140 152 0
148 164 0
142 156 0
143 155 0
136 149 0
138 149 0
140 150 0
133 144 0
140 151 0
140 151 0
137 147 0
149 161 0
143 154 0
144 154 0
148 157 0
139 150 0
138 148 0
140 149 0
135 144 0
137 146 0
147 156 0
137 144 0
143 151 0
137 144 0
142 148 0
149 159 0
138 143 0
148 156 0
141 148 0
140 145 0
138 141 0
143 149 0
137 140 0
142 148 0
137 140 0
150 159 0
142 146 0
154 160 0
142 145 0
138 143 0
146 152 0
145 148 0
144 148 0
143 144 0
147 150 0
141 142 0
146 148 0
143 144 0
142 146 0
147 148 0
147 147 0
144 146 0
152 157 0
149 150 0
149 152 0
148 151 0
141 142 0
143 144 0
140 141 0
148 149 0
148 151 0
144 143 0
153 157 0
148 149 0
153 156 0
152 154 0
150 154 0
150 153 0
147 146 0
147 147 0
153 158 0
150 151 0
160 169 0
155 162 0
153 157 0
150 153 0
153 158 0
154 158 0
156 163 0
155 160 0
153 158 0
160 167 0
165 176 0
155 162 0
159 167 0
160 168 0
163 173 0
156 162 0
162 174 0
157 163 0
164 173 0
162 167 0
163 172 0
166 178 0
161 171 0
163 174 0
161 173 0
165 177 0
165 176 0
159 172 0
164 176 0
159 169 0
170 184 0
164 175 0
167 182 0
165 177 0
168 183 0
163 175 0
167 182 0
163 176 0
168 183 0
164 178 0
164 178 0
165 180 0
168 184 0
167 180 0
174 196 0
174 197 0
176 198 0
175 197 0
173 195 0
175 197 0
174 195 0
173 196 0
176 197 0
177 198 0
176 198 0
173 195 0
175 197 0
174 196 0
172 194 0
175 197 0
174 196 0
175 197 0
172 194 0
176 197 0
176 197 0
175 196 0
175 196 0
174 195 0
173 194 0
176 197 0
175 196 0
176 196 0
176 197 0
170 191 0
175 196 0
175 196 0
172 194 0
173 195 0
174 194 0
170 191 0
173 194 0
171 192 0
174 195 0
170 192 0
168 189 0
176 196 0
169 190 0
168 190 0
172 193 0
169 190 0
171 192 0
171 192 0
173 193 0
169 190 0
172 192 0
170 190 0
173 192 0
169 189 0
168 189 0
169 188 0
168 188 0
166 187 0
170 191 0
167 188 0
172 193 0
167 187 0
169 189 0
167 187 0
170 190 0
168 189 0
160 180 0
166 186 0
167 186 0
167 188 0
167 187 0
169 189 0
164 184 0
166 186 0
162 182 0
164 185 0
166 186 0
164 184 0
162 183 0
154 175 0
164 184 0
159 179 0
162 184 0
164 183 0
155 175 0
160 180 0
153 173 0
162 182 0
163 183 0
162 183 0
158 179 0
162 181 0
159 180 0
158 179 0
164 185 0
156 177 0
158 179 0
156 177 0
150 171 0
154 176 0
160 182 0
156 177 0
157 178 0
153 175 0
157 177 0
150 172 0
160 181 0
156 177 0
157 179 0
152 173 0
158 180 0
156 178 0
153 174 0
159 180 0
158 180 0
156 176 0
154 176 0
159 180 0
157 180 0
146 168 0
156 178 0
151 172 0
152 173 0
155 177 0
154 176 0
153 175 0
153 175 0
144 166 0
149 170 0
150 172 0
146 166 0
148 168 0
150 172 0
147 169 0
149 170 0
154 175 0
148 169 0
142 162 0
148 169 0
143 164 0
144 165 0
151 172 0
148 170 0
143 164 0
144 165 0
133 153 0
151 172 0
147 169 0
148 170 0
145 166 0
150 171 0
144 165 0
141 161 0
140 161 0
142 163 0
130 152 0
139 161 0
144 166 0
140 160 0
140 161 0
147 168 0
139 160 0
139 160 0
137 159 0
140 161 0
131 152 0
134 153 0
136 158 0
142 163 0
136 156 0
135 155 0
138 159 0
137 158 0
132 152 0
127 147 0
132 153 0
138 158 0
131 151 0
138 157 0
127 146 0
126 147 0
133 154 0
133 154 0
124 144 0
126 145 0
133 153 0
123 143 0
127 147 0
116 136 0
126 147 0
129 149 0
147 168 0
134 155 0
137 156 0
125 144 0
135 152 0
128 146 0
126 147 0
124 143 0
131 150 0
126 145 0
126 144 0
133 152 0
133 151 0
125 142 0
135 154 0
136 156 0
134 154 0
134 153 0
129 148 0
126 145 0
122 138 0
118 136 0
129 148 0
120 140 0
126 143 0
140 159 0
129 147 0
122 140 0
132 152 0
136 152 0
135 153 0
138 158 0
124 144 0
125 143 0
126 145 0
121 140 0
138 156 0
135 153 0
125 144 0
128 147 0
136 154 0
121 139 0
131 148 0
130 149 0
132 150 0
136 156 0
123 141 0
131 148 0
140 160 0
128 148 0
143 163 0
136 152 0
133 150 0
139 158 0
141 159 0
142 162 0
137 155 0
132 149 0
143 161 0
137 154 0
131 146 0
141 159 0
136 153 0
133 152 0
141 159 0
133 151 0
143 159 0
140 155 0
136 155 0
139 157 0
147 165 0
141 157 0
139 154 0
140 154 0
144 160 0
138 156 0
141 160 0
138 155 0
137 154 0
142 159 0
136 154 0
137 153 0
138 154 0
144 162 0
139 153 0
144 159 0
139 155 0
139 154 0
137 150 0
145 162 0
142 156 0
147 160 0
140 154 0
138 154 0
143 155 0
136 148 0
143 155 0
140 153 0
149 164 0
152 163 0
139 153 0
145 161 0
149 158 0
143 154 0
152 165 0
150 160 0
135 146 0
141 151 0
147 159 0
146 156 0
149 160 0
144 155 0
141 151 0
144 154 0
147 156 0
152 163 0
147 157 0
136 141 0
147 156 0
140 146 0
144 150 0
152 159 0
141 149 0
146 152 0
140 147 0
140 144 0
140 142 0
141 147 0
139 143 0
144 148 0
145 152 0
143 148 0
146 149 0
143 145 0
149 155 0
147 151 0
136 137 0
145 149 0
143 145 0
144 147 0
140 141 0
142 147 0
143 144 0
149 152 0
146 148 0
138 139 0
145 147 0
148 150 0
150 155 0
149 152 0
149 152 0
152 152 0
145 143 0
152 155 0
152 156 0
156 161 0
142 144 0
147 148 0
156 163 0
149 151 0
145 146 0
150 154 0
145 146 0
152 155 0
145 147 0
150 151 0
153 157 0
152 154 0
153 157 0
155 162 0
160 168 0
147 147 0
153 159 0
158 168 0
161 167 0
160 167 0
154 158 0
157 166 0
159 165 0
159 169 0
161 169 0
161 167 0
161 167 0
159 167 0
162 171 0
160 171 0
163 173 0
166 179 0
163 173 0
165 175 0
162 171 0
160 171 0
164 177 0
164 174 0
161 172 0
166 177 0
165 177 0
162 176 0
165 178 0
166 177 0
167 182 0
169 185 0
168 183 0
163 177 0
168 184 0
165 179 0
167 179 0
170 187 0
168 183 0
176 198 0
176 198 0
173 195 0
175 198 0
174 196 0
175 198 0
177 198 0
175 196 0
176 198 0
174 196 0
176 197 0
172 194 0
172 195 0
176 197 0
175 196 0
174 196 0
175 196 0
176 197 0
174 196 0
175 197 0
177 198 0
176 197 0
173 195 0
177 197 0
174 195 0
177 197 0
176 196 0
176 197 0
172 192 0
173 195 0
174 195 0
173 194 0
172 192 0
174 195 0
172 194 0
169 190 0
171 192 0
175 195 0
170 191 0
169 190 0
171 192 0
171 191 0
172 193 0
175 195 0
172 192 0
170 191 0
174 194 0
168 189 0
171 192 0
172 192 0
169 189 0
172 193 0
170 190 0
171 191 0
170 190 0
165 186 0
167 188 0
168 189 0
174 193 0
168 189 0
169 189 0
172 193 0
168 188 0
171 191 0
162 183 0
169 190 0
170 190 0
166 188 0
163 184 0
167 189 0
161 182 0
165 184 0
162 181 0
165 185 0
166 187 0
166 186 0
161 182 0
164 185 0
161 182 0
163 184 0
164 185 0
167 187 0
159 180 0
159 181 0
164 185 0
160 181 0
160 180 0
159 180 0
153 174 0
160 181 0
153 173 0
162 182 0
160 180 0
157 178 0
160 182 0
161 182 0
162 182 0
163 184 0
157 177 0
155 177 0
153 173 0
150 172 0
154 175 0
151 172 0
157 179 0
154 176 0
157 178 0
160 181 0
154 175 0
157 178 0
157 180 0
155 177 0
164 186 0
146 167 0
155 177 0
153 175 0
156 178 0
151 173 0
158 179 0
154 176 0
152 174 0
164 185 0
148 170 0
148 169 0
145 165 0
157 179 0
148 170 0
151 172 0
149 170 0
152 175 0
153 175 0
154 175 0
157 179 0
152 174 0
151 173 0
148 170 0
144 166 0
151 173 0
152 173 0
149 171 0
155 177 0
141 163 0
142 164 0
148 170 0
146 168 0
148 169 0
144 166 0
141 163 0
145 166 0
145 166 0
140 160 0
139 160 0
145 166 0
142 164 0
148 170 0
144 165 0
142 163 0
143 164 0
138 159 0
139 161 0
135 156 0
139 161 0
138 159 0
148 169 0
142 163 0
132 153 0
134 155 0
139 160 0
131 152 0
135 155 0
137 157 0
140 160 0
138 158 0
134 156 0
136 156 0
140 160 0
138 158 0
126 145 0
133 153 0
131 152 0
126 147 0
143 163 0
131 151 0
134 153 0
127 148 0
139 160 0
115 135 0
138 157 0
139 158 0
133 154 0
128 147 0
127 146 0
142 163 0
135 155 0
129 148 0
133 153 0
130 149 0
132 150 0
128 147 0
133 152 0
142 160 0
133 151 0
130 148 0
125 144 0
128 148 0
125 143 0
125 143 0
124 144 0
134 153 0
127 148 0
130 150 0
132 153 0
128 147 0
136 155 0
130 148 0
131 150 0
130 151 0
132 152 0
132 151 0
127 146 0
130 149 0
142 162 0
129 148 0
129 149 0
144 164 0
131 149 0
138 156 0
125 144 0
134 153 0
133 151 0
133 151 0
130 149 0
140 159 0
135 153 0
135 154 0
145 162 0
136 155 0
137 154 0
133 151 0
139 157 0
125 143 0
130 148 0
138 157 0
133 150 0
140 159 0
138 156 0
138 155 0
141 159 0
146 165 0
134 152 0
131 147 0
137 155 0
140 158 0
135 152 0
141 160 0
135 152 0
127 143 0
147 164 0
137 155 0
142 160 0
138 157 0
141 159 0
138 157 0
128 147 0
143 159 0
143 159 0
143 159 0
148 163 0
144 162 0
154 171 0
140 157 0
143 159 0
139 154 0
146 161 0
142 159 0
143 161 0
147 163 0
141 156 0
143 158 0
145 160 0
137 152 0
146 161 0
138 152 0
142 156 0
139 153 0
137 153 0
140 155 0
144 158 0
145 160 0
145 158 0
140 155 0
148 162 0
143 157 0
151 164 0
145 158 0
133 147 0
149 161 0
135 145 0
146 155 0
147 158 0
151 165 0
138 147 0
145 156 0
145 158 0
140 149 0
138 148 0
155 167 0
149 159 0
146 154 0
142 150 0
141 151 0
144 154 0
150 158 0
151 161 0
146 154 0
143 150 0
138 143 0
140 145 0
148 156 0
151 159 0
140 143 0
145 152 0
141 147 0
142 147 0
146 154 0
147 154 0
148 155 0
145 148 0
142 145 0
147 151 0
146 151 0
143 146 0
149 153 0
149 151 0
149 156 0
143 146 0
149 153 0
144 146 0
148 150 0
148 151 0
148 152 0
151 155 0
148 150 0
142 143 0
149 153 0
154 159 0
153 156 0
146 150 0
154 158 0
149 152 0
151 154 0
153 159 0
148 151 0
150 155 0
152 155 0
153 157 0
154 158 0
150 154 0
153 156 0
156 161 0
149 153 0
164 173 0
156 164 0
153 157 0
157 161 0
152 154 0
158 167 0
160 171 0
156 162 0
157 163 0
162 169 0
164 174 0
159 168 0
158 166 0
163 173 0
163 172 0
162 174 0
159 167 0
162 173 0
161 169 0
161 171 0
163 172 0
165 176 0
164 176 0
165 175 0
163 173 0
164 176 0
168 182 0
165 177 0
167 181 0
166 180 0
166 176 0
167 182 0
165 178 0
162 175 0
164 175 0
163 174 0
168 183 0
164 178 0
166 180 0
176 198 0
174 197 0
175 197 0
176 198 0
175 197 0
175 197 0
176 198 0
175 197 0
175 197 0
173 195 0
177 198 0
174 195 0
175 197 0
175 196 0
176 198 0
177 198 0
177 198 0
172 193 0
176 197 0
176 196 0
174 195 0
174 194 0
175 196 0
174 196 0
174 196 0
176 197 0
173 193 0
175 196 0
172 193 0
175 196 0
171 192 0
174 196 0
175 195 0
175 196 0
176 196 0
173 194 0
174 195 0
172 194 0
170 191 0
173 193 0
170 191 0
170 190 0
172 192 0
169 190 0
169 190 0
171 192 0
172 193 0
172 192 0
166 185 0
170 190 0
171 191 0
172 192 0
167 188 0
164 184 0
169 190 0
167 188 0
169 190 0
168 189 0
168 190 0
173 194 0
166 187 0
169 189 0
170 191 0
165 186 0
162 183 0
169 189 0
163 183 0
170 190 0
165 186 0
167 188 0
167 187 0
162 183 0
161 182 0
163 183 0
168 189 0
158 179 0
164 185 0
166 187 0
160 182 0
162 183 0
158 179 0
162 182 0
158 179 0
163 183 0
161 181 0
159 180 0
160 180 0
154 175 0
155 176 0
158 178 0
153 174 0
161 181 0
160 182 0
160 181 0
154 175 0
156 176 0
158 179 0
154 175 0
158 179 0
160 182 0
152 172 0
157 177 0
150 171 0
156 178 0
154 175 0
154 176 0
151 173 0
148 170 0
162 183 0
154 175 0
156 177 0
148 169 0
159 181 0
154 175 0
155 177 0
151 173 0
158 179 0
155 177 0
149 170 0
148 170 0
148 170 0
154 176 0
147 169 0
156 178 0
147 168 0
151 173 0
160 181 0
152 174 0
151 173 0
146 168 0
146 168 0
146 168 0
153 174 0
141 164 0
144 166 0
145 166 0
144 167 0
144 165 0
149 171 0
148 168 0
153 175 0
148 169 0
148 170 0
150 172 0
146 169 0
151 173 0
141 162 0
145 166 0
142 164 0
138 159 0
139 161 0
145 167 0
133 155 0
146 167 0
149 171 0
132 153 0
143 165 0
145 166 0
143 165 0
146 168 0
143 165 0
147 167 0
140 162 0
138 159 0
142 163 0
135 155 0
142 162 0
146 168 0
133 155 0
143 163 0
137 158 0
134 154 0
139 161 0
134 154 0
136 158 0
129 149 0
139 160 0
135 156 0
137 158 0
137 158 0
133 153 0
134 155 0
139 160 0
129 149 0
141 161 0
133 153 0
134 156 0
132 153 0
138 158 0
139 160 0
134 155 0
127 148 0
133 152 0
129 147 0
130 150 0
137 157 0
123 141 0
128 147 0
116 136 0
136 155 0
126 146 0
126 147 0
137 158 0
130 149 0
138 158 0
126 146 0
127 147 0
127 146 0
129 148 0
131 149 0
134 153 0
133 152 0
127 148 0
124 143 0
123 143 0
129 148 0
132 149 0
132 151 0
135 154 0
130 148 0
127 147 0
135 153 0
131 151 0
131 151 0
136 156 0
137 153 0
134 152 0
135 154 0
127 146 0
138 156 0
131 150 0
140 158 0
137 154 0
137 157 0
136 155 0
134 152 0
128 145 0
141 160 0
140 158 0
140 159 0
134 153 0
130 149 0
130 147 0
138 157 0
136 153 0
136 154 0
134 151 0
140 159 0
134 153 0
139 156 0
133 152 0
139 157 0
138 157 0
138 157 0
140 157 0
133 150 0
140 157 0
142 160 0
137 156 0
140 159 0
145 161 0
137 153 0
137 153 0
150 165 0
141 158 0
139 157 0
142 158 0
141 157 0
138 154 0
141 158 0
151 168 0
149 167 0
143 158 0
141 157 0
141 157 0
140 154 0
142 156 0
152 170 0
143 159 0
136 152 0
143 159 0
143 159 0
144 159 0
144 158 0
149 164 0
146 160 0
153 168 0
145 159 0
143 158 0
148 161 0
141 156 0
152 167 0
143 157 0
147 161 0
139 153 0
151 165 0
146 159 0
142 152 0
146 160 0
135 146 0
140 150 0
144 156 0
147 158 0
148 159 0
149 161 0
147 155 0
147 157 0
146 157 0
145 157 0
136 145 0
146 154 0
140 148 0
146 152 0
146 153 0
145 154 0
146 156 0
154 164 0
142 149 0
152 162 0
149 158 0
143 151 0
151 158 0
143 148 0
149 156 0
144 148 0
140 147 0
148 155 0
147 151 0
146 148 0
150 157 0
146 151 0
143 146 0
145 150 0
149 154 0
149 154 0
146 151 0
150 153 0
146 152 0
147 152 0
153 159 0
143 148 0
148 152 0
148 151 0
146 148 0
150 153 0
152 158 0
151 155 0
153 158 0
145 147 0
147 148 0
153 158 0
151 155 0
156 164 0
145 149 0
151 152 0
153 156 0
155 159 0
152 157 0
154 160 0
153 158 0
149 154 0
159 163 0
155 161 0
154 158 0
154 158 0
156 163 0
155 158 0
161 167 0
161 169 0
160 165 0
155 161 0
163 173 0
163 172 0
160 170 0
159 168 0
161 170 0
158 165 0
160 167 0
161 172 0
160 168 0
167 178 0
163 175 0
163 174 0
159 170 0
166 179 0
159 172 0
163 173 0
163 173 0
163 174 0
163 174 0
167 179 0
164 175 0
166 179 0
163 177 0
166 178 0
163 176 0
167 182 0
162 173 0
162 176 0
166 181 0
175 197 0
176 198 0
174 195 0
177 198 0
176 197 0
175 197 0
174 196 0
171 193 0
176 197 0
173 195 0
174 195 0
175 196 0
176 197 0
176 197 0
171 194 0
176 197 0
172 193 0
172 193 0
175 196 0
177 198 0
173 194 0
175 196 0
174 195 0
174 195 0
176 196 0
174 195 0
175 195 0
170 191 0
174 195 0
170 191 0
176 197 0
173 194 0
173 193 0
172 194 0
178 198 0
173 194 0
170 190 0
174 195 0
170 190 0
170 191 0
173 193 0
172 193 0
169 190 0
172 193 0
166 186 0
171 192 0
168 190 0
167 189 0
172 194 0
170 190 0
168 189 0
172 191 0
170 191 0
168 189 0
169 190 0
171 192 0
166 186 0
173 194 0
167 187 0
167 187 0
170 192 0
170 190 0
170 191 0
168 188 0
169 190 0
170 190 0
164 185 0
168 188 0
163 183 0
173 193 0
163 183 0
164 184 0
169 189 0
161 183 0
164 185 0
161 183 0
169 189 0
158 180 0
164 185 0
163 184 0
163 184 0
161 181 0
166 188 0
164 185 0
158 179 0
160 181 0
164 184 0
160 180 0
157 177 0
160 181 0
159 179 0
160 181 0
159 181 0
158 179 0
160 181 0
160 181 0
150 171 0
159 181 0
151 172 0
153 175 0
159 180 0
157 178 0
159 181 0
152 173 0
153 174 0
146 167 0
158 179 0
156 177 0
152 172 0
154 176 0
153 175 0
152 173 0
158 179 0
154 175 0
155 178 0
160 182 0
151 173 0
157 178 0
147 169 0
153 175 0
159 180 0
154 176 0
154 176 0
146 168 0
149 171 0
151 171 0
157 178 0
153 175 0
152 175 0
148 171 0
151 173 0
147 168 0
152 173 0
139 161 0
144 166 0
142 163 0
143 165 0
149 171 0
152 174 0
145 168 0
143 164 0
149 172 0
142 163 0
144 167 0
152 174 0
150 171 0
159 181 0
154 176 0
146 169 0
145 167 0
145 166 0
142 164 0
142 163 0
145 166 0
147 168 0
146 168 0
142 162 0
144 166 0
131 153 0
145 166 0
136 158 0
140 161 0
140 162 0
141 163 0
144 166 0
137 159 0
142 164 0
144 165 0
136 156 0
145 167 0
135 156 0
142 163 0
136 157 0
134 154 0
145 166 0
137 159 0
141 162 0
135 156 0
131 152 0
143 164 0
128 148 0
129 150 0
138 159 0
127 147 0
144 163 0
126 147 0
135 154 0
143 163 0
126 147 0
127 147 0
124 144 0
132 153 0
135 156 0
133 153 0
128 149 0
134 154 0
134 153 0
136 156 0
136 157 0
133 154 0
123 142 0
137 156 0
136 158 0
129 147 0
134 155 0
133 153 0
137 156 0
129 147 0
134 154 0
129 149 0
137 158 0
132 150 0
134 154 0
149 168 0
130 150 0
133 152 0
139 160 0
129 148 0
119 137 0
124 144 0
139 159 0
130 150 0
125 145 0
126 146 0
139 159 0
125 145 0
136 155 0
133 150 0
138 158 0
137 156 0
141 160 0
134 154 0
127 145 0
142 162 0
150 170 0
133 152 0
127 145 0
140 161 0
138 158 0
142 159 0
135 155 0
142 162 0
141 161 0
137 155 0
136 152 0
132 152 0
129 148 0
137 156 0
139 157 0
136 154 0
136 154 0
146 164 0
137 154 0
134 151 0
136 154 0
139 158 0
141 158 0
139 157 0
139 156 0
144 160 0
145 161 0
147 165 0
145 161 0
147 165 0
136 153 0
140 158 0
142 158 0
143 160 0
146 164 0
143 161 0
140 158 0
144 161 0
143 158 0
140 156 0
138 154 0
146 162 0
143 158 0
135 150 0
139 153 0
140 154 0
138 150 0
143 158 0
147 162 0
143 159 0
147 163 0
142 156 0
141 156 0
145 157 0
139 153 0
146 161 0
134 148 0
138 150 0
142 152 0
147 156 0
144 157 0
149 164 0
142 153 0
140 153 0
144 159 0
150 160 0
142 152 0
142 154 0
144 157 0
150 161 0
149 161 0
152 162 0
146 156 0
139 149 0
145 156 0
143 150 0
146 158 0
143 155 0
144 151 0
153 165 0
150 160 0
152 164 0
147 154 0
147 154 0
151 157 0
144 152 0
145 153 0
144 153 0
147 153 0
139 143 0
147 152 0
144 149 0
141 149 0
148 152 0
142 147 0
148 154 0
151 156 0
148 153 0
146 150 0
151 157 0
146 149 0
152 157 0
147 151 0
149 155 0
147 153 0
150 155 0
148 154 0
147 150 0
149 154 0
148 153 0
148 151 0
147 150 0
148 153 0
153 159 0
154 160 0
151 157 0
152 159 0
149 151 0
152 154 0
149 155 0
156 161 0
152 156 0
153 160 0
150 153 0
147 151 0
157 164 0
150 153 0
154 160 0
155 163 0
154 161 0
154 160 0
157 165 0
159 165 0
157 165 0
156 163 0
160 167 0
161 169 0
158 165 0
163 170 0
157 166 0
158 161 0
160 168 0
163 172 0
163 172 0
161 168 0
160 168 0
163 177 0
159 169 0
162 171 0
162 173 0
164 176 0
164 177 0
163 174 0
161 172 0
159 167 0
165 175 0
166 180 0
160 170 0
169 184 0
165 176 0
164 176 0
165 178 0
164 176 0
167 183 0
162 173 0
168 181 0
176 197 0
175 197 0
174 196 0
177 198 0
172 194 0
175 197 0
175 196 0
172 194 0
173 194 0
176 198 0
173 195 0
172 194 0
175 197 0
178 198 0
174 195 0
175 197 0
177 197 0
176 197 0
173 194 0
176 197 0
173 195 0
178 199 0
176 197 0
175 197 0
173 195 0
174 196 0
173 194 0
173 194 0
171 193 0
172 193 0
172 194 0
174 195 0
173 193 0
175 196 0
168 189 0
172 193 0
176 196 0
172 193 0
170 192 0
173 193 0
174 194 0
172 192 0
174 194 0
171 192 0
172 192 0
169 190 0
172 194 0
170 191 0
167 187 0
168 189 0
167 188 0
168 188 0
169 190 0
165 186 0
172 193 0
171 192 0
170 190 0
170 190 0
172 192 0
162 183 0
170 191 0
169 190 0
164 186 0
165 186 0
166 187 0
164 184 0
164 185 0
169 189 0
167 188 0
165 186 0
165 186 0
164 185 0
166 186 0
156 177 0
163 183 0
164 185 0
163 184 0
163 184 0
160 180 0
162 182 0
158 179 0
159 180 0
155 176 0
164 184 0
159 180 0
156 177 0
159 180 0
161 183 0
156 177 0
156 177 0
167 188 0
159 180 0
164 185 0
162 182 0
159 181 0
157 178 0
151 173 0
156 178 0
156 178 0
156 178 0
164 185 0
156 178 0
154 176 0
157 178 0
158 180 0
155 176 0
159 181 0
146 169 0
155 177 0
158 179 0
152 174 0
157 178 0
158 180 0
155 176 0
153 174 0
148 169 0
154 176 0
150 172 0
154 177 0
149 170 0
149 172 0
147 170 0
153 176 0
153 175 0
150 172 0
152 174 0
153 174 0
147 169 0
159 181 0
147 169 0
145 168 0
151 173 0
142 164 0
151 173 0
144 165 0
154 176 0
140 162 0
153 175 0
156 179 0
149 172 0
149 169 0
145 168 0
154 175 0
146 167 0
148 169 0
146 167 0
142 164 0
147 168 0
145 167 0
143 164 0
145 167 0
152 175 0
148 169 0
136 157 0
141 162 0
150 173 0
145 167 0
144 164 0
136 157 0
147 168 0
142 162 0
138 160 0
141 162 0
140 161 0
145 166 0
140 160 0
143 164 0
139 160 0
144 164 0
142 163 0
142 164 0
137 158 0
138 158 0
135 155 0
141 160 0
138 159 0
127 147 0
126 147 0
141 163 0
133 153 0
143 163 0
138 159 0
135 155 0
135 155 0
139 160 0
143 163 0
131 152 0
133 153 0
138 157 0
132 153 0
142 163 0
135 154 0
136 157 0
139 159 0
128 146 0
133 154 0
136 157 0
129 150 0
130 150 0
130 150 0
140 161 0
141 160 0
138 158 0
134 155 0
120 139 0
126 146 0
135 155 0
132 150 0
129 148 0
116 137 0
135 153 0
138 157 0
131 149 0
137 157 0
141 160 0
123 142 0
146 164 0
117 136 0
125 145 0
141 162 0
134 156 0
142 160 0
136 155 0
136 156 0
131 150 0
131 150 0
129 148 0
138 157 0
133 151 0
130 150 0
140 157 0
140 159 0
138 156 0
128 147 0
133 152 0
129 148 0
137 157 0
141 160 0
141 159 0
134 153 0
137 156 0
139 157 0
127 145 0
129 145 0
146 166 0
140 159 0
133 150 0
136 154 0
143 161 0
142 161 0
141 159 0
138 157 0
138 157 0
151 172 0
141 159 0
138 155 0
138 157 0
143 161 0
141 159 0
146 162 0
140 157 0
141 160 0
136 155 0
135 153 0
143 160 0
142 159 0
145 162 0
142 159 0
144 163 0
135 153 0
148 163 0
139 157 0
147 163 0
143 160 0
146 159 0
143 158 0
145 161 0
147 162 0
145 162 0
149 167 0
143 157 0
152 167 0
139 154 0
137 150 0
143 156 0
151 168 0
145 159 0
145 161 0
140 154 0
144 160 0
149 163 0
150 166 0
148 163 0
151 165 0
136 149 0
146 161 0
143 155 0
139 152 0
145 157 0
151 165 0
147 160 0
144 157 0
143 156 0
149 162 0
147 159 0
154 168 0
144 158 0
141 151 0
139 147 0
152 162 0
146 155 0
149 159 0
144 154 0
145 152 0
150 158 0
145 155 0
145 153 0
145 156 0
148 160 0
152 163 0
148 159 0
146 154 0
148 154 0
155 166 0
142 149 0
153 160 0
145 151 0
148 157 0
143 147 0
145 150 0
148 152 0
145 150 0
154 163 0
153 163 0
143 150 0
146 153 0
145 148 0
158 165 0
149 155 0
148 153 0
156 165 0
147 151 0
152 159 0
154 160 0
152 156 0
147 151 0
151 157 0
147 152 0
156 162 0
156 162 0
149 153 0
152 160 0
146 150 0
152 156 0
153 157 0
154 159 0
152 160 0
153 159 0
156 163 0
161 171 0
152 158 0
158 165 0
150 154 0
158 165 0
155 160 0
161 172 0
151 155 0
161 170 0
158 164 0
156 164 0
155 163 0
159 166 0
155 160 0
161 172 0
159 167 0
160 169 0
164 176 0
158 166 0
162 173 0
160 168 0
159 169 0
164 173 0
163 172 0
165 176 0
165 175 0
163 175 0
161 169 0
161 174 0
165 175 0
163 172 0
160 171 0
163 175 0
168 180 0
163 175 0
168 182 0
168 180 0
165 178 0
167 180 0
167 181 0
166 177 0
174 196 0
174 196 0
177 199 0
177 197 0
177 198 0
171 193 0
172 194 0
175 197 0
174 195 0
176 198 0
172 194 0
175 196 0
172 193 0
173 195 0
174 194 0
174 195 0
175 197 0
174 196 0
175 196 0
176 196 0
175 195 0
175 196 0
174 196 0
174 195 0
174 196 0
176 196 0
174 194 0
174 195 0
175 196 0
173 194 0
172 192 0
173 195 0
175 196 0
171 192 0
172 193 0
173 194 0
169 190 0
174 194 0
171 192 0
170 190 0
168 188 0
169 190 0
169 190 0
173 193 0
171 192 0
171 191 0
165 186 0
172 193 0
171 191 0
170 191 0
167 188 0
167 188 0
166 186 0
163 184 0
172 193 0
169 189 0
169 190 0
170 192 0
174 194 0
168 188 0
168 189 0
166 187 0
167 187 0
166 186 0
169 190 0
162 183 0
163 184 0
165 186 0
170 191 0
167 189 0
168 189 0
166 186 0
165 186 0
163 184 0
166 187 0
164 185 0
169 189 0
156 177 0
164 185 0
163 183 0
167 188 0
161 181 0
164 185 0
164 185 0
161 182 0
159 181 0
160 181 0
156 176 0
156 177 0
160 182 0
167 187 0
158 180 0
151 172 0
156 178 0
157 179 0
149 171 0
156 178 0
155 176 0
159 181 0
157 178 0
160 181 0
158 179 0
159 181 0
164 186 0
152 173 0
155 176 0
160 183 0
154 176 0
160 181 0
152 174 0
155 178 0
155 177 0
149 171 0
155 178 0
157 178 0
160 182 0
151 172 0
154 175 0
151 173 0
153 176 0
161 184 0
150 172 0
152 173 0
152 174 0
150 172 0
154 176 0
150 173 0
153 175 0
143 165 0
149 171 0
146 167 0
149 171 0
152 173 0
154 177 0
154 175 0
150 171 0
152 174 0
146 168 0
151 173 0
154 175 0
145 166 0
146 169 0
149 171 0
148 169 0
149 170 0
146 167 0
145 166 0
137 159 0
147 170 0
147 169 0
146 168 0
147 168 0
138 160 0
145 166 0
145 166 0
137 157 0
149 171 0
141 162 0
143 164 0
144 166 0
147 168 0
146 169 0
137 158 0
146 168 0
147 169 0
136 157 0
146 168 0
141 162 0
149 170 0
135 157 0
142 164 0
140 161 0
137 158 0
127 149 0
143 166 0
140 162 0
144 165 0
131 152 0
126 146 0
140 160 0
144 164 0
137 157 0
136 156 0
136 156 0
133 154 0
141 161 0
133 153 0
139 159 0
142 164 0
144 164 0
132 152 0
135 155 0
133 154 0
125 144 0
138 158 0
132 152 0
137 157 0
125 144 0
137 158 0
139 159 0
142 162 0
139 159 0
128 148 0
133 153 0
130 152 0
129 148 0
141 159 0
135 156 0
141 161 0
142 162 0
129 149 0
134 154 0
134 154 0
143 162 0
135 156 0
138 157 0
139 158 0
141 160 0
132 153 0
123 140 0
130 150 0
139 158 0
133 153 0
134 154 0
140 160 0
126 145 0
137 154 0
143 162 0
138 158 0
139 158 0
146 165 0
136 155 0
136 155 0
130 149 0
133 153 0
144 163 0
138 158 0
144 162 0
136 156 0
138 156 0
140 159 0
139 158 0
141 161 0
138 159 0
129 147 0
137 154 0
138 157 0
134 153 0
140 159 0
129 147 0
146 164 0
145 162 0
136 153 0
147 165 0
144 162 0
128 144 0
145 165 0
148 168 0
140 157 0
134 154 0
142 161 0
141 158 0
142 158 0
140 157 0
136 154 0
142 160 0
136 153 0
147 164 0
137 154 0
135 150 0
147 165 0
138 155 0
137 155 0
143 161 0
146 164 0
136 153 0
147 162 0
146 162 0
140 155 0
149 168 0
144 158 0
141 157 0
141 155 0
143 161 0
143 156 0
145 161 0
139 153 0
150 166 0
155 171 0
142 156 0
146 162 0
148 164 0
146 161 0
147 162 0
142 158 0
155 167 0
141 153 0
151 163 0
144 156 0
144 159 0
154 169 0
149 164 0
139 153 0
153 169 0
139 151 0
147 157 0
146 161 0
146 158 0
153 166 0
140 152 0
149 159 0
147 159 0
145 155 0
150 162 0
146 157 0
141 149 0
144 153 0
144 155 0
154 167 0
140 146 0
148 158 0
147 158 0
136 144 0
155 163 0
147 154 0
146 154 0
144 154 0
147 155 0
144 153 0
140 147 0
148 157 0
152 162 0
152 158 0
160 169 0
150 159 0
150 157 0
154 162 0
152 160 0
154 162 0
152 159 0
153 160 0
146 150 0
147 152 0
152 157 0
151 155 0
153 160 0
155 163 0
154 157 0
150 157 0
147 153 0
154 160 0
154 161 0
152 155 0
160 169 0
158 164 0
154 159 0
158 164 0
151 157 0
156 161 0
157 163 0
158 165 0
159 165 0
158 165 0
152 157 0
159 167 0
155 161 0
158 164 0
153 160 0
158 167 0
158 168 0
157 163 0
160 165 0
161 169 0
158 166 0
155 160 0
157 164 0
158 167 0
161 169 0
164 173 0
156 163 0
161 170 0
160 168 0
163 172 0
164 173 0
164 176 0
165 176 0
157 165 0
165 176 0
160 168 0
163 177 0
162 173 0
162 174 0
164 175 0
162 176 0
161 170 0
166 177 0
167 181 0
167 180 0
166 178 0
169 185 0
173 196 0
174 195 0
172 195 0
176 198 0
176 197 0
176 197 0
176 197 0
174 195 0
175 197 0
176 197 0
176 197 0
177 198 0
175 197 0
176 197 0
173 194 0
171 192 0
175 197 0
173 194 0
175 196 0
170 191 0
177 197 0
174 196 0
176 197 0
174 195 0
170 192 0
175 195 0
171 192 0
174 195 0
172 192 0
174 194 0
175 196 0
171 192 0
173 193 0
172 193 0
176 196 0
170 191 0
175 196 0
174 194 0
173 194 0
172 193 0
170 191 0
167 188 0
169 190 0
169 190 0
172 193 0
167 188 0
172 193 0
173 194 0
169 189 0
164 185 0
169 191 0
169 189 0
170 191 0
168 189 0
170 191 0
171 193 0
169 189 0
166 187 0
162 182 0
171 191 0
171 191 0
167 187 0
169 190 0
168 190 0
161 182 0
166 187 0
167 187 0
165 187 0
167 189 0
168 188 0
166 185 0
169 190 0
167 187 0
157 178 0
167 189 0
163 183 0
162 183 0
161 182 0
158 178 0
159 180 0
164 184 0
163 182 0
154 175 0
164 184 0
155 176 0
157 178 0
160 181 0
162 184 0
158 179 0
165 187 0
156 178 0
164 185 0
159 181 0
160 181 0
156 177 0
161 181 0
156 177 0
160 181 0
163 183 0
156 177 0
157 179 0
153 176 0
162 184 0
156 178 0
154 176 0
150 173 0
161 182 0
156 179 0
149 171 0
152 174 0
161 182 0
155 177 0
155 177 0
149 171 0
151 173 0
162 183 0
150 172 0
150 172 0
155 177 0
145 167 0
153 175 0
150 172 0
156 178 0
154 176 0
156 177 0
149 171 0
156 178 0
151 172 0
150 172 0
153 174 0
157 179 0
160 182 0
150 172 0
146 168 0
155 177 0
150 174 0
146 169 0
143 164 0
151 173 0
149 170 0
143 165 0
151 172 0
154 177 0
144 166 0
145 166 0
143 167 0
141 163 0
152 173 0
142 164 0
146 169 0
153 176 0
138 160 0
146 168 0
140 161 0
140 161 0
146 168 0
147 169 0
138 161 0
135 157 0
136 158 0
144 164 0
145 167 0
143 164 0
139 160 0
148 169 0
142 163 0
134 155 0
144 166 0
141 163 0
139 160 0
135 156 0
135 155 0
140 162 0
140 161 0
134 155 0
135 155 0
143 163 0
149 170 0
131 152 0
135 154 0
142 164 0
152 174 0
135 156 0
144 165 0
140 161 0
134 154 0
137 158 0
136 156 0
143 164 0
145 166 0
128 147 0
139 159 0
137 156 0
140 160 0
135 155 0
133 153 0
132 152 0
132 151 0
141 161 0
140 161 0
131 150 0
145 165 0
141 161 0
131 152 0
131 152 0
136 155 0
131 150 0
142 162 0
136 154 0
142 160 0
125 145 0
130 150 0
133 155 0
141 160 0
148 168 0
122 143 0
140 160 0
130 148 0
133 153 0
137 157 0
135 154 0
134 153 0
140 159 0
138 158 0
142 161 0
130 149 0
137 158 0
139 158 0
138 157 0
132 152 0
138 158 0
131 151 0
139 158 0
129 148 0
144 164 0
125 144 0
143 161 0
135 154 0
135 154 0
144 161 0
140 159 0
134 153 0
129 148 0
133 153 0
149 168 0
139 157 0
139 159 0
144 163 0
149 169 0
148 168 0
144 164 0
138 157 0
141 161 0
143 159 0
153 174 0
141 160 0
133 150 0
135 151 0
144 163 0
147 164 0
141 157 0
146 164 0
143 159 0
146 164 0
142 160 0
143 160 0
145 163 0
149 167 0
148 165 0
141 159 0
145 165 0
142 159 0
148 166 0
143 161 0
142 161 0
148 164 0
148 164 0
141 158 0
144 160 0
150 167 0
140 156 0
150 165 0
144 161 0
143 159 0
146 162 0
153 171 0
143 160 0
139 153 0
146 162 0
147 163 0
146 160 0
148 162 0
146 160 0
146 161 0
152 168 0
144 157 0
149 164 0
148 161 0
145 159 0
147 161 0
152 167 0
142 155 0
144 157 0
145 156 0
141 155 0
144 157 0
155 166 0
146 159 0
149 163 0
145 159 0
147 159 0
141 153 0
144 153 0
141 151 0
153 166 0
150 162 0
148 159 0
144 154 0
146 154 0
147 157 0
145 154 0
150 159 0
151 160 0
147 157 0
150 163 0
146 153 0
149 157 0
153 163 0
148 153 0
152 161 0
150 160 0
137 138 0
146 154 0
151 159 0
153 162 0
146 150 0
155 163 0
152 161 0
152 155 0
157 166 0
157 167 0
154 161 0
153 162 0
151 158 0
150 154 0
148 156 0
150 160 0
152 158 0
149 153 0
150 157 0
149 156 0
150 157 0
157 164 0
154 161 0
156 162 0
154 159 0
155 160 0
153 157 0
153 158 0
156 165 0
154 160 0
159 168 0
155 160 0
152 157 0
155 160 0
155 162 0
158 164 0
156 165 0
153 158 0
158 165 0
157 165 0
160 168 0
154 161 0
159 165 0
157 164 0
163 173 0
165 175 0
159 169 0
157 164 0
159 168 0
162 172 0
162 173 0
160 169 0
161 170 0
159 167 0
163 173 0
163 173 0
159 170 0
166 178 0
166 178 0
167 180 0
163 174 0
165 176 0
165 177 0
162 172 0
164 177 0
167 180 0
165 178 0
165 177 0
169 183 0
175 196 0
176 197 0
175 197 0
174 196 0
175 197 0
173 195 0
172 194 0
174 195 0
175 195 0
173 195 0
175 195 0
175 196 0
175 196 0
174 196 0
174 194 0
171 192 0
177 198 0
173 195 0
172 193 0
176 197 0
175 196 0
175 196 0
172 192 0
171 192 0
173 194 0
174 195 0
175 196 0
173 193 0
175 195 0
174 195 0
171 191 0
173 193 0
170 191 0
171 192 0
172 193 0
172 192 0
173 193 0
167 188 0
172 193 0
174 194 0
172 193 0
171 192 0
167 188 0
173 193 0
169 191 0
171 193 0
171 191 0
167 188 0
167 187 0
174 194 0
168 188 0
172 192 0
165 186 0
171 192 0
169 190 0
170 190 0
168 189 0
169 190 0
171 192 0
170 191 0
168 189 0
167 187 0
165 186 0
164 185 0
165 184 0
164 184 0
167 188 0
168 189 0
164 184 0
168 188 0
162 183 0
165 186 0
164 185 0
164 184 0
162 184 0
164 184 0
163 185 0
168 189 0
166 188 0
166 186 0
167 187 0
157 179 0
167 188 0
162 183 0
158 178 0
160 182 0
158 180 0
160 180 0
166 187 0
159 181 0
157 178 0
161 183 0
159 181 0
152 174 0
157 178 0
161 182 0
157 178 0
160 181 0
162 183 0
157 177 0
156 178 0
149 171 0
154 177 0
156 179 0
155 177 0
156 179 0
159 182 0
158 181 0
153 174 0
155 176 0
157 178 0
159 180 0
157 178 0
148 170 0
154 176 0
154 177 0
153 176 0
157 180 0
158 179 0
154 176 0
152 174 0
151 173 0
156 178 0
158 180 0
153 175 0
146 168 0
149 170 0
157 179 0
150 172 0
157 180 0
156 178 0
146 167 0
146 169 0
147 169 0
146 167 0
146 167 0
147 169 0
158 181 0
155 178 0
147 169 0
144 166 0
158 179 0
153 175 0
145 167 0
150 171 0
153 175 0
152 174 0
149 172 0
144 165 0
148 169 0
144 164 0
148 170 0
151 173 0
150 172 0
143 164 0
142 163 0
139 160 0
149 171 0
147 169 0
149 169 0
157 178 0
145 167 0
140 162 0
137 159 0
150 170 0
137 157 0
136 157 0
144 166 0
141 162 0
134 154 0
142 163 0
132 152 0
145 166 0
138 158 0
145 165 0
142 163 0
141 162 0
133 155 0
143 165 0
143 164 0
129 150 0
136 155 0
139 161 0
137 158 0
135 156 0
142 162 0
144 164 0
133 154 0
138 157 0
140 161 0
140 160 0
144 164 0
146 165 0
140 162 0
134 155 0
141 161 0
136 155 0
137 155 0
132 154 0
133 153 0
133 154 0
131 151 0
145 167 0
140 161 0
135 156 0
142 162 0
140 160 0
134 153 0
133 152 0
133 153 0
131 150 0
136 154 0
141 160 0
137 158 0
137 157 0
141 158 0
140 160 0
134 151 0
131 151 0
142 163 0
134 155 0
145 165 0
139 159 0
138 159 0
135 153 0
145 164 0
143 161 0
131 150 0
128 147 0
145 165 0
132 151 0
132 151 0
137 155 0
138 158 0
142 159 0
139 158 0
142 159 0
140 157 0
138 157 0
139 158 0
138 158 0
139 159 0
145 165 0
142 160 0
141 160 0
142 160 0
143 161 0
145 165 0
143 164 0
139 157 0
134 153 0
141 159 0
142 162 0
138 157 0
147 165 0
137 154 0
147 166 0
137 156 0
142 160 0
135 156 0
146 166 0
154 173 0
138 156 0
148 166 0
138 156 0
146 163 0
146 165 0
141 159 0
146 163 0
148 165 0
142 160 0
143 160 0
142 159 0
153 171 0
145 165 0
150 168 0
149 164 0
150 165 0
143 159 0
151 167 0
145 162 0
138 155 0
149 166 0
143 156 0
147 165 0
143 158 0
146 164 0
144 162 0
148 163 0
148 164 0
145 162 0
150 166 0
149 166 0
148 166 0
152 165 0
140 157 0
148 161 0
149 164 0
150 164 0
137 151 0
146 158 0
147 161 0
149 164 0
147 160 0
149 165 0
148 163 0
154 167 0
152 166 0
145 156 0
151 164 0
153 165 0
147 163 0
152 165 0
155 171 0
152 164 0
146 158 0
149 162 0
142 152 0
146 158 0
146 157 0
143 152 0
156 168 0
139 150 0
144 152 0
152 162 0
142 152 0
149 156 0
147 156 0
151 161 0
150 159 0
150 157 0
153 163 0
152 161 0
152 159 0
152 162 0
148 155 0
147 153 0
149 156 0
153 159 0
149 155 0
151 160 0
155 166 0
153 159 0
151 159 0
145 151 0
153 162 0
153 160 0
149 156 0
148 152 0
156 160 0
148 153 0
147 154 0
155 160 0
153 161 0
154 162 0
158 165 0
156 162 0
156 163 0
155 161 0
150 155 0
151 158 0
155 163 0
157 166 0
148 150 0
158 165 0
154 160 0
153 158 0
163 173 0
154 161 0
157 163 0
157 163 0
155 161 0
162 171 0
159 167 0
158 165 0
156 162 0
158 165 0
162 171 0
157 165 0
162 171 0
161 170 0
163 173 0
160 170 0
158 167 0
159 167 0
163 174 0
162 172 0
164 173 0
158 169 0
159 169 0
166 179 0
162 172 0
166 177 0
163 173 0
161 172 0
165 177 0
165 177 0
169 182 0
160 171 0
165 179 0
176 198 0
178 199 0
174 195 0
175 196 0
173 195 0
173 195 0
176 197 0
175 197 0
174 195 0
175 196 0
168 191 0
174 195 0
176 198 0
176 197 0
176 196 0
177 198 0
169 191 0
176 196 0
175 196 0
171 192 0
172 193 0
174 196 0
175 196 0
174 195 0
173 194 0
175 196 0
176 196 0
174 195 0
175 195 0
172 193 0
175 196 0
172 194 0
173 194 0
171 192 0
170 191 0
169 190 0
170 191 0
170 191 0
170 191 0
163 185 0
171 192 0
169 189 0
170 191 0
172 192 0
170 191 0
172 193 0
174 194 0
164 185 0
171 191 0
167 188 0
172 194 0
169 189 0
170 191 0
170 190 0
166 187 0
171 191 0
169 189 0
166 187 0
170 190 0
168 188 0
165 186 0
161 182 0
164 185 0
163 183 0
171 191 0
171 192 0
167 188 0
160 181 0
161 183 0
169 191 0
162 183 0
161 182 0
165 186 0
163 184 0
161 182 0
160 182 0
164 185 0
166 187 0
161 182 0
162 183 0
164 185 0
163 185 0
158 179 0
162 183 0
164 186 0
164 186 0
166 188 0
160 181 0
156 178 0
155 176 0
161 183 0
161 183 0
163 185 0
160 182 0
155 177 0
162 183 0
155 176 0
149 170 0
154 176 0
156 177 0
155 176 0
153 176 0
162 183 0
157 179 0
152 173 0
155 177 0
159 181 0
154 176 0
154 175 0
157 178 0
152 174 0
156 178 0
154 176 0
148 171 0
160 183 0
151 173 0
154 177 0
158 180 0
154 174 0
153 176 0
152 174 0
149 170 0
153 175 0
144 167 0
156 178 0
156 177 0
154 175 0
154 176 0
155 177 0
151 173 0
146 168 0
156 177 0
149 170 0
149 173 0
147 169 0
155 178 0
148 171 0
150 173 0
151 173 0
153 175 0
148 170 0
146 168 0
149 170 0
151 173 0
143 165 0
154 175 0
148 169 0
147 169 0
151 173 0
151 173 0
151 172 0
147 169 0
139 161 0
153 174 0
153 175 0
148 170 0
141 163 0
146 168 0
148 169 0
146 168 0
143 164 0
151 172 0
140 161 0
143 165 0
147 168 0
142 164 0
142 164 0
140 162 0
141 162 0
142 164 0
135 155 0
141 161 0
140 161 0
137 159 0
140 160 0
144 165 0
151 172 0
145 166 0
149 171 0
146 166 0
131 150 0
149 171 0
140 161 0
145 167 0
139 160 0
146 166 0
134 154 0
146 166 0
148 168 0
135 155 0
134 153 0
148 168 0
144 163 0
138 158 0
138 158 0
142 163 0
140 161 0
135 156 0
139 158 0
138 158 0
135 155 0
146 168 0
140 161 0
136 156 0
137 157 0
138 159 0
135 155 0
140 159 0
133 152 0
129 150 0
138 158 0
134 155 0
137 157 0
144 162 0
146 166 0
132 151 0
138 158 0
136 153 0
139 157 0
142 162 0
138 156 0
135 154 0
141 161 0
141 162 0
133 151 0
143 163 0
130 151 0
129 149 0
144 163 0
141 161 0
145 163 0
135 157 0
137 156 0
134 154 0
139 158 0
138 157 0
136 157 0
137 158 0
136 154 0
149 167 0
143 163 0
139 158 0
139 158 0
142 161 0
140 159 0
145 165 0
140 160 0
140 160 0
130 148 0
143 161 0
143 161 0
140 159 0
148 169 0
141 159 0
144 161 0
139 157 0
144 160 0
148 166 0
154 171 0
152 170 0
146 165 0
147 168 0
142 160 0
144 163 0
149 166 0
142 160 0
151 167 0
148 167 0
141 160 0
146 165 0
149 167 0
146 165 0
143 162 0
146 165 0
147 163 0
136 153 0
145 164 0
135 150 0
149 168 0
145 163 0
147 163 0
139 156 0
144 163 0
155 171 0
148 164 0
142 157 0
148 165 0
150 165 0
144 160 0
148 164 0
149 166 0
152 168 0
139 153 0
146 161 0
151 167 0
145 161 0
149 165 0
137 149 0
141 155 0
146 158 0
151 163 0
153 168 0
146 159 0
144 157 0
147 161 0
152 165 0
151 166 0
154 168 0
153 167 0
144 158 0
154 166 0
143 159 0
149 162 0
150 163 0
153 164 0
151 164 0
146 159 0
153 167 0
155 168 0
150 162 0
145 157 0
155 168 0
150 161 0
148 159 0
153 164 0
150 158 0
148 158 0
147 155 0
155 165 0
152 161 0
157 168 0
150 157 0
144 151 0
148 156 0
153 161 0
149 158 0
153 162 0
152 161 0
157 167 0
155 164 0
155 165 0
152 162 0
153 164 0
155 164 0
154 165 0
149 156 0
154 161 0
154 158 0
152 158 0
153 159 0
150 155 0
153 157 0
153 161 0
155 162 0
154 163 0
152 155 0
158 168 0
157 163 0
157 166 0
156 163 0
158 166 0
158 164 0
148 155 0
155 160 0
157 165 0
155 163 0
157 163 0
156 164 0
159 168 0
158 165 0
159 168 0
159 165 0
159 166 0
160 167 0
156 164 0
158 166 0
161 171 0
162 171 0
154 160 0
159 167 0
159 165 0
163 172 0
162 170 0
165 175 0
163 175 0
164 173 0
164 176 0
161 171 0
164 175 0
162 173 0
164 173 0
159 168 0
162 174 0
169 182 0
160 170 0
164 174 0
161 171 0
164 177 0
167 179 0
162 173 0
175 196 0
172 194 0
177 198 0
177 198 0
176 196 0
173 194 0
175 197 0
174 195 0
173 195 0
174 195 0
175 196 0
175 196 0
173 195 0
174 196 0
174 194 0
175 196 0
174 195 0
171 192 0
174 195 0
172 194 0
175 196 0
174 195 0
169 190 0
176 196 0
176 197 0
170 192 0
175 196 0
175 195 0
175 195 0
173 195 0
174 194 0
171 192 0
172 193 0
172 193 0
173 193 0
172 193 0
172 192 0
172 192 0
172 193 0
174 195 0
174 196 0
169 190 0
172 193 0
171 191 0
168 188 0
168 189 0
170 191 0
170 191 0
167 187 0
169 191 0
173 194 0
173 194 0
168 189 0
170 190 0
172 192 0
166 187 0
168 189 0
170 191 0
168 189 0
171 191 0
170 191 0
163 184 0
162 183 0
168 189 0
164 186 0
164 185 0
168 189 0
160 181 0
170 191 0
159 180 0
156 177 0
161 182 0
163 185 0
163 184 0
159 180 0
162 184 0
157 177 0
159 180 0
166 187 0
159 180 0
160 180 0
161 183 0
154 176 0
150 172 0
152 173 0
153 174 0
158 180 0
161 182 0
155 177 0
158 180 0
159 179 0
161 183 0
162 184 0
158 179 0
164 185 0
158 178 0
153 174 0
163 185 0
163 185 0
158 180 0
160 181 0
160 181 0
154 177 0
159 181 0
154 176 0
153 175 0
158 180 0
158 180 0
156 179 0
152 173 0
151 172 0
158 180 0
159 181 0
156 179 0
154 175 0
157 179 0
155 176 0
157 179 0
158 179 0
158 180 0
157 180 0
154 177 0
156 178 0
150 171 0
159 181 0
151 173 0
153 176 0
153 174 0
154 177 0
147 168 0
160 182 0
157 179 0
151 173 0
147 169 0
152 175 0
143 164 0
147 170 0
147 168 0
154 177 0
149 171 0
151 173 0
147 169 0
142 163 0
139 161 0
155 177 0
143 165 0
146 167 0
142 164 0
157 179 0
150 172 0
149 171 0
145 166 0
148 171 0
147 169 0
152 173 0
146 166 0
143 164 0
147 169 0
140 161 0
151 173 0
141 162 0
155 175 0
154 175 0
145 167 0
148 169 0
149 169 0
140 161 0
139 161 0
139 161 0
140 161 0
136 157 0
145 167 0
147 169 0
136 158 0
144 164 0
151 173 0
143 163 0
141 161 0
142 163 0
137 157 0
141 162 0
139 160 0
141 163 0
144 166 0
141 162 0
145 167 0
133 153 0
143 165 0
135 156 0
135 156 0
140 160 0
141 163 0
143 164 0
144 165 0
139 160 0
144 165 0
145 166 0
137 158 0
141 162 0
141 163 0
135 156 0
146 166 0
148 168 0
128 149 0
134 154 0
144 165 0
143 164 0
135 154 0
133 154 0
133 153 0
127 146 0
133 153 0
143 164 0
145 165 0
139 160 0
141 161 0
140 159 0
135 155 0
147 167 0
141 160 0
138 157 0
133 154 0
142 163 0
144 165 0
144 163 0
139 158 0
135 154 0
138 156 0
139 160 0
135 155 0
139 159 0
137 158 0
141 159 0
130 148 0
141 160 0
142 160 0
141 160 0
138 155 0
146 167 0
142 160 0
136 155 0
141 162 0
139 159 0
132 152 0
135 154 0
144 163 0
142 161 0
145 165 0
148 168 0
149 170 0
141 160 0
140 162 0
145 163 0
137 156 0
140 157 0
145 164 0
149 168 0
148 167 0
142 161 0
146 166 0
146 164 0
138 157 0
143 162 0
152 169 0
144 162 0
146 164 0
143 160 0
144 161 0
140 157 0
145 162 0
147 165 0
140 157 0
140 155 0
145 163 0
143 161 0
139 157 0
145 164 0
145 163 0
144 162 0
152 170 0
150 166 0
152 168 0
148 166 0
143 156 0
145 160 0
144 158 0
145 162 0
146 163 0
150 167 0
152 169 0
152 168 0
142 158 0
141 155 0
147 162 0
142 156 0
145 163 0
144 159 0
145 161 0
144 156 0
149 164 0
148 163 0
150 166 0
144 156 0
143 157 0
149 163 0
153 167 0
146 158 0
148 162 0
149 165 0
144 158 0
150 164 0
154 165 0
151 164 0
149 160 0
153 167 0
146 157 0
148 162 0
144 156 0
152 160 0
144 155 0
148 159 0
145 156 0
150 158 0
155 168 0
152 163 0
149 159 0
147 156 0
156 167 0
147 156 0
145 157 0
150 159 0
148 160 0
156 166 0
153 160 0
149 159 0
156 168 0
154 162 0
153 161 0
148 158 0
146 152 0
157 164 0
157 169 0
154 161 0
156 164 0
149 155 0
153 158 0
154 163 0
156 165 0
152 160 0
155 163 0
157 165 0
158 166 0
155 163 0
156 165 0
151 157 0
159 167 0
151 155 0
154 160 0
158 167 0
156 163 0
155 164 0
157 164 0
163 173 0
160 170 0
159 166 0
154 160 0
155 160 0
156 164 0
160 169 0
154 160 0
155 161 0
156 164 0
162 173 0
159 168 0
159 167 0
154 163 0
150 156 0
160 169 0
157 166 0
161 168 0
163 172 0
157 164 0
158 167 0
158 166 0
154 160 0
160 168 0
166 178 0
163 174 0
166 178 0
167 179 0
160 169 0
158 169 0
161 171 0
166 178 0
160 169 0
164 176 0
159 169 0
164 175 0
164 177 0
165 176 0
174 196 0
175 197 0
174 196 0
176 198 0
175 196 0
172 195 0
175 196 0
172 193 0
174 196 0
175 196 0
170 191 0
175 195 0
171 192 0
171 192 0
174 196 0
176 197 0
173 194 0
178 198 0
175 196 0
173 194 0
171 193 0
176 197 0
171 192 0
172 192 0
173 194 0
173 194 0
171 192 0
175 195 0
172 194 0
172 193 0
172 193 0
174 195 0
171 193 0
172 194 0
173 194 0
171 192 0
170 191 0
173 195 0
172 193 0
173 194 0
171 193 0
172 193 0
169 191 0
171 192 0
172 192 0
172 193 0
167 188 0
173 193 0
172 194 0
174 194 0
169 189 0
167 188 0
166 187 0
167 188 0
160 182 0
170 192 0
167 188 0
170 191 0
173 194 0
169 189 0
162 183 0
168 188 0
166 188 0
169 191 0
162 182 0
166 188 0
165 187 0
165 187 0
163 185 0
163 184 0
158 179 0
167 188 0
161 182 0
165 185 0
160 181 0
165 187 0
166 188 0
163 185 0
159 181 0
156 177 0
162 183 0
165 187 0
156 178 0
156 177 0
161 183 0
160 181 0
162 184 0
152 174 0
153 174 0
157 179 0
162 184 0
160 182 0
153 175 0
161 183 0
160 181 0
158 179 0
157 179 0
159 182 0
165 188 0
161 184 0
157 179 0
152 175 0
158 179 0
152 174 0
153 175 0
155 177 0
158 180 0
150 172 0
156 179 0
153 175 0
159 182 0
155 177 0
154 176 0
155 177 0
157 178 0
148 170 0
153 176 0
153 175 0
159 182 0
151 173 0
152 174 0
159 180 0
153 175 0
151 173 0
158 180 0
157 179 0
147 169 0
150 172 0
153 175 0
155 176 0
152 174 0
159 181 0
144 166 0
155 176 0
152 173 0
150 171 0
148 170 0
146 169 0
152 174 0
153 175 0
144 165 0
145 167 0
145 166 0
146 170 0
144 166 0
148 170 0
150 172 0
137 160 0
150 171 0
154 176 0
149 172 0
142 164 0
144 166 0
145 166 0
149 171 0
148 168 0
150 171 0
147 169 0
147 168 0
141 162 0
147 168 0
148 169 0
141 164 0
135 156 0
146 167 0
133 154 0
147 168 0
143 165 0
141 164 0
149 171 0
141 162 0
141 161 0
137 159 0
137 156 0
139 160 0
148 170 0
140 162 0
140 161 0
141 163 0
133 154 0
150 170 0
153 174 0
144 166 0
141 163 0
134 155 0
140 160 0
143 165 0
145 166 0
151 171 0
137 159 0
140 161 0
138 159 0
150 170 0
145 165 0
134 153 0
146 167 0
134 155 0
145 165 0
136 157 0
135 157 0
142 163 0
140 161 0
146 167 0
140 162 0
146 166 0
135 156 0
136 156 0
138 158 0
147 168 0
141 163 0
135 156 0
143 164 0
138 159 0
137 156 0
138 158 0
146 166 0
134 154 0
147 167 0
134 154 0
140 161 0
150 172 0
147 167 0
143 163 0
135 154 0
145 164 0
137 157 0
144 164 0
143 163 0
146 166 0
145 164 0
144 163 0
135 154 0
136 156 0
139 157 0
135 154 0
138 158 0
149 169 0
142 163 0
144 164 0
135 154 0
133 154 0
146 165 0
142 163 0
138 156 0
139 156 0
138 158 0
144 163 0
150 169 0
154 173 0
138 159 0
143 161 0
147 165 0
136 153 0
146 165 0
141 160 0
147 168 0
144 161 0
145 164 0
140 159 0
142 161 0
145 161 0
146 165 0
147 165 0
142 162 0
146 164 0
144 162 0
144 163 0
143 158 0
138 155 0
144 161 0
141 160 0
146 164 0
140 158 0
144 162 0
130 147 0
146 164 0
152 170 0
150 169 0
148 165 0
150 167 0
144 162 0
145 161 0
147 165 0
135 153 0
142 159 0
139 154 0
146 165 0
147 163 0
141 157 0
154 171 0
151 166 0
149 167 0
143 160 0
148 162 0
152 171 0
145 160 0
149 166 0
144 157 0
144 159 0
144 160 0
149 165 0
154 168 0
148 164 0
150 165 0
148 160 0
151 166 0
146 161 0
151 167 0
146 160 0
149 161 0
155 169 0
146 160 0
152 163 0
148 160 0
146 159 0
148 161 0
156 170 0
147 159 0
153 166 0
142 153 0
151 166 0
151 160 0
160 173 0
143 153 0
147 158 0
152 162 0
154 166 0
147 157 0
152 165 0
151 159 0
154 164 0
147 156 0
155 167 0
154 165 0
146 155 0
155 165 0
152 163 0
152 163 0
156 169 0
151 158 0
149 160 0
152 163 0
155 166 0
152 160 0
153 161 0
151 160 0
153 161 0
150 158 0
158 168 0
156 167 0
153 161 0
154 163 0
157 166 0
154 162 0
155 165 0
154 163 0
158 165 0
154 161 0
158 166 0
162 171 0
157 165 0
161 170 0
152 159 0
154 162 0
158 165 0
157 163 0
157 167 0
159 167 0
155 162 0
159 167 0
162 171 0
151 157 0
160 168 0
155 165 0
158 169 0
157 163 0
159 168 0
154 163 0
155 161 0
159 168 0
157 165 0
163 172 0
161 171 0
157 165 0
164 175 0
159 168 0
161 170 0
162 172 0
164 176 0
158 167 0
161 172 0
161 171 0
162 173 0
163 175 0
162 171 0
160 172 0
163 174 0
160 173 0
164 175 0
165 178 0
175 197 0
174 196 0
176 197 0
173 195 0
172 193 0
175 196 0
176 197 0
176 197 0
176 196 0
173 194 0
170 191 0
174 194 0
173 194 0
172 194 0
172 193 0
174 195 0
174 196 0
175 195 0
176 197 0
174 194 0
174 195 0
174 195 0
172 193 0
169 190 0
175 196 0
171 193 0
177 197 0
171 192 0
171 193 0
167 189 0
175 195 0
173 194 0
174 195 0
169 190 0
169 192 0
169 191 0
174 196 0
172 193 0
172 193 0
170 191 0
171 191 0
170 191 0
171 192 0
166 187 0
169 189 0
168 188 0
171 193 0
168 189 0
170 192 0
172 192 0
167 188 0
167 187 0
165 186 0
167 188 0
167 188 0
166 187 0
171 191 0
168 189 0
167 188 0
167 188 0
164 185 0
162 183 0
165 187 0
166 188 0
166 187 0
168 189 0
167 189 0
164 185 0
165 186 0
161 182 0
164 185 0
165 186 0
163 183 0
162 184 0
161 182 0
163 183 0
166 188 0
159 181 0
155 176 0
161 182 0
162 184 0
158 180 0
166 188 0
156 178 0
157 179 0
161 183 0
152 174 0
154 176 0
152 173 0
161 182 0
154 176 0
157 180 0
154 176 0
154 176 0
157 178 0
155 177 0
158 180 0
162 183 0
159 180 0
158 181 0
163 185 0
160 182 0
154 177 0
154 176 0
154 177 0
162 184 0
155 177 0
161 183 0
157 181 0
153 176 0
152 174 0
154 176 0
156 178 0
160 182 0
151 174 0
154 176 0
153 175 0
157 179 0
151 173 0
159 181 0
153 174 0
151 172 0
155 178 0
158 180 0
155 177 0
155 177 0
152 174 0
155 177 0
153 175 0
155 177 0
150 172 0
158 180 0
150 171 0
157 179 0
153 175 0
160 182 0
146 167 0
151 174 0
151 174 0
145 166 0
149 171 0
152 174 0
151 173 0
146 168 0
148 169 0
146 167 0
150 171 0
154 175 0
154 176 0
151 173 0
151 172 0
140 162 0
142 164 0
151 173 0
153 176 0
152 174 0
151 172 0
147 169 0
153 175 0
145 167 0
148 170 0
144 164 0
147 170 0
145 166 0
140 163 0
145 168 0
147 168 0
149 170 0
144 167 0
145 166 0
142 162 0
147 167 0
148 169 0
137 159 0
145 166 0
149 171 0
139 160 0
143 164 0
137 156 0
142 164 0
145 167 0
143 165 0
147 169 0
138 160 0
145 167 0
143 164 0
143 165 0
134 155 0
138 160 0
148 169 0
137 158 0
142 163 0
141 160 0
137 159 0
140 162 0
147 169 0
137 158 0
143 164 0
143 164 0
141 160 0
144 163 0
146 168 0
137 157 0
138 158 0
144 165 0
141 162 0
144 165 0
133 153 0
139 159 0
136 156 0
137 158 0
143 164 0
139 158 0
133 153 0
141 160 0
135 156 0
146 167 0
140 160 0
143 163 0
141 160 0
140 160 0
137 157 0
130 150 0
147 169 0
136 155 0
146 166 0
145 164 0
140 160 0
139 158 0
139 159 0
143 164 0
146 168 0
143 164 0
142 161 0
147 166 0
138 159 0
134 152 0
143 163 0
150 171 0
146 164 0
146 166 0
139 159 0
143 162 0
139 159 0
145 165 0
142 161 0
142 162 0
153 173 0
144 164 0
151 172 0
146 165 0
145 165 0
140 158 0
146 165 0
145 166 0
147 166 0
146 166 0
143 161 0
142 160 0
150 170 0
145 161 0
147 167 0
137 155 0
147 165 0
137 153 0
142 161 0
151 170 0
145 164 0
148 168 0
143 161 0
153 173 0
149 167 0
153 172 0
143 162 0
143 159 0
149 167 0
148 166 0
141 158 0
140 158 0
154 173 0
154 169 0
151 169 0
148 165 0
149 165 0
147 166 0
151 168 0
149 164 0
140 158 0
150 167 0
151 167 0
154 171 0
149 166 0
149 165 0
151 167 0
150 165 0
150 167 0
151 167 0
141 153 0
143 159 0
148 164 0
155 171 0
142 155 0
154 170 0
150 164 0
155 166 0
151 168 0
154 165 0
148 161 0
145 161 0
148 163 0
151 168 0
156 168 0
147 159 0
152 167 0
152 165 0
142 154 0
152 164 0
155 167 0
151 167 0
160 174 0
151 162 0
151 164 0
150 160 0
156 167 0
153 167 0
153 166 0
154 165 0
153 163 0
152 165 0
153 164 0
149 157 0
146 156 0
152 163 0
153 160 0
144 151 0
159 171 0
154 166 0
160 172 0
157 169 0
150 158 0
154 163 0
152 161 0
148 153 0
150 158 0
152 163 0
154 162 0
154 163 0
153 165 0
141 145 0
154 160 0
154 162 0
151 158 0
153 163 0
155 165 0
158 162 0
157 165 0
153 162 0
159 169 0
159 168 0
153 162 0
150 157 0
154 161 0
160 172 0
158 167 0
158 166 0
161 171 0
156 164 0
156 164 0
159 168 0
159 169 0
158 167 0
155 161 0
160 171 0
160 167 0
158 168 0
161 171 0
161 171 0
160 168 0
161 172 0
159 167 0
163 175 0
161 170 0
159 169 0
160 167 0
159 169 0
162 172 0
161 170 0
159 168 0
162 173 0
158 169 0
159 168 0
164 174 0
159 167 0
162 172 0
165 177 0
163 175 0
161 171 0
164 177 0
162 175 0
164 178 0
173 195 0
177 199 0
173 194 0
171 192 0
176 197 0
174 195 0
173 194 0
173 194 0
177 197 0
171 191 0
176 197 0
175 196 0
174 195 0
176 197 0
172 194 0
169 190 0
174 196 0
174 195 0
175 195 0
173 194 0
172 193 0
174 196 0
175 195 0
171 193 0
169 190 0
173 194 0
176 197 0
172 193 0
171 192 0
170 191 0
173 194 0
172 193 0
170 191 0
170 191 0
173 195 0
171 192 0
167 188 0
165 185 0
170 192 0
169 190 0
165 185 0
173 194 0
169 191 0
170 191 0
175 196 0
168 189 0
168 188 0
167 188 0
165 186 0
167 188 0
165 187 0
172 193 0
166 186 0
169 190 0
169 190 0
163 186 0
168 189 0
169 190 0
168 190 0
163 185 0
169 191 0
170 192 0
169 191 0
160 182 0
168 189 0
163 185 0
163 185 0
166 188 0
162 183 0
171 193 0
161 182 0
167 189 0
156 178 0
163 184 0
157 178 0
159 182 0
164 184 0
164 185 0
154 176 0
168 190 0
167 189 0
169 191 0
159 180 0
165 186 0
157 179 0
165 188 0
162 184 0
159 182 0
162 184 0
154 176 0
157 180 0
163 185 0
153 175 0
157 179 0
150 171 0
154 176 0
160 182 0
158 180 0
157 179 0
157 179 0
151 172 0
163 186 0
152 174 0
161 183 0
151 174 0
162 185 0
152 174 0
155 177 0
158 180 0
156 179 0
154 176 0
159 181 0
148 170 0
157 179 0
151 173 0
158 179 0
150 172 0
153 175 0
151 174 0
155 177 0
160 182 0
155 177 0
154 176 0
159 181 0
148 171 0
153 175 0
154 175 0
153 176 0
154 176 0
148 170 0
148 171 0
154 177 0
158 180 0
149 171 0
150 172 0
153 175 0
152 175 0
134 156 0
151 173 0
149 171 0
149 171 0
151 173 0
153 175 0
148 169 0
144 166 0
154 177 0
143 166 0
151 174 0
152 172 0
151 173 0
148 169 0
148 170 0
148 170 0
151 173 0
154 176 0
142 164 0
150 172 0
147 169 0
145 166 0
156 177 0
145 167 0
150 171 0
145 167 0
144 166 0
149 172 0
151 172 0
141 163 0
150 172 0
143 164 0
146 168 0
143 163 0
143 164 0
146 168 0
144 167 0
139 161 0
138 159 0
143 165 0
141 162 0
145 167 0
149 170 0
142 163 0
147 167 0
138 160 0
140 161 0
141 161 0
149 170 0
137 157 0
140 160 0
140 162 0
144 165 0
140 161 0
141 163 0
144 166 0
141 162 0
143 164 0
139 161 0
146 167 0
147 168 0
145 166 0
145 166 0
132 152 0
141 162 0
145 165 0
126 144 0
147 168 0
133 152 0
150 172 0
136 157 0
139 159 0
143 163 0
142 161 0
137 157 0
145 165 0
141 163 0
138 160 0
145 166 0
138 159 0
129 147 0
140 160 0
144 164 0
152 173 0
138 159 0
146 166 0
141 162 0
142 162 0
136 159 0
141 161 0
140 160 0
148 169 0
145 166 0
142 162 0
147 166 0
146 166 0
145 165 0
145 165 0
145 165 0
150 170 0
136 157 0
142 161 0
141 162 0
140 160 0
144 163 0
147 165 0
142 160 0
148 167 0
146 165 0
150 168 0
137 155 0
142 163 0
153 172 0
146 165 0
145 164 0
143 163 0
148 167 0
148 167 0
154 173 0
146 168 0
147 166 0
145 165 0
145 163 0
146 166 0
145 164 0
146 165 0
146 164 0
157 177 0
147 165 0
145 166 0
147 164 0
151 169 0
148 169 0
151 171 0
147 166 0
148 167 0
151 168 0
147 166 0
142 158 0
153 171 0
146 163 0
148 167 0
144 160 0
145 161 0
153 171 0
141 158 0
155 172 0
147 164 0
152 171 0
145 160 0
148 165 0
142 159 0
148 165 0
150 167 0
151 166 0
152 169 0
149 164 0
143 159 0
142 157 0
146 162 0
152 170 0
148 162 0
149 165 0
154 170 0
149 166 0
147 163 0
150 165 0
152 168 0
146 163 0
153 166 0
149 164 0
153 168 0
158 173 0
144 158 0
151 162 0
151 164 0
152 166 0
149 161 0
153 168 0
151 164 0
144 155 0
155 167 0
149 159 0
152 166 0
153 166 0
151 163 0
155 168 0
152 165 0
153 168 0
152 165 0
151 164 0
152 162 0
157 170 0
152 164 0
156 168 0
157 171 0
158 167 0
163 176 0
153 164 0
156 165 0
151 161 0
151 161 0
156 167 0
154 165 0
155 165 0
153 163 0
157 166 0
154 165 0
156 165 0
157 165 0
152 162 0
154 163 0
158 169 0
157 165 0
158 169 0
159 169 0
153 160 0
153 162 0
154 165 0
156 166 0
158 167 0
157 166 0
158 167 0
154 164 0
155 164 0
156 166 0
153 159 0
160 169 0
164 173 0
153 162 0
154 161 0
158 167 0
160 171 0
156 166 0
160 170 0
163 174 0
157 165 0
159 168 0
159 168 0
161 172 0
159 168 0
161 173 0
161 171 0
163 173 0
163 172 0
158 166 0
163 171 0
160 171 0
164 174 0
164 175 0
162 172 0
167 180 0
162 171 0
163 176 0
161 173 0
161 170 0
161 170 0
162 171 0
168 182 0
164 174 0
165 178 0
163 174 0
164 176 0
175 196 0
177 198 0
171 193 0
171 193 0
174 196 0
171 193 0
172 194 0
178 199 0
174 196 0
175 196 0
173 194 0
175 197 0
173 195 0
175 196 0
170 190 0
173 195 0
175 195 0
171 193 0
174 194 0
173 195 0
168 189 0
170 191 0
169 190 0
170 192 0
171 192 0
173 194 0
173 194 0
171 192 0
174 196 0
176 197 0
168 190 0
174 194 0
171 193 0
172 193 0
169 191 0
170 191 0
170 192 0
175 196 0
168 189 0
167 188 0
167 188 0
168 188 0
166 187 0
169 190 0
169 190 0
167 188 0
168 189 0
167 189 0
168 189 0
163 186 0
170 191 0
167 188 0
168 189 0
169 190 0
168 190 0
162 183 0
168 188 0
165 187 0
163 184 0
163 185 0
161 183 0
168 190 0
167 189 0
166 186 0
160 181 0
159 181 0
162 184 0
160 182 0
167 189 0
161 182 0
162 184 0
165 187 0
164 186 0
156 178 0
157 180 0
162 184 0
166 187 0
160 181 0
161 182 0
159 181 0
154 176 0
160 181 0
165 187 0
164 185 0
159 181 0
161 183 0
159 180 0
158 181 0
161 183 0
161 183 0
160 182 0
156 177 0
158 180 0
158 180 0
158 180 0
162 185 0
152 174 0
156 178 0
156 179 0
157 179 0
154 177 0
151 173 0
155 177 0
156 178 0
152 175 0
162 183 0
158 179 0
160 182 0
157 180 0
155 177 0
152 174 0
150 173 0
145 168 0
160 183 0
150 172 0
155 177 0
157 179 0
154 176 0
160 183 0
150 172 0
155 177 0
148 170 0
155 177 0
155 177 0
154 177 0
149 172 0
154 176 0
147 170 0
149 171 0
153 175 0
145 167 0
158 179 0
157 178 0
153 176 0
155 177 0
151 173 0
157 179 0
149 170 0
150 171 0
152 174 0
151 173 0
147 169 0
152 174 0
151 173 0
146 168 0
151 173 0
152 174 0
153 174 0
159 181 0
152 174 0
154 176 0
146 168 0
144 166 0
150 173 0
152 175 0
152 174 0
148 168 0
152 173 0
145 168 0
143 164 0
150 172 0
147 170 0
143 164 0
146 168 0
150 172 0
141 162 0
140 161 0
154 175 0
152 173 0
141 163 0
147 169 0
150 172 0
141 162 0
151 173 0
138 159 0
147 169 0
152 174 0
143 164 0
145 167 0
143 164 0
149 170 0
144 166 0
145 167 0
147 166 0
151 172 0
148 169 0
148 169 0
145 167 0
145 166 0
139 160 0
144 163 0
147 168 0
149 171 0
139 160 0
145 166 0
145 167 0
144 166 0
143 164 0
142 162 0
151 171 0
139 158 0
141 163 0
139 159 0
137 157 0
140 159 0
143 164 0
143 164 0
151 172 0
140 161 0
143 162 0
143 163 0
147 167 0
134 153 0
138 159 0
150 170 0
140 160 0
147 167 0
144 165 0
135 156 0
135 155 0
141 161 0
143 163 0
143 164 0
150 171 0
143 165 0
140 161 0
139 158 0
138 157 0
140 159 0
144 165 0
143 164 0
143 163 0
139 159 0
146 166 0
150 171 0
141 163 0
151 171 0
140 160 0
143 164 0
147 167 0
133 153 0
147 166 0
149 167 0
150 169 0
145 165 0
139 158 0
140 161 0
149 169 0
148 168 0
155 174 0
147 166 0
143 162 0
143 164 0
147 166 0
139 159 0
145 165 0
150 170 0
139 158 0
143 163 0
145 165 0
147 167 0
148 165 0
151 172 0
140 160 0
144 159 0
145 164 0
144 164 0
139 156 0
152 170 0
141 158 0
140 157 0
144 161 0
150 169 0
146 164 0
144 161 0
145 163 0
153 171 0
141 158 0
148 166 0
147 166 0
147 163 0
161 180 0
154 170 0
143 160 0
153 170 0
152 169 0
149 168 0
148 165 0
141 157 0
144 159 0
149 168 0
151 167 0
145 162 0
158 174 0
145 163 0
137 150 0
152 169 0
146 164 0
143 160 0
145 161 0
151 166 0
150 166 0
151 166 0
144 158 0
146 161 0
147 159 0
149 165 0
150 164 0
154 169 0
154 168 0
153 168 0
158 172 0
156 170 0
151 166 0
155 171 0
155 169 0
144 158 0
150 162 0
154 166 0
151 164 0
152 164 0
151 165 0
153 167 0
144 156 0
157 172 0
152 168 0
153 166 0
148 162 0
157 173 0
152 165 0
154 166 0
154 167 0
153 167 0
152 166 0
150 164 0
149 159 0
155 167 0
146 155 0
160 172 0
156 169 0
153 164 0
158 169 0
154 165 0
159 173 0
154 163 0
158 169 0
156 164 0
152 161 0
158 169 0
152 164 0
146 155 0
157 167 0
156 167 0
154 163 0
157 170 0
151 159 0
155 166 0
154 161 0
154 166 0
157 167 0
156 163 0
159 170 0
157 169 0
158 169 0
159 171 0
161 168 0
158 167 0
156 163 0
161 172 0
162 174 0
157 167 0
160 169 0
157 167 0
158 166 0
155 162 0
165 175 0
156 163 0
159 167 0
160 171 0
156 164 0
154 161 0
160 169 0
156 164 0
157 165 0
164 172 0
162 173 0
157 166 0
161 169 0
165 177 0
163 173 0
163 174 0
162 173 0
159 171 0
164 173 0
161 170 0
159 169 0
164 175 0
163 176 0
162 175 0
164 177 0
170 192 0
175 197 0
174 196 0
171 193 0
174 195 0
169 191 0
173 195 0
173 193 0
173 195 0
175 197 0
175 196 0
172 194 0
176 198 0
174 194 0
173 194 0
172 194 0
171 192 0
174 195 0
168 190 0
169 190 0
176 198 0
170 192 0
173 194 0
175 196 0
174 195 0
175 196 0
173 195 0
169 190 0
171 192 0
173 194 0
167 188 0
173 194 0
170 192 0
171 193 0
171 193 0
168 189 0
171 191 0
170 191 0
172 193 0
167 188 0
175 195 0
166 187 0
170 191 0
168 189 0
169 189 0
169 190 0
168 189 0
167 189 0
167 188 0
166 186 0
165 186 0
166 188 0
166 188 0
165 187 0
165 187 0
169 190 0
163 183 0
168 190 0
162 183 0
160 181 0
164 185 0
169 191 0
161 182 0
167 190 0
167 188 0
159 180 0
160 182 0
162 184 0
160 182 0
163 184 0
163 186 0
160 181 0
162 183 0
163 185 0
162 183 0
156 178 0
158 180 0
163 185 0
160 182 0
156 177 0
159 181 0
160 183 0
161 182 0
165 186 0
158 180 0
153 174 0
156 178 0
163 185 0
155 178 0
155 178 0
159 180 0
154 176 0
156 179 0
161 183 0
155 178 0
159 182 0
159 182 0
152 175 0
152 173 0
151 174 0
152 175 0
158 179 0
156 178 0
157 179 0
158 180 0
151 173 0
158 179 0
161 184 0
159 182 0
155 176 0
155 178 0
158 180 0
156 178 0
160 182 0
155 177 0
157 180 0
159 180 0
153 175 0
152 173 0
149 170 0
156 178 0
147 169 0
154 177 0
156 178 0
158 179 0
150 174 0
149 171 0
154 175 0
153 175 0
150 172 0
157 178 0
155 178 0
147 169 0
154 175 0
151 174 0
152 175 0
162 184 0
145 166 0
155 178 0
150 172 0
155 176 0
158 180 0
153 175 0
152 173 0
144 166 0
157 179 0
147 169 0
148 170 0
144 167 0
149 172 0
147 170 0
151 174 0
143 164 0
149 170 0
144 167 0
145 167 0
149 171 0
144 165 0
151 173 0
145 167 0
156 178 0
142 164 0
152 174 0
156 178 0
149 171 0
158 180 0
139 160 0
146 168 0
146 167 0
152 174 0
150 172 0
148 170 0
137 158 0
147 169 0
145 166 0
150 172 0
142 163 0
149 170 0
145 166 0
134 156 0
145 166 0
151 172 0
151 171 0
155 175 0
141 163 0
134 155 0
150 170 0
145 167 0
145 165 0
145 166 0
131 152 0
136 157 0
145 166 0
147 168 0
149 169 0
146 168 0
145 166 0
149 171 0
147 168 0
132 153 0
143 164 0
151 172 0
148 169 0
144 166 0
152 173 0
144 166 0
135 154 0
145 165 0
137 158 0
143 164 0
143 162 0
154 175 0
128 148 0
149 170 0
136 157 0
144 165 0
137 157 0
147 166 0
148 169 0
142 163 0
144 165 0
134 153 0
133 153 0
149 168 0
155 176 0
135 155 0
145 165 0
144 164 0
150 171 0
145 166 0
146 166 0
150 170 0
141 160 0
144 163 0
147 164 0
143 163 0
142 161 0
136 155 0
141 162 0
147 168 0
150 171 0
145 164 0
153 174 0
139 159 0
141 160 0
135 156 0
148 168 0
143 163 0
145 165 0
153 174 0
144 162 0
145 164 0
148 169 0
154 174 0
151 172 0
147 167 0
141 161 0
138 159 0
145 166 0
146 166 0
150 169 0
139 159 0
140 159 0
145 164 0
142 161 0
146 163 0
149 168 0
148 168 0
150 169 0
150 170 0
147 166 0
150 168 0
143 161 0
141 158 0
148 166 0
141 158 0
147 165 0
142 161 0
148 165 0
147 166 0
154 173 0
157 175 0
149 166 0
147 164 0
141 159 0
151 170 0
148 167 0
145 161 0
143 159 0
159 176 0
155 174 0
149 165 0
144 160 0
154 171 0
155 172 0
150 167 0
152 171 0
141 159 0
150 165 0
154 169 0
152 169 0
146 161 0
148 163 0
149 165 0
146 161 0
153 168 0
146 163 0
151 167 0
148 163 0
154 171 0
151 167 0
153 170 0
155 170 0
153 166 0
147 162 0
151 164 0
154 169 0
143 157 0
149 162 0
154 167 0
149 161 0
154 168 0
152 166 0
155 169 0
146 159 0
151 166 0
151 166 0
153 169 0
154 168 0
156 169 0
150 160 0
158 174 0
147 158 0
159 171 0
155 167 0
154 167 0
150 160 0
156 169 0
155 167 0
152 161 0
158 172 0
154 166 0
151 162 0
154 165 0
150 159 0
147 159 0
156 166 0
155 168 0
158 167 0
152 163 0
149 156 0
158 172 0
159 170 0
155 164 0
156 167 0
156 166 0
150 160 0
154 161 0
154 165 0
152 160 0
153 161 0
159 167 0
155 165 0
156 163 0
155 167 0
155 166 0
156 166 0
160 171 0
153 161 0
159 168 0
158 167 0
159 169 0
164 176 0
158 167 0
162 173 0
161 171 0
155 164 0
162 173 0
160 170 0
162 172 0
164 175 0
157 165 0
164 174 0
166 179 0
164 177 0
161 171 0
161 172 0
164 173 0
162 176 0
159 170 0
164 178 0
161 169 0
156 165 0
163 176 0
164 175 0
163 175 0
160 174 0
166 179 0
164 176 0
164 177 0
175 197 0
174 196 0
177 197 0
171 193 0
176 197 0
176 196 0
175 196 0
175 197 0
172 193 0
175 196 0
176 197 0
173 194 0
173 195 0
172 194 0
174 195 0
165 187 0
175 196 0
175 196 0
174 195 0
171 192 0
170 192 0
173 194 0
173 193 0
172 192 0
169 190 0
171 192 0
171 193 0
173 194 0
171 192 0
172 192 0
171 191 0
173 195 0
168 190 0
170 192 0
172 194 0
172 192 0
171 193 0
173 194 0
172 193 0
175 197 0
166 187 0
168 189 0
165 186 0
174 194 0
168 189 0
172 193 0
165 186 0
166 187 0
163 185 0
169 191 0
166 186 0
166 187 0
161 182 0
172 193 0
164 185 0
165 187 0
160 181 0
167 189 0
167 188 0
166 187 0
162 182 0
159 181 0
170 192 0
162 184 0
163 186 0
164 186 0
162 184 0
167 189 0
165 186 0
163 185 0
158 180 0
160 182 0
162 183 0
160 182 0
160 183 0
166 188 0
155 177 0
162 184 0
163 185 0
164 187 0
155 177 0
164 185 0
164 187 0
159 182 0
164 186 0
156 178 0
155 176 0
153 175 0
155 177 0
163 186 0
158 180 0
163 185 0
158 180 0
156 177 0
152 175 0
147 169 0
160 183 0
159 181 0
161 183 0
155 176 0
152 173 0
155 176 0
153 175 0
158 179 0
157 180 0
157 179 0
160 183 0
161 184 0
152 175 0
161 182 0
149 171 0
154 177 0
159 182 0
158 180 0
158 181 0
154 176 0
159 181 0
158 180 0
155 176 0
154 177 0
162 183 0
164 186 0
153 176 0
156 180 0
151 174 0
152 174 0
153 175 0
154 176 0
152 175 0
158 181 0
151 173 0
160 182 0
152 173 0
147 169 0
154 177 0
149 171 0
155 178 0
149 171 0
154 177 0
145 168 0
152 174 0
153 175 0
152 175 0
142 163 0
151 174 0
141 162 0
144 165 0
155 177 0
146 168 0
155 177 0
152 173 0
152 174 0
151 172 0
144 166 0
153 176 0
149 171 0
155 177 0
154 177 0
148 169 0
148 171 0
149 172 0
148 171 0
146 167 0
144 165 0
144 166 0
139 159 0
151 172 0
146 167 0
147 168 0
151 174 0
149 171 0
149 170 0
144 166 0
148 170 0
147 169 0
151 173 0
144 165 0
148 170 0
144 164 0
155 177 0
149 171 0
149 171 0
149 171 0
150 173 0
146 168 0
143 165 0
150 171 0
148 169 0
150 172 0
148 169 0
150 171 0
147 168 0
141 162 0
138 159 0
139 159 0
140 161 0
144 165 0
146 167 0
136 157 0
156 176 0
144 164 0
134 155 0
141 161 0
145 165 0
133 154 0
142 163 0
147 168 0
143 162 0
146 165 0
153 174 0
146 168 0
141 163 0
148 170 0
147 168 0
135 154 0
144 165 0
141 160 0
145 165 0
136 156 0
144 167 0
138 159 0
151 173 0
139 159 0
150 173 0
141 162 0
142 163 0
148 169 0
143 164 0
146 168 0
148 168 0
146 166 0
150 170 0
154 175 0
145 164 0
145 166 0
147 168 0
152 173 0
141 160 0
150 171 0
149 171 0
142 161 0
148 169 0
146 166 0
149 170 0
145 165 0
153 174 0
143 163 0
146 166 0
132 153 0
138 158 0
138 156 0
145 164 0
152 172 0
148 168 0
144 165 0
143 163 0
149 169 0
153 175 0
145 165 0
145 164 0
147 167 0
150 169 0
154 174 0
143 162 0
156 176 0
150 170 0
156 176 0
154 175 0
149 168 0
148 167 0
145 162 0
138 156 0
148 166 0
148 168 0
152 172 0
146 163 0
150 167 0
157 175 0
153 171 0
152 170 0
155 172 0
138 156 0
150 168 0
148 166 0
139 156 0
153 171 0
153 173 0
150 167 0
140 156 0
152 170 0
147 164 0
144 160 0
154 169 0
155 173 0
142 160 0
148 165 0
155 173 0
159 176 0
154 169 0
155 171 0
149 166 0
151 167 0
153 167 0
149 165 0
157 171 0
154 171 0
150 165 0
150 166 0
156 171 0
152 166 0
155 172 0
154 169 0
151 168 0
149 161 0
155 172 0
148 163 0
156 173 0
151 164 0
147 159 0
156 172 0
153 169 0
154 169 0
158 172 0
156 169 0
153 166 0
152 166 0
151 166 0
149 163 0
151 165 0
148 158 0
149 163 0
160 174 0
150 162 0
149 160 0
149 160 0
157 171 0
153 163 0
153 165 0
154 168 0
147 158 0
156 168 0
152 165 0
158 171 0
153 163 0
153 165 0
160 172 0
156 167 0
157 171 0
150 160 0
157 169 0
158 169 0
152 159 0
160 174 0
160 174 0
158 169 0
157 169 0
156 166 0
153 160 0
156 165 0
161 170 0
155 164 0
156 167 0
160 170 0
162 172 0
157 168 0
157 166 0
158 169 0
160 172 0
157 166 0
156 165 0
155 164 0
161 173 0
159 169 0
154 163 0
159 169 0
159 169 0
161 170 0
155 165 0
160 168 0
165 178 0
156 165 0
163 175 0
157 167 0
162 173 0
161 171 0
164 176 0
159 170 0
164 175 0
160 171 0
159 168 0
164 176 0
162 173 0
165 177 0
163 173 0
161 169 0
164 175 0
160 166 0
161 171 0
165 178 0
162 174 0
174 196 0
172 194 0
176 197 0
173 193 0
173 195 0
172 194 0
173 195 0
171 193 0
168 190 0
171 193 0
175 197 0
176 197 0
173 194 0
175 196 0
174 195 0
172 193 0
170 191 0
174 195 0
172 194 0
173 193 0
169 190 0
172 194 0
172 194 0
173 194 0
170 191 0
173 193 0
170 191 0
168 190 0
169 190 0
171 194 0
168 190 0
167 189 0
174 194 0
169 190 0
167 189 0
166 188 0
170 191 0
165 186 0
172 193 0
173 194 0
166 188 0
169 190 0
173 194 0
169 190 0
171 193 0
171 192 0
173 195 0
168 190 0
165 186 0
172 193 0
166 188 0
163 185 0
164 186 0
163 186 0
162 184 0
165 185 0
170 191 0
164 186 0
166 187 0
161 183 0
160 181 0
164 185 0
161 183 0
166 188 0
163 185 0
166 188 0
168 190 0
168 190 0
162 184 0
161 182 0
161 183 0
164 186 0
165 187 0
160 182 0
158 180 0
163 185 0
165 187 0
160 180 0
165 186 0
166 188 0
165 186 0
165 186 0
168 189 0
162 184 0
159 181 0
162 184 0
162 183 0
156 178 0
164 186 0
165 187 0
155 177 0
151 172 0
157 179 0
149 172 0
159 181 0
158 180 0
160 181 0
154 177 0
158 180 0
156 179 0
156 179 0
157 179 0
159 181 0
154 175 0
153 176 0
156 178 0
153 176 0
155 178 0
149 172 0
151 173 0
158 181 0
157 179 0
156 178 0
154 176 0
153 175 0
152 174 0
154 176 0
156 179 0
159 181 0
154 177 0
147 170 0
161 184 0
153 175 0
157 179 0
153 175 0
154 177 0
150 173 0
154 175 0
149 171 0
152 175 0
158 179 0
150 171 0
155 177 0
152 174 0
161 183 0
157 179 0
152 174 0
150 172 0
155 177 0
152 174 0
155 177 0
152 175 0
147 169 0
149 171 0
149 171 0
146 168 0
155 178 0
154 176 0
145 167 0
143 165 0
150 171 0
155 177 0
151 173 0
138 159 0
153 175 0
151 174 0
155 176 0
150 172 0
147 169 0
146 168 0
143 165 0
159 182 0
151 172 0
153 174 0
151 173 0
142 163 0
141 163 0
141 163 0
149 170 0
148 171 0
143 165 0
147 170 0
148 169 0
151 173 0
143 164 0
149 170 0
149 172 0
148 170 0
153 175 0
147 169 0
144 165 0
143 164 0
147 169 0
150 171 0
147 170 0
146 167 0
148 170 0
145 166 0
138 159 0
144 166 0
142 163 0
147 168 0
150 171 0
141 162 0
140 161 0
144 166 0
147 168 0
146 167 0
150 172 0
137 159 0
148 171 0
146 165 0
149 170 0
148 167 0
142 163 0
143 165 0
144 164 0
141 162 0
148 168 0
150 171 0
133 153 0
144 164 0
147 166 0
148 168 0
145 165 0
133 154 0
139 159 0
139 158 0
145 166 0
145 166 0
145 164 0
148 168 0
147 167 0
134 154 0
147 167 0
150 171 0
144 166 0
147 168 0
151 172 0
141 162 0
146 166 0
147 167 0
144 164 0
150 168 0
148 168 0
140 160 0
150 171 0
145 166 0
140 160 0
146 165 0
139 159 0
148 169 0
146 165 0
140 160 0
147 168 0
143 162 0
139 160 0
144 163 0
144 162 0
146 165 0
143 163 0
144 164 0
151 170 0
148 168 0
144 164 0
141 161 0
148 168 0
145 165 0
148 168 0
148 167 0
142 161 0
152 172 0
143 161 0
150 169 0
142 162 0
150 168 0
150 170 0
151 171 0
148 166 0
153 171 0
143 163 0
147 166 0
148 168 0
150 170 0
146 163 0
150 171 0
148 167 0
145 164 0
146 163 0
143 160 0
149 166 0
151 170 0
152 172 0
154 173 0
148 167 0
158 177 0
148 166 0
153 172 0
157 174 0
158 176 0
157 176 0
154 174 0
148 166 0
147 165 0
150 168 0
151 168 0
152 169 0
155 172 0
152 169 0
151 168 0
149 166 0
150 165 0
155 171 0
153 170 0
149 163 0
158 175 0
154 171 0
151 167 0
150 165 0
149 164 0
153 169 0
152 168 0
146 162 0
158 172 0
151 165 0
156 172 0
154 169 0
150 166 0
155 171 0
157 172 0
153 167 0
145 160 0
152 165 0
148 162 0
150 164 0
152 165 0
157 172 0
156 170 0
155 169 0
152 168 0
154 169 0
152 164 0
151 162 0
155 168 0
155 168 0
156 170 0
151 163 0
151 163 0
154 164 0
158 170 0
154 167 0
150 163 0
154 165 0
157 170 0
157 167 0
159 172 0
153 165 0
154 166 0
154 167 0
152 164 0
158 170 0
156 166 0
150 159 0
157 169 0
158 170 0
157 167 0
159 171 0
156 166 0
158 166 0
160 174 0
153 164 0
158 171 0
152 162 0
158 167 0
160 172 0
150 158 0
167 178 0
158 167 0
158 170 0
151 161 0
155 164 0
158 168 0
156 166 0
162 175 0
155 164 0
159 169 0
163 176 0
158 167 0
157 167 0
160 171 0
165 177 0
160 171 0
157 167 0
159 168 0
160 173 0
158 165 0
163 174 0
163 175 0
164 175 0
159 171 0
164 175 0
162 173 0
164 175 0
165 178 0
159 170 0
162 173 0
164 174 0
163 176 0
164 174 0
162 172 0
176 197 0
173 195 0
172 193 0
176 198 0
175 196 0
172 194 0
174 196 0
175 196 0
174 195 0
174 196 0
174 195 0
170 192 0
173 195 0
169 190 0
175 196 0
171 193 0
173 194 0
173 194 0
171 193 0
171 192 0
175 196 0
167 188 0
170 192 0
173 194 0
173 194 0
173 195 0
170 191 0
171 192 0
171 193 0
173 195 0
170 192 0
169 189 0
171 192 0
169 191 0
164 185 0
171 193 0
169 190 0
168 190 0
172 193 0
170 192 0
168 190 0
172 192 0
164 185 0
165 187 0
166 187 0
166 186 0
158 180 0
166 187 0
164 186 0
165 186 0
169 191 0
168 190 0
161 181 0
167 187 0
167 189 0
164 185 0
169 190 0
166 188 0
166 189 0
158 179 0
168 190 0
161 184 0
163 184 0
163 185 0
164 186 0
162 183 0
164 186 0
163 185 0
162 184 0
164 186 0
164 185 0
162 184 0
155 177 0
158 180 0
156 179 0
156 177 0
161 183 0
163 185 0
163 184 0
155 177 0
157 179 0
162 184 0
159 181 0
148 171 0
151 173 0
151 173 0
157 179 0
161 183 0
161 183 0
163 186 0
158 181 0
155 176 0
163 185 0
159 182 0
156 179 0
155 178 0
162 184 0
164 187 0
158 180 0
164 187 0
160 182 0
163 186 0
157 179 0
156 179 0
158 182 0
155 178 0
161 184 0
156 179 0
158 181 0
157 180 0
158 180 0
154 177 0
160 183 0
164 186 0
158 180 0
155 177 0
155 177 0
158 180 0
147 169 0
160 181 0
157 180 0
149 170 0
155 177 0
154 177 0
150 173 0
155 178 0
145 167 0
153 175 0
157 179 0
157 179 0
151 175 0
151 174 0
153 176 0
149 171 0
156 178 0
150 172 0
153 175 0
146 167 0
149 171 0
153 175 0
148 171 0
157 180 0
150 172 0
153 175 0
160 183 0
152 174 0
150 173 0
143 166 0
145 167 0
144 165 0
154 176 0
155 178 0
148 171 0
143 166 0
152 174 0
145 167 0
145 166 0
153 175 0
146 168 0
144 165 0
143 164 0
146 168 0
150 172 0
142 164 0
141 162 0
151 174 0
146 168 0
151 174 0
149 171 0
150 170 0
153 174 0
147 168 0
151 173 0
156 179 0
156 177 0
143 166 0
151 173 0
149 171 0
147 169 0
146 168 0
147 168 0
152 174 0
148 169 0
145 167 0
151 173 0
137 159 0
146 167 0
141 162 0
146 168 0
142 164 0
143 164 0
151 172 0
147 168 0
145 166 0
147 168 0
143 165 0
147 167 0
149 169 0
143 164 0
150 171 0
150 172 0
142 163 0
149 170 0
153 174 0
143 163 0
151 172 0
145 166 0
145 166 0
146 168 0
145 166 0
152 174 0
152 173 0
148 170 0
156 176 0
132 153 0
147 168 0
154 176 0
144 164 0
142 161 0
150 170 0
149 170 0
147 169 0
141 161 0
150 171 0
147 168 0
153 174 0
151 170 0
144 164 0
139 160 0
152 172 0
150 170 0
144 163 0
145 165 0
147 168 0
140 162 0
152 173 0
144 163 0
147 167 0
143 163 0
143 164 0
147 166 0
145 165 0
148 168 0
155 176 0
155 174 0
144 165 0
148 167 0
156 178 0
153 172 0
143 164 0
142 161 0
149 168 0
153 173 0
143 162 0
145 166 0
142 161 0
149 171 0
149 170 0
147 167 0
146 166 0
142 163 0
151 170 0
148 168 0
150 170 0
144 161 0
148 168 0
150 170 0
153 173 0
146 165 0
143 164 0
150 170 0
145 163 0
147 167 0
155 175 0
145 165 0
147 167 0
147 166 0
147 167 0
151 169 0
147 164 0
148 165 0
155 175 0
154 173 0
151 171 0
148 164 0
148 166 0
148 167 0
152 172 0
154 171 0
149 166 0
143 161 0
145 162 0
152 170 0
149 164 0
150 168 0
152 169 0
153 172 0
152 169 0
151 167 0
156 174 0
149 165 0
154 170 0
152 168 0
154 172 0
149 164 0
145 159 0
147 164 0
154 172 0
153 171 0
153 167 0
156 174 0
157 174 0
150 163 0
150 163 0
152 170 0
151 166 0
151 167 0
160 177 0
152 167 0
146 160 0
150 165 0
154 170 0
150 166 0
148 161 0
151 164 0
157 171 0
153 168 0
151 165 0
147 158 0
161 176 0
156 170 0
150 162 0
158 172 0
156 169 0
154 167 0
154 166 0
158 174 0
146 158 0
157 171 0
157 170 0
151 162 0
155 169 0
163 177 0
154 168 0
158 172 0
157 168 0
152 166 0
156 170 0
158 167 0
152 162 0
151 164 0
149 160 0
153 164 0
153 162 0
156 169 0
160 172 0
159 170 0
157 170 0
160 173 0
155 166 0
157 168 0
160 171 0
159 171 0
157 168 0
160 170 0
159 168 0
157 169 0
162 173 0
154 161 0
164 173 0
158 167 0
155 166 0
158 168 0
158 169 0
157 165 0
161 172 0
159 170 0
158 168 0
161 174 0
159 169 0
159 170 0
162 174 0
159 169 0
165 178 0
161 173 0
152 162 0
161 173 0
162 174 0
162 175 0
165 177 0
159 170 0
161 171 0
161 171 0
162 175 0
157 166 0
161 171 0
163 174 0
159 169 0
167 181 0
164 175 0
172 193 0
171 193 0
172 194 0
173 195 0
171 192 0
172 194 0
176 197 0
173 195 0
176 197 0
175 195 0
174 195 0
170 192 0
173 194 0
174 195 0
173 194 0
174 196 0
163 186 0
171 193 0
174 196 0
170 191 0
172 193 0
172 194 0
172 194 0
173 195 0
175 196 0
168 190 0
171 193 0
170 192 0
172 193 0
171 192 0
170 191 0
173 194 0
169 190 0
170 193 0
174 194 0
169 191 0
169 191 0
170 191 0
165 187 0
170 192 0
166 188 0
170 191 0
165 187 0
169 191 0
171 192 0
166 188 0
164 187 0
169 191 0
166 188 0
167 189 0
165 187 0
171 193 0
165 186 0
168 189 0
168 189 0
167 189 0
168 189 0
169 191 0
171 192 0
167 188 0
164 185 0
162 184 0
162 183 0
165 186 0
162 183 0
163 185 0
162 185 0
164 186 0
164 186 0
162 184 0
160 182 0
165 187 0
156 178 0
161 183 0
162 183 0
165 187 0
165 187 0
161 183 0
154 177 0
155 177 0
162 183 0
160 182 0
159 181 0
171 193 0
153 175 0
163 185 0
165 188 0
161 183 0
159 182 0
156 179 0
158 180 0
159 182 0
165 187 0
157 179 0
162 184 0
147 169 0
158 180 0
156 178 0
155 178 0
152 174 0
162 183 0
157 179 0
159 181 0
157 180 0
159 181 0
152 174 0
153 176 0
157 181 0
151 175 0
157 179 0
158 181 0
163 185 0
150 172 0
150 171 0
157 180 0
154 176 0
158 181 0
160 184 0
160 182 0
153 176 0
151 174 0
157 179 0
146 168 0
156 179 0
154 177 0
153 175 0
158 180 0
156 178 0
144 167 0
158 181 0
159 182 0
156 177 0
155 177 0
144 166 0
157 179 0
150 172 0
149 171 0
157 179 0
150 173 0
155 176 0
151 173 0
152 174 0
146 169 0
152 174 0
154 175 0
154 175 0
153 175 0
154 175 0
152 175 0
152 173 0
149 171 0
150 173 0
152 175 0
152 175 0
157 180 0
153 177 0
148 170 0
156 180 0
156 178 0
140 160 0
152 174 0
147 169 0
147 169 0
144 166 0
146 168 0
150 172 0
157 179 0
150 171 0
152 175 0
147 170 0
145 166 0
144 164 0
148 169 0
152 173 0
143 163 0
145 167 0
139 161 0
146 168 0
143 164 0
155 177 0
133 154 0
154 176 0
149 170 0
149 170 0
145 167 0
152 174 0
144 165 0
151 173 0
152 174 0
142 163 0
151 173 0
145 165 0
158 181 0
143 163 0
148 170 0
151 173 0
144 165 0
151 171 0
140 161 0
146 167 0
148 169 0
142 164 0
146 165 0
145 166 0
141 163 0
142 163 0
142 162 0
146 167 0
152 172 0
148 168 0
151 171 0
142 162 0
145 165 0
146 167 0
149 170 0
147 166 0
143 163 0
145 166 0
153 174 0
144 165 0
135 155 0
149 170 0
144 164 0
148 169 0
144 166 0
147 167 0
147 168 0
146 167 0
146 167 0
153 172 0
150 171 0
142 161 0
142 163 0
147 169 0
149 169 0
145 166 0
144 162 0
141 159 0
156 177 0
146 165 0
147 167 0
152 173 0
152 172 0
153 172 0
152 173 0
155 176 0
146 166 0
145 165 0
146 164 0
144 164 0
149 169 0
151 171 0
154 174 0
155 175 0
149 168 0
149 167 0
140 160 0
152 172 0
146 165 0
150 170 0
151 171 0
152 172 0
154 174 0
150 169 0
148 168 0
152 171 0
143 163 0
152 172 0
149 169 0
157 177 0
144 161 0
145 163 0
146 163 0
150 168 0
155 174 0
151 168 0
150 170 0
151 172 0
148 168 0
153 170 0
150 167 0
138 157 0
145 165 0
146 164 0
152 171 0
154 170 0
155 173 0
152 169 0
145 164 0
153 171 0
158 178 0
146 162 0
146 164 0
153 171 0
149 166 0
151 167 0
152 168 0
148 165 0
140 157 0
154 171 0
161 179 0
155 173 0
146 162 0
158 175 0
142 158 0
149 166 0
152 167 0
150 166 0
154 173 0
147 164 0
155 169 0
150 165 0
154 170 0
151 165 0
156 174 0
142 156 0
148 162 0
154 168 0
147 162 0
153 168 0
153 169 0
156 170 0
159 175 0
152 169 0
155 170 0
152 167 0
157 170 0
149 162 0
153 165 0
151 165 0
154 167 0
155 168 0
152 162 0
156 169 0
159 176 0
151 166 0
158 172 0
151 165 0
158 172 0
154 167 0
157 169 0
147 161 0
156 170 0
156 168 0
158 171 0
154 168 0
154 165 0
152 163 0
159 174 0
152 164 0
157 171 0
160 172 0
156 166 0
155 166 0
158 173 0
159 173 0
156 167 0
151 163 0
156 168 0
162 173 0
153 162 0
159 172 0
161 172 0
155 162 0
160 173 0
157 168 0
160 173 0
154 165 0
159 171 0
157 167 0
158 168 0
163 177 0
162 174 0
159 170 0
161 172 0
157 168 0
167 179 0
159 168 0
164 177 0
163 173 0
158 170 0
156 164 0
165 176 0
162 172 0
159 168 0
162 172 0
161 171 0
165 179 0
159 170 0
162 173 0
163 175 0
165 178 0
161 171 0
162 174 0
156 167 0
162 177 0
160 173 0
160 169 0
166 176 0
166 179 0
172 193 0
171 193 0
175 196 0
175 196 0
171 193 0
175 196 0
174 196 0
171 191 0
173 194 0
170 192 0
170 192 0
170 191 0
176 197 0
174 195 0
173 195 0
166 188 0
167 188 0
169 191 0
172 194 0
169 190 0
172 194 0
166 187 0
167 188 0
175 196 0
172 193 0
169 191 0
167 188 0
171 193 0
172 193 0
172 193 0
169 191 0
162 183 0
170 191 0
166 188 0
169 191 0
168 190 0
164 186 0
168 189 0
168 190 0
165 187 0
167 188 0
172 192 0
167 187 0
165 186 0
169 190 0
166 187 0
168 190 0
164 186 0
169 191 0
164 185 0
166 187 0
167 188 0
163 185 0
163 185 0
168 190 0
167 188 0
165 186 0
165 187 0
164 186 0
165 188 0
166 187 0
167 188 0
160 182 0
164 185 0
167 189 0
166 187 0
167 189 0
161 183 0
156 177 0
162 184 0
163 185 0
159 181 0
165 187 0
163 185 0
164 186 0
160 183 0
157 178 0
162 184 0
165 187 0
163 186 0
163 185 0
163 184 0
157 179 0
163 185 0
158 181 0
158 180 0
151 174 0
162 184 0
155 177 0
155 177 0
160 183 0
157 179 0
154 177 0
156 178 0
159 180 0
159 180 0
161 184 0
152 174 0
150 173 0
154 178 0
164 187 0
161 183 0
157 179 0
165 186 0
160 183 0
163 185 0
153 176 0
162 184 0
153 176 0
153 176 0
152 175 0
161 184 0
152 174 0
154 176 0
157 180 0
155 177 0
159 181 0
151 172 0
153 175 0
158 180 0
156 178 0
151 174 0
149 173 0
153 176 0
154 175 0
155 178 0
159 181 0
154 175 0
158 180 0
157 179 0
150 172 0
153 175 0
154 176 0
153 175 0
160 181 0
156 180 0
150 171 0
151 174 0
151 174 0
157 179 0
154 176 0
156 178 0
156 178 0
157 179 0
152 174 0
145 166 0
151 171 0
161 184 0
145 167 0
142 164 0
148 170 0
149 170 0
150 174 0
151 174 0
149 171 0
153 174 0
143 165 0
154 175 0
154 177 0
145 167 0
154 176 0
156 178 0
154 176 0
150 173 0
140 162 0
145 166 0
150 172 0
153 175 0
149 171 0
152 175 0
152 174 0
145 166 0
155 176 0
152 173 0
151 173 0
152 173 0
149 171 0
152 174 0
147 168 0
132 153 0
148 170 0
148 170 0
152 173 0
144 165 0
150 172 0
139 159 0
143 164 0
152 173 0
150 171 0
150 171 0
149 170 0
155 176 0
151 173 0
142 164 0
145 166 0
140 163 0
139 159 0
153 174 0
145 167 0
144 165 0
142 162 0
149 170 0
149 171 0
137 158 0
146 167 0
150 171 0
147 168 0
145 167 0
149 170 0
148 170 0
155 176 0
143 164 0
149 170 0
146 167 0
154 177 0
142 162 0
141 161 0
148 167 0
148 170 0
142 163 0
149 170 0
144 166 0
152 172 0
143 165 0
147 168 0
149 170 0
143 165 0
137 159 0
144 164 0
147 166 0
141 163 0
138 158 0
142 161 0
152 172 0
138 160 0
134 155 0
141 162 0
138 159 0
148 169 0
149 170 0
149 168 0
147 167 0
146 167 0
147 167 0
142 163 0
151 171 0
148 168 0
149 170 0
148 167 0
148 165 0
147 168 0
155 174 0
156 175 0
140 160 0
149 168 0
149 168 0
145 164 0
150 169 0
153 173 0
152 172 0
149 169 0
150 168 0
147 166 0
152 171 0
154 173 0
149 169 0
148 167 0
148 167 0
144 164 0
158 177 0
151 170 0
148 164 0
149 167 0
149 166 0
153 175 0
153 170 0
152 172 0
153 171 0
147 165 0
146 165 0
154 173 0
150 169 0
148 166 0
156 176 0
152 170 0
153 170 0
148 168 0
150 168 0
149 168 0
149 168 0
144 164 0
147 164 0
154 172 0
153 172 0
147 165 0
150 170 0
155 172 0
151 169 0
160 179 0
149 163 0
153 172 0
155 173 0
149 164 0
151 168 0
150 165 0
150 166 0
146 163 0
146 162 0
153 168 0
151 166 0
154 170 0
152 168 0
155 173 0
149 166 0
144 160 0
148 165 0
150 164 0
153 169 0
152 168 0
154 170 0
149 164 0
153 169 0
149 160 0
148 161 0
146 161 0
153 165 0
155 169 0
149 162 0
153 168 0
152 167 0
147 159 0
157 171 0
158 171 0
156 171 0
156 169 0
152 164 0
152 164 0
150 166 0
161 175 0
157 170 0
154 168 0
158 172 0
155 168 0
156 169 0
152 165 0
158 171 0
160 175 0
160 172 0
158 170 0
156 168 0
158 171 0
156 165 0
151 161 0
154 166 0
159 173 0
158 171 0
159 173 0
157 170 0
163 176 0
158 170 0
156 170 0
157 167 0
159 170 0
160 172 0
160 171 0
155 165 0
158 168 0
152 163 0
156 167 0
160 173 0
157 168 0
158 169 0
162 176 0
155 163 0
162 174 0
159 169 0
160 174 0
160 171 0
163 177 0
163 175 0
161 171 0
160 169 0
166 180 0
156 166 0
162 174 0
160 170 0
162 174 0
163 177 0
165 177 0
160 170 0
164 175 0
162 175 0
160 171 0
158 171 0
167 181 0
166 178 0
163 175 0
164 177 0
166 179 0
165 177 0
172 193 0
175 196 0
177 198 0
176 198 0
172 194 0
173 194 0
171 192 0
175 195 0
172 194 0
170 192 0
176 198 0
169 191 0
175 196 0
176 197 0
173 195 0
171 191 0
168 189 0
171 192 0
170 192 0
173 194 0
172 194 0
166 187 0
173 194 0
173 194 0
173 194 0
176 197 0
168 190 0
170 191 0
168 189 0
167 189 0
165 186 0
170 192 0
170 192 0
170 192 0
171 193 0
166 187 0
167 190 0
168 190 0
172 193 0
166 188 0
167 189 0
167 188 0
165 187 0
166 189 0
166 189 0
165 187 0
167 188 0
168 189 0
167 190 0
167 189 0
163 185 0
164 186 0
164 187 0
166 187 0
165 187 0
166 188 0
164 186 0
162 183 0
163 185 0
164 187 0
164 186 0
162 183 0
159 181 0
161 183 0
161 184 0
162 184 0
161 182 0
162 184 0
162 185 0
159 181 0
156 178 0
162 184 0
160 182 0
164 186 0
150 173 0
162 183 0
158 181 0
160 184 0
155 178 0
158 180 0
153 176 0
155 175 0
162 184 0
163 185 0
162 184 0
159 182 0
165 188 0
163 185 0
160 182 0
161 183 0
161 182 0
160 182 0
151 173 0
154 177 0
158 181 0
167 189 0
160 182 0
157 179 0
163 186 0
156 179 0
155 178 0
158 181 0
161 183 0
159 180 0
162 185 0
149 172 0
153 175 0
153 175 0
166 189 0
159 181 0
161 184 0
159 182 0
163 187 0
155 178 0
150 172 0
153 174 0
154 176 0
160 182 0
155 177 0
158 180 0
160 182 0
160 183 0
158 181 0
159 180 0
155 178 0
155 178 0
153 176 0
154 175 0
157 178 0
158 180 0
148 171 0
149 171 0
147 168 0
152 174 0
150 173 0
160 182 0
151 173 0
159 182 0
152 175 0
144 166 0
157 179 0
151 173 0
153 175 0
158 181 0
159 181 0
154 176 0
146 168 0
149 172 0
154 177 0
152 174 0
151 173 0
153 175 0
146 168 0
148 169 0
146 168 0
155 176 0
150 171 0
152 175 0
147 169 0
145 167 0
143 163 0
149 170 0
152 175 0
143 165 0
151 173 0
156 178 0
155 177 0
154 176 0
146 168 0
149 171 0
149 172 0
148 169 0
154 176 0
151 173 0
139 161 0
146 167 0
148 171 0
152 173 0
143 165 0
135 155 0
145 167 0
148 167 0
144 164 0
147 169 0
149 171 0
141 162 0
148 170 0
147 167 0
149 171 0
158 181 0
147 168 0
144 165 0
147 168 0
150 171 0
146 168 0
145 166 0
144 166 0
154 176 0
135 157 0
150 171 0
151 172 0
151 172 0
144 166 0
151 172 0
154 175 0
150 171 0
147 168 0
148 169 0
149 170 0
144 166 0
148 170 0
145 166 0
145 166 0
145 166 0
152 172 0
146 168 0
146 167 0
149 170 0
144 166 0
147 169 0
151 173 0
146 166 0
147 168 0
147 168 0
150 171 0
144 165 0
146 164 0
142 163 0
144 165 0
140 163 0
146 166 0
146 168 0
136 158 0
140 161 0
145 165 0
155 176 0
137 158 0
151 171 0
150 169 0
142 160 0
150 171 0
146 164 0
142 163 0
146 165 0
154 175 0
142 162 0
147 167 0
148 168 0
151 172 0
148 168 0
146 166 0
146 166 0
146 166 0
148 170 0
153 173 0
159 180 0
140 161 0
138 158 0
154 174 0
147 167 0
149 169 0
147 166 0
157 177 0
154 174 0
146 166 0
149 167 0
147 166 0
142 162 0
154 173 0
146 166 0
140 160 0
151 168 0
158 177 0
146 167 0
152 172 0
152 171 0
153 173 0
142 160 0
141 157 0
152 171 0
149 166 0
149 168 0
155 173 0
148 167 0
153 172 0
146 166 0
149 169 0
150 168 0
157 178 0
147 165 0
156 175 0
151 169 0
155 172 0
155 173 0
155 172 0
160 179 0
151 168 0
158 176 0
159 179 0
150 169 0
157 174 0
150 167 0
148 166 0
149 166 0
151 168 0
151 172 0
154 174 0
148 162 0
148 166 0
151 169 0
156 174 0
159 176 0
147 163 0
156 171 0
159 177 0
154 170 0
158 175 0
155 171 0
154 172 0
151 166 0
154 170 0
153 168 0
152 167 0
154 169 0
152 166 0
154 170 0
152 165 0
153 170 0
154 168 0
159 175 0
157 173 0
147 160 0
156 171 0
158 174 0
153 166 0
152 166 0
158 171 0
156 170 0
158 173 0
154 169 0
159 171 0
159 172 0
163 177 0
152 167 0
159 174 0
156 168 0
154 165 0
165 178 0
150 159 0
158 171 0
160 175 0
151 165 0
156 167 0
163 178 0
154 165 0
155 169 0
156 170 0
156 166 0
160 172 0
158 171 0
161 171 0
156 169 0
162 174 0
156 168 0
155 166 0
159 169 0
163 175 0
156 167 0
166 178 0
158 169 0
161 173 0
157 169 0
159 171 0
162 173 0
161 174 0
160 173 0
158 170 0
164 178 0
165 178 0
159 171 0
156 167 0
160 171 0
160 168 0
162 171 0
158 168 0
162 174 0
164 177 0
167 179 0
165 175 0
161 172 0
164 177 0
162 171 0
163 177 0
163 174 0
161 174 0
157 166 0
165 176 0
162 174 0
160 172 0
163 176 0
176 198 0
172 194 0
169 190 0
175 196 0
173 194 0
172 194 0
175 196 0
170 191 0
170 191 0
171 192 0
170 193 0
173 194 0
171 193 0
167 189 0
171 192 0
172 193 0
169 191 0
172 194 0
173 195 0
171 193 0
169 190 0
174 196 0
172 194 0
172 193 0
172 192 0
163 185 0
172 194 0
174 195 0
169 191 0
168 189 0
171 192 0
163 186 0
164 186 0
168 189 0
170 192 0
169 190 0
168 189 0
167 189 0
167 189 0
171 192 0
170 190 0
168 189 0
168 190 0
168 189 0
168 190 0
163 185 0
168 189 0
168 190 0
166 188 0
165 187 0
166 189 0
169 191 0
162 183 0
167 188 0
162 183 0
165 188 0
159 180 0
161 183 0
165 187 0
161 183 0
167 188 0
162 184 0
162 185 0
169 191 0
160 181 0
167 189 0
163 185 0
159 181 0
164 186 0
164 186 0
162 185 0
166 189 0
160 182 0
159 180 0
162 184 0
163 185 0
156 178 0
163 184 0
164 186 0
166 188 0
166 188 0
162 184 0
159 181 0
159 182 0
159 181 0
157 179 0
154 177 0
159 181 0
163 186 0
162 184 0
157 179 0
159 182 0
163 186 0
159 181 0
160 182 0
159 181 0
160 182 0
159 181 0
163 185 0
160 182 0
156 178 0
162 184 0
161 183 0
158 181 0
156 178 0
152 173 0
157 179 0
162 186 0
155 178 0
152 175 0
158 181 0
164 186 0
157 180 0
164 186 0
154 176 0
156 179 0
162 184 0
153 176 0
149 172 0
156 178 0
154 177 0
148 170 0
152 175 0
150 172 0
154 177 0
157 178 0
158 181 0
151 173 0
158 180 0
159 182 0
151 172 0
153 174 0
152 174 0
153 175 0
154 176 0
157 180 0
155 177 0
157 179 0
152 174 0
153 175 0
156 179 0
159 181 0
148 171 0
158 181 0
152 174 0
156 178 0
152 175 0
149 171 0
151 174 0
145 169 0
153 175 0
156 179 0
145 167 0
153 174 0
149 169 0
148 171 0
153 176 0
154 176 0
147 169 0
149 170 0
152 175 0
147 169 0
153 177 0
144 166 0
147 169 0
149 171 0
144 166 0
150 172 0
147 168 0
149 172 0
150 171 0
146 169 0
150 172 0
146 168 0
147 170 0
141 163 0
149 171 0
155 178 0
147 169 0
151 172 0
143 164 0
152 173 0
144 165 0
144 165 0
149 171 0
146 167 0
148 169 0
153 175 0
148 170 0
153 175 0
146 167 0
158 180 0
153 175 0
153 174 0
143 165 0
148 171 0
142 164 0
140 163 0
154 176 0
157 179 0
148 169 0
149 170 0
149 171 0
147 168 0
147 169 0
146 167 0
155 176 0
140 162 0
140 161 0
149 171 0
142 162 0
146 166 0
147 170 0
149 170 0
148 169 0
150 171 0
148 168 0
144 166 0
144 165 0
148 169 0
150 171 0
148 171 0
150 171 0
147 168 0
150 170 0
149 170 0
148 168 0
148 169 0
140 161 0
145 166 0
148 170 0
152 171 0
148 169 0
148 169 0
150 171 0
148 169 0
145 166 0
144 164 0
147 168 0
148 170 0
146 166 0
146 165 0
149 171 0
154 175 0
146 166 0
148 169 0
157 179 0
148 167 0
153 174 0
143 163 0
154 175 0
153 174 0
150 170 0
154 174 0
152 172 0
148 167 0
153 173 0
156 176 0
147 167 0
150 171 0
146 167 0
152 173 0
153 172 0
153 174 0
149 168 0
139 158 0
146 165 0
156 175 0
141 160 0
154 173 0
145 163 0
150 170 0
152 172 0
150 169 0
149 168 0
156 174 0
144 161 0
154 172 0
148 167 0
149 168 0
146 164 0
156 176 0
153 171 0
153 171 0
146 163 0
151 168 0
147 166 0
150 169 0
153 170 0
157 174 0
152 171 0
151 168 0
146 164 0
155 171 0
156 174 0
147 165 0
147 165 0
150 170 0
154 170 0
145 166 0
158 176 0
151 171 0
156 174 0
158 174 0
158 174 0
145 160 0
155 175 0
147 164 0
152 169 0
153 169 0
146 160 0
156 173 0
152 169 0
149 166 0
152 170 0
156 170 0
154 170 0
154 171 0
153 170 0
153 169 0
154 168 0
153 167 0
152 166 0
157 173 0
158 174 0
156 173 0
156 168 0
155 171 0
156 173 0
150 165 0
155 172 0
147 162 0
157 171 0
157 174 0
154 169 0
157 173 0
159 174 0
158 172 0
158 174 0
151 166 0
152 164 0
156 170 0
159 173 0
162 177 0
157 173 0
152 167 0
161 175 0
157 172 0
157 171 0
158 171 0
154 169 0
156 168 0
156 170 0
155 167 0
158 172 0
163 178 0
153 165 0
158 171 0
152 164 0
162 174 0
155 165 0
155 169 0
161 173 0
158 170 0
157 169 0
155 167 0
155 166 0
161 174 0
160 173 0
156 167 0
161 174 0
158 170 0
162 175 0
155 164 0
164 177 0
161 172 0
165 176 0
158 168 0
157 170 0
161 172 0
161 175 0
162 175 0
161 173 0
161 171 0
160 171 0
159 171 0
163 175 0
161 173 0
161 173 0
159 169 0
160 171 0
157 169 0
164 176 0
158 169 0
163 176 0
163 177 0
162 173 0
162 173 0
164 177 0
162 174 0
173 194 0
172 193 0
172 194 0
172 194 0
171 193 0
174 196 0
172 194 0
174 195 0
167 188 0
171 193 0
170 192 0
173 194 0
175 196 0
171 192 0
172 194 0
172 194 0
172 194 0
172 192 0
169 191 0
165 187 0
174 196 0
172 194 0
168 191 0
170 192 0
172 193 0
162 185 0
169 191 0
170 191 0
168 190 0
169 191 0
173 194 0
172 193 0
163 185 0
171 191 0
169 191 0
170 192 0
168 190 0
164 187 0
165 187 0
167 190 0
171 193 0
166 189 0
164 185 0
165 187 0
169 191 0
166 188 0
163 185 0
162 184 0
165 187 0
168 190 0
167 189 0
164 187 0
165 187 0
168 190 0
166 187 0
168 190 0
168 191 0
158 181 0
161 184 0
168 191 0
162 183 0
163 185 0
162 186 0
166 188 0
164 185 0
159 181 0
165 187 0
168 190 0
155 176 0
166 187 0
165 187 0
161 183 0
161 183 0
165 187 0
158 179 0
161 184 0
156 179 0
162 184 0
152 175 0
160 182 0
154 176 0
165 188 0
160 183 0
152 175 0
161 185 0
160 183 0
157 179 0
161 184 0
162 183 0
157 178 0
158 180 0
160 182 0
157 180 0
156 179 0
154 176 0
160 183 0
162 184 0
155 178 0
159 182 0
157 180 0
147 169 0
154 176 0
162 184 0
156 178 0
155 178 0
160 182 0
159 181 0
161 184 0
155 178 0
159 182 0
155 178 0
156 178 0
153 174 0
154 177 0
153 174 0
157 179 0
149 172 0
157 180 0
154 177 0
158 182 0
160 183 0
150 172 0
157 179 0
158 181 0
157 180 0
151 173 0
157 179 0
154 176 0
154 177 0
152 175 0
152 174 0
158 180 0
158 181 0
159 181 0
155 178 0
153 175 0
156 177 0
160 182 0
154 177 0
156 178 0
149 174 0
157 179 0
153 176 0
159 181 0
150 172 0
149 170 0
154 175 0
152 174 0
150 172 0
148 170 0
146 168 0
148 169 0
146 167 0
149 171 0
159 180 0
151 172 0
147 169 0
152 174 0
152 175 0
160 181 0
154 177 0
150 173 0
149 171 0
155 177 0
148 170 0
145 167 0
157 178 0
140 162 0
150 172 0
148 169 0
151 172 0
146 167 0
147 170 0
147 169 0
140 161 0
141 164 0
143 163 0
154 175 0
137 157 0
157 178 0
154 175 0
142 165 0
143 165 0
152 174 0
143 165 0
142 164 0
151 172 0
140 162 0
145 167 0
144 165 0
157 178 0
152 174 0
147 169 0
147 169 0
151 173 0
148 170 0
146 168 0
151 171 0
146 167 0
152 174 0
149 171 0
145 167 0
144 166 0
146 167 0
145 167 0
134 154 0
150 171 0
147 168 0
139 160 0
150 170 0
142 163 0
153 174 0
146 167 0
150 171 0
145 166 0
149 170 0
150 172 0
150 170 0
143 163 0
151 173 0
141 162 0
149 170 0
149 169 0
155 176 0
153 174 0
151 172 0
146 166 0
149 169 0
145 166 0
152 173 0
154 175 0
152 173 0
147 170 0
146 166 0
144 164 0
144 164 0
148 169 0
144 165 0
145 165 0
152 173 0
144 165 0
146 166 0
155 176 0
151 170 0
150 170 0
148 169 0
153 173 0
150 169 0
149 169 0
145 165 0
149 169 0
143 163 0
145 165 0
149 170 0
156 175 0
149 170 0
153 173 0
151 170 0
155 175 0
148 167 0
146 165 0
155 175 0
152 171 0
155 177 0
147 167 0
150 170 0
141 161 0
152 170 0
140 159 0
145 165 0
147 167 0
150 169 0
149 168 0
148 168 0
145 164 0
149 167 0
150 171 0
148 166 0
144 162 0
155 174 0
156 176 0
152 171 0
155 174 0
145 163 0
152 171 0
159 179 0
148 167 0
159 178 0
152 170 0
142 162 0
144 162 0
149 170 0
153 171 0
156 175 0
156 175 0
155 173 0
149 168 0
156 174 0
151 169 0
154 171 0
154 169 0
152 171 0
159 177 0
151 168 0
149 169 0
155 172 0
147 162 0
154 173 0
152 170 0
154 172 0
152 170 0
158 176 0
156 172 0
156 174 0
154 170 0
152 169 0
150 167 0
150 168 0
150 166 0
151 170 0
154 172 0
152 167 0
154 172 0
154 170 0
142 158 0
154 170 0
151 168 0
158 174 0
155 171 0
158 173 0
151 166 0
155 167 0
150 165 0
157 173 0
158 174 0
156 170 0
158 172 0
150 164 0
161 179 0
155 172 0
159 176 0
151 165 0
162 180 0
155 167 0
154 164 0
156 171 0
157 171 0
154 169 0
158 173 0
153 167 0
156 171 0
155 167 0
149 164 0
155 165 0
156 172 0
155 167 0
163 178 0
161 174 0
159 170 0
159 172 0
161 176 0
158 172 0
156 168 0
158 168 0
156 166 0
156 168 0
154 164 0
155 169 0
161 172 0
162 175 0
155 165 0
163 174 0
159 173 0
161 174 0
163 175 0
162 174 0
155 166 0
160 176 0
158 172 0
164 179 0
160 169 0
162 174 0
162 176 0
158 166 0
165 179 0
162 173 0
162 175 0
164 176 0
158 170 0
153 165 0
165 178 0
165 178 0
162 174 0
161 174 0
161 172 0
164 178 0
163 176 0
163 177 0
163 178 0
166 178 0
173 193 0
172 194 0
174 195 0
175 197 0
171 193 0
174 195 0
174 196 0
170 192 0
172 194 0
171 193 0
172 193 0
172 193 0
170 191 0
170 192 0
173 195 0
169 191 0
167 189 0
170 191 0
168 189 0
170 192 0
168 188 0
165 187 0
170 191 0
167 188 0
171 192 0
170 192 0
168 189 0
169 190 0
168 190 0
170 192 0
169 190 0
167 188 0
167 189 0
167 189 0
167 188 0
170 192 0
165 187 0
164 187 0
169 191 0
165 188 0
170 192 0
170 192 0
162 183 0
164 186 0
168 190 0
162 184 0
165 187 0
169 191 0
163 185 0
164 185 0
167 188 0
163 185 0
164 186 0
165 189 0
165 187 0
165 186 0
161 184 0
167 190 0
159 180 0
163 186 0
163 185 0
160 181 0
160 181 0
162 185 0
165 187 0
162 184 0
163 185 0
160 183 0
163 185 0
154 177 0
165 188 0
162 185 0
164 187 0
164 187 0
160 182 0
165 187 0
163 185 0
158 180 0
161 184 0
159 180 0
163 186 0
155 178 0
157 180 0
160 183 0
157 180 0
162 184 0
161 184 0
160 182 0
157 179 0
156 178 0
155 178 0
161 184 0
163 185 0
163 185 0
157 179 0
158 180 0
157 179 0
159 183 0
153 176 0
156 179 0
159 180 0
159 182 0
159 182 0
159 182 0
158 181 0
162 185 0
160 182 0
154 177 0
159 182 0
152 174 0
157 180 0
156 178 0
156 178 0
159 181 0
161 183 0
155 177 0
155 177 0
154 177 0
162 184 0
151 174 0
154 176 0
150 172 0
155 177 0
155 178 0
157 179 0
158 180 0
156 179 0
152 175 0
163 186 0
150 171 0
149 171 0
157 180 0
152 174 0
150 173 0
145 166 0
152 174 0
149 171 0
154 177 0
153 176 0
155 177 0
156 179 0
157 180 0
143 165 0
152 173 0
154 176 0
161 184 0
155 178 0
159 181 0
155 178 0
152 174 0
144 166 0
148 169 0
157 180 0
156 178 0
156 178 0
153 175 0
152 172 0
152 173 0
154 177 0
151 173 0
154 175 0
150 173 0
149 172 0
153 175 0
151 173 0
150 172 0
156 177 0
143 163 0
150 174 0
141 162 0
150 172 0
148 170 0
154 174 0
141 162 0
149 171 0
150 172 0
146 167 0
156 178 0
142 165 0
156 176 0
145 167 0
152 174 0
155 177 0
152 173 0
146 168 0
160 183 0
151 173 0
150 172 0
156 177 0
145 167 0
142 165 0
148 170 0
145 167 0
146 169 0
149 169 0
149 170 0
150 170 0
149 171 0
148 167 0
154 174 0
142 163 0
156 177 0
151 172 0
143 163 0
150 172 0
147 169 0
146 168 0
146 167 0
140 161 0
154 176 0
158 178 0
157 180 0
148 168 0
151 173 0
145 165 0
149 170 0
150 171 0
147 167 0
151 172 0
149 170 0
146 168 0
150 172 0
147 168 0
141 161 0
146 166 0
153 174 0
140 162 0
147 167 0
158 179 0
147 169 0
144 166 0
150 171 0
146 166 0
139 161 0
147 167 0
151 172 0
152 174 0
149 170 0
154 175 0
149 169 0
152 174 0
151 171 0
153 175 0
151 172 0
149 168 0
143 162 0
143 163 0
153 171 0
154 174 0
147 165 0
152 173 0
151 170 0
148 169 0
148 168 0
144 164 0
155 175 0
154 174 0
155 175 0
153 174 0
141 159 0
154 174 0
152 171 0
152 172 0
152 172 0
144 163 0
145 165 0
142 160 0
154 173 0
142 162 0
145 163 0
144 163 0
154 175 0
150 169 0
144 162 0
152 173 0
151 172 0
154 175 0
151 170 0
149 167 0
159 178 0
149 167 0
152 172 0
155 175 0
154 174 0
157 178 0
149 167 0
151 169 0
156 175 0
150 169 0
149 168 0
157 177 0
148 168 0
150 165 0
150 170 0
152 171 0
153 172 0
147 166 0
147 163 0
152 168 0
146 164 0
144 161 0
157 175 0
150 168 0
157 175 0
153 171 0
153 172 0
159 178 0
146 163 0
156 171 0
151 169 0
159 178 0
155 172 0
155 171 0
151 168 0
144 160 0
151 169 0
154 173 0
155 171 0
156 173 0
153 169 0
147 163 0
147 163 0
157 173 0
158 175 0
154 170 0
151 168 0
151 169 0
152 167 0
158 173 0
153 170 0
159 174 0
156 171 0
157 173 0
155 170 0
155 170 0
156 171 0
159 174 0
154 169 0
158 172 0
149 162 0
148 162 0
154 167 0
159 171 0
159 173 0
159 172 0
158 170 0
160 175 0
156 169 0
157 173 0
155 169 0
152 165 0
161 175 0
161 176 0
159 175 0
157 170 0
157 171 0
157 173 0
160 170 0
152 165 0
157 168 0
154 167 0
156 167 0
159 172 0
158 171 0
152 163 0
163 177 0
161 175 0
158 172 0
159 173 0
160 173 0
160 172 0
157 168 0
159 173 0
160 172 0
162 174 0
163 176 0
161 173 0
160 175 0
160 171 0
154 163 0
164 178 0
159 169 0
163 177 0
164 176 0
159 171 0
160 173 0
162 175 0
164 177 0
158 170 0
157 167 0
164 177 0
161 174 0
164 176 0
162 175 0
162 173 0
159 170 0
162 173 0
161 174 0
154 164 0
166 177 0
170 193 0
174 196 0
174 196 0
174 195 0
174 196 0
171 193 0
173 194 0
173 194 0
171 193 0
170 192 0
173 194 0
171 194 0
173 194 0
174 196 0
170 192 0
171 192 0
170 192 0
168 189 0
170 192 0
169 191 0
168 190 0
169 191 0
172 194 0
165 186 0
168 190 0
167 189 0
169 191 0
170 191 0
175 197 0
165 186 0
170 191 0
169 192 0
168 190 0
169 191 0
169 191 0
169 191 0
168 190 0
170 192 0
164 186 0
165 188 0
169 190 0
171 193 0
165 187 0
163 185 0
167 188 0
168 189 0
165 187 0
166 188 0
166 187 0
168 191 0
166 189 0
166 189 0
167 189 0
166 188 0
165 187 0
167 188 0
170 192 0
163 186 0
164 187 0
163 186 0
156 178 0
164 186 0
163 184 0
167 189 0
163 184 0
163 186 0
166 189 0
162 184 0
161 183 0
163 185 0
159 181 0
163 185 0
161 183 0
165 186 0
163 185 0
157 179 0
159 181 0
162 183 0
152 174 0
163 186 0
165 187 0
159 182 0
162 185 0
161 183 0
157 180 0
156 179 0
164 186 0
163 185 0
161 184 0
161 184 0
164 186 0
156 178 0
159 182 0
160 182 0
160 183 0
159 182 0
156 179 0
161 183 0
160 183 0
164 187 0
161 183 0
159 182 0
159 182 0
160 183 0
165 187 0
152 174 0
159 181 0
156 180 0
156 180 0
160 182 0
153 176 0
154 178 0
159 182 0
158 181 0
152 173 0
157 179 0
161 184 0
151 173 0
151 174 0
160 182 0
159 182 0
161 184 0
148 170 0
153 174 0
156 178 0
151 173 0
160 181 0
153 176 0
154 176 0
158 180 0
155 176 0
158 181 0
156 178 0
157 179 0
156 179 0
150 174 0
153 175 0
152 175 0
155 177 0
154 176 0
156 176 0
156 178 0
149 171 0
152 175 0
160 182 0
149 171 0
157 179 0
161 183 0
154 176 0
159 180 0
158 180 0
158 180 0
156 178 0
157 179 0
153 175 0
149 171 0
156 178 0
158 180 0
157 179 0
155 176 0
152 174 0
149 171 0
147 169 0
153 175 0
145 168 0
151 174 0
147 169 0
154 176 0
154 176 0
152 175 0
148 169 0
154 177 0
153 175 0
152 173 0
152 173 0
147 168 0
152 174 0
151 173 0
143 164 0
148 170 0
150 172 0
148 170 0
150 172 0
153 175 0
152 173 0
151 173 0
150 172 0
153 174 0
151 173 0
150 170 0
150 171 0
151 173 0
147 168 0
146 168 0
150 172 0
149 170 0
146 168 0
139 161 0
151 172 0
150 172 0
142 163 0
149 172 0
151 172 0
151 174 0
150 171 0
152 174 0
143 166 0
148 169 0
153 173 0
154 175 0
140 161 0
149 170 0
155 175 0
147 168 0
151 172 0
154 176 0
150 171 0
149 170 0
145 165 0
149 169 0
149 171 0
152 173 0
145 165 0
148 170 0
150 171 0
141 162 0
146 167 0
153 174 0
143 165 0
145 166 0
145 166 0
153 175 0
143 163 0
148 167 0
153 173 0
154 173 0
148 169 0
146 167 0
146 167 0
145 164 0
140 161 0
151 171 0
153 173 0
153 173 0
150 171 0
149 170 0
149 169 0
146 167 0
152 173 0
151 172 0
147 165 0
146 167 0
148 168 0
151 171 0
154 173 0
145 163 0
151 173 0
149 170 0
146 164 0
145 166 0
156 176 0
156 176 0
154 175 0
156 175 0
153 173 0
153 174 0
148 167 0
156 177 0
150 171 0
154 174 0
151 172 0
154 173 0
159 180 0
142 161 0
155 174 0
148 167 0
151 168 0
149 169 0
149 167 0
144 164 0
148 165 0
159 179 0
147 165 0
154 172 0
144 163 0
152 170 0
152 171 0
151 171 0
150 169 0
158 179 0
154 170 0
152 169 0
144 163 0
153 170 0
150 169 0
154 171 0
150 168 0
154 173 0
149 167 0
158 177 0
154 174 0
157 175 0
149 167 0
146 163 0
163 183 0
145 161 0
153 171 0
150 167 0
151 169 0
146 163 0
154 172 0
159 177 0
150 167 0
160 178 0
153 170 0
155 173 0
157 175 0
154 171 0
158 176 0
154 170 0
154 170 0
156 174 0
155 172 0
153 170 0
151 164 0
154 172 0
149 163 0
164 181 0
153 169 0
156 172 0
153 169 0
154 170 0
153 167 0
158 173 0
157 172 0
154 170 0
151 165 0
158 173 0
152 168 0
151 163 0
157 172 0
161 178 0
153 168 0
157 172 0
152 164 0
151 165 0
162 179 0
154 169 0
157 175 0
156 171 0
157 171 0
159 173 0
159 176 0
158 174 0
160 175 0
153 163 0
151 162 0
161 177 0
157 171 0
156 168 0
161 173 0
161 175 0
156 168 0
157 171 0
158 170 0
160 174 0
160 171 0
158 170 0
164 177 0
159 174 0
161 173 0
160 172 0
159 172 0
163 178 0
159 170 0
160 172 0
158 170 0
161 172 0
161 176 0
162 175 0
162 175 0
161 174 0
162 173 0
166 181 0
162 177 0
159 172 0
162 176 0
162 175 0
166 179 0
161 173 0
164 178 0
165 179 0
163 174 0
159 171 0
157 165 0
162 174 0
164 178 0
162 176 0
165 177 0
163 177 0
172 195 0
176 197 0
170 192 0
173 195 0
172 194 0
173 195 0
171 193 0
171 192 0
174 194 0
174 196 0
172 193 0
174 196 0
171 193 0
172 194 0
174 195 0
173 194 0
168 190 0
168 189 0
170 192 0
169 191 0
166 189 0
167 189 0
170 191 0
172 194 0
170 192 0
174 196 0
164 185 0
166 187 0
164 186 0
172 194 0
168 190 0
166 187 0
164 185 0
166 188 0
170 192 0
164 185 0
166 188 0
169 191 0
163 185 0
169 190 0
170 191 0
163 184 0
165 187 0
169 191 0
166 188 0
168 190 0
169 190 0
167 190 0
164 185 0
167 189 0
164 187 0
164 187 0
164 187 0
160 182 0
161 184 0
162 184 0
163 186 0
157 180 0
166 189 0
167 190 0
165 186 0
161 183 0
160 182 0
166 188 0
162 184 0
160 183 0
166 188 0
164 187 0
161 184 0
162 184 0
166 188 0
166 188 0
161 183 0
162 185 0
159 182 0
162 184 0
162 185 0
160 183 0
157 179 0
160 182 0
163 185 0
159 181 0
155 178 0
161 184 0
160 182 0
157 179 0
164 186 0
158 180 0
165 187 0
160 183 0
157 179 0
163 186 0
160 183 0
161 184 0
159 182 0
158 181 0
160 182 0
160 183 0
159 182 0
162 184 0
164 187 0
155 177 0
162 184 0
153 176 0
163 184 0
154 177 0
163 185 0
158 181 0
158 181 0
158 181 0
155 177 0
155 177 0
154 177 0
154 177 0
156 179 0
155 177 0
153 175 0
154 176 0
164 186 0
154 176 0
156 178 0
154 176 0
159 181 0
151 173 0
157 180 0
157 179 0
152 176 0
159 182 0
155 178 0
157 179 0
158 180 0
157 180 0
159 180 0
154 177 0
159 181 0
157 179 0
156 179 0
152 175 0
154 175 0
154 177 0
154 176 0
155 178 0
149 171 0
150 173 0
149 171 0
154 176 0
151 173 0
157 179 0
158 180 0
157 181 0
151 173 0
154 177 0
148 171 0
158 181 0
150 171 0
149 171 0
150 172 0
151 173 0
151 174 0
152 175 0
156 178 0
148 170 0
153 175 0
144 167 0
149 170 0
144 166 0
151 173 0
154 176 0
148 169 0
153 175 0
145 167 0
145 167 0
152 174 0
158 179 0
156 179 0
154 176 0
146 169 0
151 172 0
142 164 0
152 174 0
145 167 0
147 169 0
150 173 0
150 173 0
146 168 0
150 172 0
151 172 0
148 169 0
145 166 0
154 177 0
153 175 0
146 167 0
149 170 0
144 164 0
149 168 0
150 171 0
155 176 0
144 165 0
141 163 0
154 176 0
144 165 0
148 169 0
146 167 0
154 175 0
146 167 0
151 173 0
148 170 0
148 169 0
150 171 0
150 171 0
146 168 0
147 168 0
151 173 0
151 172 0
150 172 0
140 161 0
157 179 0
140 162 0
143 165 0
147 169 0
149 170 0
149 170 0
146 166 0
147 168 0
152 173 0
140 161 0
155 175 0
146 167 0
148 168 0
141 161 0
155 176 0
150 172 0
148 168 0
148 168 0
143 164 0
148 168 0
152 174 0
153 175 0
156 176 0
150 172 0
152 174 0
147 166 0
155 177 0
143 164 0
146 167 0
155 178 0
148 168 0
146 167 0
146 167 0
146 166 0
154 175 0
154 175 0
151 168 0
145 166 0
145 167 0
153 175 0
140 159 0
153 170 0
150 169 0
147 169 0
152 173 0
147 167 0
148 168 0
153 172 0
154 174 0
150 169 0
155 175 0
156 176 0
152 173 0
150 170 0
155 174 0
150 169 0
149 169 0
146 167 0
155 174 0
150 169 0
146 167 0
146 166 0
152 172 0
150 171 0
151 170 0
159 178 0
154 175 0
149 167 0
152 170 0
155 175 0
150 169 0
149 166 0
153 174 0
154 170 0
154 174 0
149 166 0
155 173 0
151 170 0
153 172 0
158 177 0
157 175 0
155 173 0
146 163 0
155 173 0
152 169 0
152 170 0
154 172 0
151 171 0
156 175 0
158 176 0
152 169 0
155 174 0
157 174 0
157 173 0
158 178 0
157 176 0
159 177 0
151 168 0
154 170 0
147 163 0
153 171 0
155 174 0
148 166 0
153 170 0
159 176 0
149 163 0
157 172 0
152 167 0
159 176 0
158 173 0
153 169 0
154 169 0
160 175 0
154 171 0
149 162 0
153 169 0
153 170 0
161 177 0
156 171 0
158 173 0
157 173 0
151 164 0
152 166 0
159 174 0
156 173 0
154 171 0
158 175 0
162 179 0
156 170 0
157 171 0
154 168 0
158 172 0
160 174 0
158 172 0
160 172 0
162 177 0
149 162 0
155 167 0
162 178 0
162 177 0
160 174 0
157 171 0
155 167 0
156 171 0
156 171 0
153 165 0
159 173 0
160 173 0
161 176 0
163 177 0
156 170 0
158 174 0
156 169 0
159 174 0
156 167 0
161 174 0
156 168 0
163 179 0
160 171 0
161 176 0
153 166 0
160 174 0
165 180 0
154 165 0
160 175 0
166 181 0
160 173 0
160 173 0
162 176 0
166 180 0
159 170 0
156 166 0
158 169 0
160 175 0
161 175 0
162 174 0
162 174 0
162 177 0
161 173 0
161 174 0
163 173 0
163 176 0
160 174 0
164 177 0
172 194 0
172 194 0
170 192 0
172 194 0
172 193 0
171 193 0
170 193 0
169 190 0
166 186 0
170 192 0
166 188 0
170 191 0
168 190 0
167 188 0
168 190 0
174 196 0
171 193 0
168 189 0
170 191 0
171 192 0
167 189 0
169 191 0
173 195 0
168 190 0
166 189 0
168 190 0
170 192 0
171 192 0
170 191 0
167 189 0
169 191 0
168 190 0
168 191 0
158 180 0
166 188 0
169 190 0
164 186 0
163 185 0
163 187 0
166 187 0
166 188 0
162 184 0
167 188 0
167 189 0
166 189 0
163 184 0
167 188 0
167 189 0
164 187 0
162 184 0
163 185 0
165 188 0
166 188 0
160 182 0
164 187 0
160 182 0
166 189 0
165 187 0
165 186 0
159 181 0
165 188 0
164 186 0
163 186 0
166 189 0
165 187 0
160 181 0
164 186 0
166 188 0
161 183 0
162 185 0
158 181 0
165 187 0
161 183 0
159 182 0
165 187 0
160 182 0
156 178 0
161 184 0
158 180 0
160 183 0
169 191 0
162 185 0
159 181 0
155 177 0
156 179 0
162 185 0
159 181 0
157 180 0
157 180 0
163 185 0
155 177 0
160 182 0
161 185 0
162 184 0
157 179 0
159 181 0
155 178 0
166 189 0
156 178 0
157 179 0
153 175 0
158 180 0
160 182 0
154 176 0
158 180 0
156 179 0
161 184 0
159 183 0
162 185 0
162 185 0
159 180 0
157 181 0
158 180 0
161 184 0
164 186 0
157 180 0
162 185 0
159 182 0
156 179 0
156 180 0
151 174 0
159 183 0
156 179 0
154 177 0
159 182 0
156 178 0
156 179 0
157 179 0
156 178 0
155 176 0
154 177 0
154 176 0
155 178 0
158 180 0
149 171 0
156 178 0
152 174 0
153 173 0
154 176 0
155 179 0
153 176 0
154 177 0
153 175 0
156 179 0
151 175 0
151 174 0
150 173 0
149 171 0
155 179 0
151 173 0
152 173 0
149 171 0
149 170 0
149 172 0
151 174 0
152 174 0
150 173 0
153 176 0
151 173 0
156 178 0
154 177 0
150 172 0
148 171 0
148 169 0
147 170 0
153 176 0
151 173 0
157 179 0
144 167 0
136 158 0
147 169 0
151 174 0
155 176 0
150 173 0
153 175 0
150 171 0
151 172 0
153 175 0
154 176 0
151 172 0
155 177 0
143 166 0
155 177 0
152 173 0
149 171 0
152 175 0
151 173 0
155 177 0
150 172 0
148 171 0
147 170 0
151 173 0
144 165 0
143 165 0
138 161 0
152 174 0
137 158 0
143 164 0
143 165 0
145 166 0
156 179 0
155 176 0
141 161 0
147 168 0
150 172 0
153 175 0
141 162 0
152 173 0
147 168 0
152 174 0
148 170 0
156 177 0
156 176 0
153 175 0
150 172 0
157 178 0
153 175 0
155 178 0
144 164 0
150 170 0
148 168 0
154 176 0
152 174 0
146 167 0
143 164 0
149 171 0
147 170 0
144 165 0
157 177 0
148 169 0
152 173 0
140 161 0
152 174 0
152 171 0
149 169 0
151 172 0
150 172 0
148 169 0
149 170 0
146 167 0
149 170 0
154 175 0
151 172 0
150 170 0
148 169 0
150 172 0
150 171 0
145 166 0
150 170 0
153 174 0
151 172 0
154 174 0
151 170 0
147 168 0
155 176 0
156 176 0
152 173 0
141 161 0
148 168 0
147 166 0
147 169 0
148 167 0
146 166 0
148 169 0
151 170 0
156 178 0
154 175 0
150 171 0
148 167 0
148 168 0
149 170 0
153 172 0
155 174 0
152 173 0
146 166 0
153 174 0
153 173 0
151 170 0
154 174 0
151 171 0
155 175 0
150 169 0
155 176 0
151 171 0
148 168 0
150 171 0
149 167 0
152 172 0
149 168 0
147 166 0
151 171 0
149 166 0
147 167 0
161 180 0
155 174 0
161 180 0
151 170 0
152 170 0
154 172 0
149 169 0
153 171 0
156 173 0
161 180 0
156 174 0
153 173 0
156 173 0
154 172 0
148 165 0
148 165 0
159 176 0
157 176 0
155 173 0
152 169 0
158 177 0
155 173 0
150 168 0
156 175 0
149 164 0
158 176 0
151 169 0
156 172 0
157 174 0
159 175 0
156 174 0
156 174 0
148 165 0
153 169 0
160 179 0
154 169 0
155 170 0
151 164 0
154 168 0
155 169 0
155 171 0
149 165 0
157 173 0
159 174 0
154 168 0
155 170 0
153 170 0
154 170 0
157 173 0
156 169 0
151 167 0
156 171 0
147 162 0
152 168 0
160 176 0
162 177 0
157 172 0
158 170 0
159 174 0
159 172 0
161 175 0
157 173 0
158 172 0
158 174 0
158 172 0
161 177 0
159 174 0
151 166 0
155 169 0
159 173 0
159 173 0
158 169 0
158 172 0
161 173 0
155 168 0
161 176 0
158 170 0
163 177 0
154 164 0
167 182 0
159 169 0
157 171 0
161 174 0
161 174 0
158 170 0
160 173 0
161 175 0
159 172 0
160 176 0
157 170 0
164 177 0
159 173 0
161 174 0
156 170 0
159 172 0
158 172 0
158 167 0
161 172 0
162 173 0
156 169 0
163 175 0
162 175 0
161 174 0
161 178 0
162 174 0
162 175 0
161 174 0
172 194 0
171 193 0
169 190 0
170 192 0
170 191 0
169 191 0
170 191 0
173 194 0
170 192 0
171 193 0
172 194 0
174 196 0
168 190 0
170 192 0
172 194 0
175 197 0
172 194 0
170 191 0
168 190 0
169 191 0
170 192 0
172 194 0
174 195 0
174 195 0
166 188 0
169 191 0
169 190 0
172 194 0
172 195 0
167 189 0
168 190 0
166 188 0
164 186 0
161 183 0
163 185 0
169 191 0
171 193 0
157 180 0
165 186 0
167 189 0
168 190 0
173 195 0
167 189 0
163 184 0
160 181 0
159 181 0
154 176 0
166 188 0
166 188 0
164 186 0
165 186 0
159 182 0
166 189 0
164 185 0
163 185 0
166 188 0
166 189 0
167 189 0
160 183 0
162 184 0
164 186 0
155 177 0
160 181 0
160 181 0
169 192 0
164 186 0
155 177 0
163 186 0
158 181 0
157 179 0
158 181 0
156 179 0
158 181 0
154 176 0
162 184 0
161 184 0
162 185 0
164 186 0
161 183 0
162 184 0
164 187 0
157 179 0
153 173 0
162 184 0
157 178 0
162 184 0
165 189 0
166 188 0
165 187 0
159 182 0
156 180 0
160 182 0
158 180 0
160 182 0
161 183 0
162 185 0
156 178 0
158 181 0
152 175 0
161 183 0
164 186 0
160 183 0
162 186 0
155 178 0
156 179 0
154 176 0
161 184 0
159 181 0
158 181 0
157 179 0
157 180 0
163 185 0
155 178 0
161 183 0
160 182 0
154 177 0
153 175 0
158 181 0
162 184 0
160 182 0
153 175 0
155 177 0
158 180 0
160 182 0
155 178 0
159 182 0
151 173 0
155 177 0
153 175 0
162 185 0
153 175 0
157 180 0
156 178 0
154 177 0
151 174 0
153 175 0
157 180 0
156 178 0
157 180 0
154 177 0
154 177 0
152 174 0
143 165 0
157 180 0
145 167 0
155 177 0
162 184 0
161 183 0
153 176 0
151 175 0
150 173 0
152 173 0
152 174 0
158 180 0
156 177 0
155 177 0
149 171 0
158 180 0
152 175 0
155 178 0
155 178 0
151 172 0
156 179 0
150 173 0
157 180 0
150 171 0
150 171 0
156 177 0
155 177 0
146 169 0
156 178 0
157 179 0
160 182 0
149 170 0
160 183 0
156 178 0
155 177 0
155 177 0
154 177 0
152 174 0
149 172 0
152 172 0
154 177 0
153 174 0
153 176 0
152 174 0
150 173 0
147 169 0
155 177 0
144 167 0
150 170 0
156 179 0
149 171 0
142 163 0
151 172 0
153 174 0
155 177 0
151 174 0
149 171 0
144 166 0
153 174 0
152 174 0
152 175 0
153 174 0
144 166 0
145 167 0
145 165 0
142 165 0
155 177 0
151 172 0
147 169 0
146 166 0
148 169 0
153 174 0
148 168 0
145 166 0
145 168 0
154 175 0
152 174 0
142 163 0
147 168 0
146 168 0
151 172 0
149 172 0
156 177 0
151 173 0
149 171 0
156 178 0
150 171 0
141 162 0
146 167 0
152 171 0
147 169 0
150 171 0
148 169 0
145 166 0
145 167 0
149 170 0
145 166 0
152 175 0
149 169 0
153 175 0
155 176 0
151 172 0
147 166 0
151 172 0
152 172 0
149 171 0
144 164 0
153 174 0
147 167 0
146 167 0
158 179 0
149 170 0
153 174 0
157 177 0
149 172 0
145 165 0
147 168 0
153 174 0
153 173 0
147 169 0
148 167 0
151 169 0
141 160 0
157 177 0
152 172 0
149 169 0
149 169 0
153 172 0
155 175 0
153 173 0
149 169 0
150 170 0
160 181 0
145 166 0
153 172 0
152 171 0
153 172 0
153 173 0
153 172 0
155 173 0
152 170 0
156 176 0
150 170 0
149 168 0
154 173 0
147 166 0
157 175 0
155 173 0
154 172 0
155 175 0
155 175 0
151 170 0
150 170 0
149 168 0
152 169 0
155 174 0
154 173 0
155 172 0
162 181 0
153 172 0
154 173 0
149 164 0
156 175 0
159 176 0
161 180 0
158 178 0
150 168 0
156 174 0
151 169 0
151 168 0
159 177 0
155 172 0
157 176 0
153 171 0
160 181 0
152 167 0
159 177 0
150 168 0
157 174 0
157 176 0
153 170 0
158 175 0
152 169 0
154 169 0
158 174 0
149 165 0
159 178 0
156 172 0
158 175 0
156 172 0
153 167 0
156 173 0
160 176 0
152 170 0
159 175 0
159 173 0
155 171 0
154 169 0
162 177 0
156 172 0
161 178 0
158 172 0
158 174 0
157 173 0
155 172 0
154 166 0
156 172 0
156 169 0
154 169 0
159 176 0
153 166 0
157 171 0
156 173 0
156 170 0
166 182 0
158 174 0
159 173 0
161 177 0
161 177 0
161 175 0
158 172 0
157 170 0
162 177 0
159 172 0
165 180 0
162 177 0
161 176 0
155 169 0
154 166 0
164 177 0
162 177 0
163 177 0
160 173 0
156 169 0
160 174 0
159 172 0
161 176 0
167 181 0
159 171 0
160 172 0
159 173 0
165 178 0
160 174 0
156 170 0
156 168 0
161 175 0
158 170 0
161 175 0
162 175 0
161 174 0
159 171 0
161 173 0
161 172 0
160 173 0
161 174 0
158 170 0
164 177 0
163 173 0
173 194 0
168 191 0
171 193 0
170 192 0
169 191 0
167 189 0
170 192 0
169 191 0
173 195 0
168 190 0
168 190 0
170 191 0
168 190 0
173 195 0
167 190 0
171 192 0
171 193 0
167 190 0
167 189 0
167 190 0
170 192 0
168 189 0
168 191 0
167 189 0
173 195 0
168 189 0
167 189 0
168 190 0
169 192 0
168 190 0
170 192 0
168 189 0
170 192 0
168 191 0
167 189 0
166 188 0
173 194 0
163 185 0
165 187 0
169 191 0
167 189 0
165 188 0
165 187 0
166 188 0
165 187 0
167 188 0
163 186 0
163 185 0
167 189 0
164 187 0
163 185 0
162 184 0
166 188 0
167 189 0
164 187 0
168 190 0
161 184 0
158 180 0
159 181 0
156 178 0
167 189 0
165 187 0
162 184 0
165 187 0
167 190 0
155 177 0
161 184 0
160 183 0
160 183 0
164 186 0
157 179 0
155 177 0
162 184 0
161 184 0
161 183 0
159 182 0
161 183 0
156 178 0
164 187 0
161 184 0
157 180 0
168 191 0
159 181 0
158 181 0
159 182 0
163 186 0
161 184 0
156 179 0
163 186 0
160 183 0
154 177 0
156 179 0
157 180 0
159 182 0
162 184 0
155 178 0
158 180 0
158 181 0
165 187 0
153 176 0
156 179 0
158 181 0
160 182 0
154 177 0
157 180 0
167 190 0
159 181 0
160 182 0
150 172 0
155 179 0
154 178 0
157 180 0
165 188 0
160 181 0
162 184 0
154 178 0
154 175 0
156 178 0
158 182 0
160 182 0
154 176 0
156 179 0
154 178 0
154 177 0
152 173 0
162 185 0
155 177 0
158 180 0
158 180 0
157 179 0
155 177 0
155 178 0
158 181 0
155 177 0
152 175 0
149 172 0
158 180 0
157 180 0
161 183 0
157 180 0
150 172 0
158 181 0
150 172 0
161 184 0
148 171 0
148 171 0
160 182 0
156 178 0
153 174 0
161 185 0
156 178 0
154 177 0
154 177 0
149 172 0
151 173 0
151 174 0
153 176 0
151 173 0
157 179 0
146 168 0
151 172 0
152 175 0
150 172 0
152 175 0
153 177 0
150 171 0
144 167 0
152 174 0
148 169 0
156 177 0
152 174 0
150 173 0
149 172 0
157 179 0
150 172 0
146 167 0
147 169 0
152 174 0
152 175 0
152 173 0
151 173 0
151 173 0
152 174 0
155 176 0
148 170 0
151 172 0
149 170 0
148 170 0
145 168 0
153 176 0
154 176 0
152 173 0
155 176 0
149 171 0
149 170 0
149 170 0
156 179 0
148 170 0
153 176 0
148 169 0
147 169 0
151 171 0
145 166 0
146 167 0
155 175 0
153 174 0
150 171 0
147 169 0
147 167 0
144 166 0
150 171 0
151 172 0
151 172 0
146 168 0
153 174 0
148 168 0
157 178 0
152 173 0
136 157 0
152 173 0
150 172 0
145 166 0
150 171 0
151 172 0
151 172 0
154 176 0
145 167 0
148 168 0
149 169 0
152 172 0
149 172 0
145 167 0
156 177 0
152 173 0
152 172 0
152 172 0
147 168 0
150 170 0
152 172 0
155 176 0
151 173 0
153 175 0
151 172 0
149 170 0
152 173 0
148 168 0
159 179 0
152 172 0
152 172 0
149 170 0
143 164 0
158 178 0
160 182 0
144 164 0
159 179 0
150 170 0
148 168 0
152 172 0
155 175 0
150 167 0
152 171 0
155 174 0
154 173 0
154 175 0
153 173 0
152 171 0
151 172 0
151 171 0
153 173 0
158 177 0
156 177 0
149 169 0
155 176 0
153 173 0
147 166 0
151 170 0
145 163 0
149 166 0
154 174 0
151 171 0
151 170 0
152 172 0
156 175 0
154 174 0
150 170 0
151 170 0
158 178 0
151 171 0
152 173 0
149 167 0
156 176 0
153 172 0
157 176 0
148 167 0
155 174 0
150 167 0
159 178 0
159 177 0
156 176 0
146 166 0
151 169 0
158 176 0
151 167 0
146 165 0
152 171 0
150 171 0
150 164 0
150 168 0
150 167 0
144 162 0
152 172 0
151 169 0
154 172 0
153 173 0
151 167 0
159 177 0
158 176 0
152 170 0
158 174 0
157 171 0
155 174 0
153 172 0
152 168 0
150 168 0
157 176 0
153 169 0
156 174 0
161 178 0
153 168 0
156 172 0
154 172 0
154 171 0
155 169 0
156 172 0
158 174 0
154 172 0
150 163 0
156 171 0
158 172 0
151 165 0
157 171 0
154 170 0
161 176 0
153 166 0
155 170 0
159 175 0
154 168 0
159 177 0
155 169 0
154 169 0
161 174 0
156 173 0
154 168 0
161 177 0
151 167 0
161 176 0
157 172 0
153 168 0
161 176 0
159 172 0
161 176 0
163 180 0
158 174 0
160 174 0
158 174 0
158 171 0
162 177 0
161 177 0
161 177 0
158 170 0
157 171 0
153 165 0
162 179 0
155 165 0
158 173 0
162 177 0
160 171 0
159 172 0
162 175 0
160 174 0
160 175 0
164 178 0
161 176 0
160 174 0
157 171 0
161 173 0
160 171 0
157 169 0
165 179 0
166 180 0
161 175 0
161 175 0
165 179 0
165 176 0
157 172 0
166 181 0
162 177 0
165 182 0
162 177 0
161 176 0
172 194 0
171 194 0
171 193 0
172 194 0
167 190 0
168 190 0
170 193 0
170 192 0
171 193 0
168 190 0
172 194 0
168 190 0
171 192 0
168 191 0
170 191 0
170 191 0
170 192 0
175 196 0
170 191 0
171 194 0
171 193 0
169 191 0
163 185 0
167 190 0
168 190 0
169 190 0
166 189 0
165 187 0
161 183 0
157 180 0
171 193 0
166 189 0
168 190 0
168 190 0
168 191 0
171 192 0
163 185 0
165 187 0
165 186 0
164 186 0
168 190 0
166 189 0
164 187 0
161 183 0
167 189 0
162 185 0
160 181 0
165 187 0
165 186 0
163 185 0
160 182 0
167 190 0
167 189 0
164 186 0
161 183 0
160 181 0
162 185 0
164 186 0
161 184 0
165 187 0
165 188 0
158 181 0
161 183 0
158 179 0
158 180 0
161 184 0
154 177 0
166 189 0
163 186 0
157 179 0
161 184 0
161 184 0
162 185 0
159 181 0
161 183 0
160 182 0
158 180 0
163 185 0
157 179 0
156 179 0
151 174 0
164 186 0
161 183 0
155 177 0
156 179 0
159 181 0
159 183 0
158 181 0
155 178 0
156 179 0
159 182 0
163 185 0
162 186 0
159 182 0
160 184 0
162 184 0
156 178 0
160 183 0
163 185 0
160 183 0
164 187 0
158 181 0
153 176 0
160 183 0
164 187 0
153 175 0
158 181 0
149 171 0
159 182 0
160 183 0
159 182 0
161 185 0
158 181 0
161 183 0
158 181 0
154 177 0
159 182 0
158 181 0
155 179 0
157 179 0
155 178 0
160 182 0
162 184 0
155 177 0
161 183 0
151 174 0
155 177 0
153 176 0
157 179 0
159 181 0
152 176 0
158 181 0
157 180 0
152 175 0
154 176 0
159 181 0
158 181 0
159 181 0
158 181 0
157 179 0
160 183 0
150 172 0
157 180 0
158 181 0
151 173 0
158 180 0
151 174 0
150 172 0
153 175 0
159 181 0
155 177 0
153 176 0
156 179 0
153 176 0
152 175 0
155 177 0
155 179 0
151 173 0
155 176 0
149 171 0
155 177 0
152 173 0
149 171 0
159 181 0
158 180 0
151 174 0
153 174 0
157 178 0
154 176 0
156 178 0
156 177 0
153 174 0
151 172 0
145 167 0
152 175 0
142 164 0
153 175 0
148 170 0
162 184 0
148 172 0
149 170 0
163 184 0
156 178 0
156 178 0
150 172 0
145 166 0
149 171 0
160 182 0
146 169 0
155 176 0
154 175 0
147 169 0
144 165 0
151 172 0
147 169 0
152 175 0
149 169 0
149 170 0
152 174 0
149 170 0
148 169 0
148 170 0
146 169 0
147 168 0
152 173 0
151 171 0
152 172 0
151 172 0
144 166 0
146 169 0
154 176 0
152 173 0
155 176 0
156 177 0
157 179 0
153 175 0
154 175 0
148 170 0
156 178 0
152 173 0
149 170 0
151 173 0
151 171 0
147 167 0
151 171 0
157 179 0
156 176 0
147 166 0
148 168 0
154 175 0
151 172 0
155 176 0
151 170 0
150 170 0
153 173 0
145 165 0
149 170 0
155 177 0
159 180 0
150 171 0
151 172 0
153 174 0
151 173 0
146 168 0
149 170 0
149 170 0
153 175 0
153 172 0
142 162 0
155 174 0
151 171 0
147 169 0
150 171 0
150 170 0
148 169 0
150 171 0
150 171 0
149 169 0
160 182 0
148 167 0
156 177 0
149 169 0
149 168 0
143 162 0
158 177 0
156 175 0
151 168 0
153 173 0
155 175 0
151 171 0
151 172 0
155 175 0
153 172 0
151 171 0
156 175 0
153 171 0
148 168 0
146 166 0
142 161 0
148 168 0
151 170 0
155 175 0
153 171 0
152 172 0
147 164 0
153 174 0
151 170 0
154 172 0
152 171 0
158 178 0
146 166 0
152 171 0
156 174 0
149 170 0
152 170 0
154 174 0
146 164 0
144 160 0
150 168 0
159 177 0
153 172 0
157 176 0
155 174 0
153 170 0
156 176 0
156 173 0
156 174 0
156 175 0
161 179 0
161 180 0
153 171 0
153 172 0
149 167 0
160 176 0
161 179 0
150 169 0
158 177 0
155 173 0
155 171 0
156 172 0
150 166 0
154 171 0
152 168 0
158 177 0
152 171 0
160 176 0
156 172 0
160 177 0
156 172 0
158 178 0
152 169 0
153 171 0
158 175 0
156 174 0
161 180 0
154 171 0
162 177 0
155 172 0
154 169 0
157 173 0
155 172 0
155 171 0
159 175 0
160 178 0
156 173 0
157 174 0
161 176 0
156 172 0
152 165 0
159 174 0
157 171 0
160 177 0
157 173 0
161 178 0
155 169 0
159 174 0
157 174 0
160 175 0
154 168 0
158 173 0
156 170 0
158 174 0
165 181 0
159 174 0
159 172 0
157 170 0
161 176 0
156 171 0
157 172 0
162 177 0
160 175 0
157 169 0
154 168 0
161 176 0
161 175 0
161 174 0
160 173 0
163 177 0
160 173 0
160 172 0
159 171 0
164 179 0
161 173 0
165 179 0
163 178 0
156 169 0
155 166 0
162 173 0
161 172 0
162 174 0
163 177 0
161 173 0
164 176 0
162 176 0
158 170 0
161 174 0
157 171 0
164 175 0
159 172 0
163 178 0
164 186 0
175 196 0
170 191 0
171 193 0
175 197 0
174 195 0
168 190 0
170 192 0
167 189 0
169 191 0
171 193 0
171 193 0
169 191 0
164 187 0
168 189 0
171 193 0
167 189 0
172 193 0
167 189 0
169 191 0
172 193 0
168 190 0
170 190 0
166 188 0
167 190 0
170 192 0
164 185 0
168 191 0
168 190 0
169 191 0
164 186 0
171 193 0
166 188 0
162 183 0
168 190 0
168 190 0
169 191 0
161 184 0
168 190 0
165 187 0
166 187 0
165 187 0
166 187 0
164 186 0
167 190 0
167 189 0
164 186 0
164 186 0
165 187 0
170 192 0
167 189 0
164 186 0
163 185 0
157 179 0
161 184 0
162 185 0
163 185 0
163 185 0
162 185 0
160 182 0
161 184 0
162 185 0
165 187 0
165 187 0
162 186 0
156 179 0
152 174 0
165 188 0
166 189 0
164 187 0
163 185 0
162 184 0
156 178 0
157 180 0
160 183 0
158 181 0
156 179 0
162 185 0
159 182 0
161 184 0
162 184 0
164 187 0
159 181 0
160 182 0
165 187 0
155 178 0
158 181 0
156 178 0
161 184 0
162 185 0
163 185 0
162 184 0
161 184 0
156 178 0
158 181 0
154 178 0
158 181 0
159 181 0
163 187 0
162 184 0
163 185 0
160 183 0
159 181 0
157 179 0
150 173 0
158 181 0
162 186 0
156 179 0
158 181 0
164 186 0
156 179 0
153 175 0
150 172 0
154 176 0
156 179 0
159 181 0
165 187 0
159 181 0
149 172 0
148 170 0
160 182 0
152 175 0
154 177 0
157 180 0
158 181 0
164 187 0
154 177 0
151 173 0
159 182 0
154 176 0
161 183 0
160 183 0
149 172 0
156 179 0
151 173 0
154 178 0
153 175 0
155 178 0
155 176 0
153 177 0
150 173 0
155 178 0
158 181 0
152 173 0
153 177 0
150 173 0
153 175 0
156 178 0
157 180 0
153 176 0
159 182 0
154 177 0
155 177 0
154 177 0
154 176 0
154 176 0
159 180 0
150 173 0
156 179 0
151 173 0
162 184 0
149 172 0
150 172 0
157 179 0
154 176 0
145 168 0
155 178 0
160 182 0
159 182 0
152 174 0
150 173 0
151 174 0
151 173 0
155 175 0
153 175 0
147 168 0
149 171 0
147 170 0
148 169 0
155 177 0
154 176 0
145 168 0
152 175 0
159 183 0
148 169 0
145 167 0
155 177 0
147 169 0
154 175 0
155 177 0
157 178 0
151 174 0
146 166 0
146 168 0
150 170 0
147 169 0
152 174 0
152 174 0
152 174 0
142 163 0
151 173 0
149 171 0
154 176 0
147 168 0
147 168 0
151 174 0
145 168 0
152 172 0
149 169 0
147 167 0
148 169 0
150 172 0
150 171 0
153 175 0
156 177 0
152 174 0
149 168 0
155 176 0
157 178 0
156 177 0
150 172 0
149 170 0
146 168 0
157 178 0
149 170 0
149 169 0
157 177 0
156 178 0
149 172 0
154 175 0
141 162 0
153 173 0
142 164 0
158 178 0
153 174 0
153 174 0
152 170 0
148 170 0
151 173 0
151 174 0
146 168 0
151 171 0
149 170 0
161 182 0
154 174 0
144 165 0
157 178 0
143 165 0
145 166 0
147 167 0
148 170 0
155 178 0
149 169 0
146 165 0
148 169 0
155 178 0
147 167 0
150 170 0
157 177 0
157 178 0
156 177 0
158 179 0
158 179 0
152 171 0
152 174 0
154 175 0
159 181 0
156 176 0
144 165 0
152 174 0
151 172 0
156 176 0
145 165 0
151 171 0
143 164 0
158 178 0
163 183 0
153 172 0
159 177 0
158 176 0
149 168 0
158 176 0
150 170 0
153 173 0
160 179 0
152 170 0
153 172 0
150 170 0
152 171 0
156 177 0
145 164 0
150 169 0
141 159 0
156 176 0
157 177 0
152 170 0
155 175 0
150 167 0
157 177 0
151 173 0
158 177 0
154 174 0
157 174 0
149 168 0
156 175 0
153 172 0
149 166 0
154 172 0
152 168 0
155 174 0
160 179 0
157 177 0
158 176 0
154 171 0
156 174 0
157 175 0
149 165 0
157 175 0
157 175 0
152 170 0
162 178 0
154 172 0
150 169 0
144 159 0
155 174 0
159 177 0
163 180 0
151 166 0
155 170 0
150 168 0
155 171 0
157 175 0
161 180 0
151 168 0
156 171 0
156 172 0
159 177 0
163 179 0
158 172 0
155 169 0
158 174 0
161 179 0
152 169 0
151 169 0
157 173 0
158 174 0
155 171 0
160 178 0
162 176 0
159 175 0
156 172 0
156 172 0
158 173 0
161 176 0
156 171 0
160 178 0
160 179 0
163 179 0
153 170 0
156 172 0
155 172 0
164 181 0
152 166 0
152 165 0
160 175 0
158 173 0
156 169 0
164 180 0
163 179 0
156 173 0
160 173 0
164 178 0
159 174 0
163 178 0
162 178 0
165 183 0
157 172 0
157 171 0
163 176 0
154 166 0
160 176 0
163 178 0
159 173 0
157 172 0
161 177 0
163 176 0
165 179 0
163 178 0
162 177 0
156 169 0
166 181 0
162 175 0
162 176 0
161 175 0
160 174 0
166 181 0
162 175 0
162 177 0
164 179 0
167 180 0
170 192 0
170 192 0
173 194 0
169 191 0
169 191 0
172 194 0
168 190 0
169 191 0
167 189 0
173 195 0
167 189 0
169 190 0
171 194 0
168 189 0
168 190 0
164 187 0
170 192 0
169 191 0
172 193 0
170 193 0
171 193 0
165 187 0
168 191 0
169 192 0
168 189 0
168 191 0
162 184 0
162 183 0
169 191 0
169 191 0
165 187 0
163 185 0
166 188 0
164 187 0
167 189 0
163 185 0
165 188 0
162 185 0
165 188 0
168 190 0
162 185 0
165 187 0
162 185 0
168 191 0
164 186 0
162 184 0
161 183 0
164 187 0
167 189 0
166 188 0
164 186 0
167 190 0
164 186 0
164 188 0
164 186 0
158 181 0
157 180 0
161 183 0
158 180 0
160 183 0
159 181 0
166 188 0
159 181 0
163 187 0
164 187 0
164 187 0
161 184 0
161 182 0
161 185 0
155 178 0
163 186 0
159 181 0
161 184 0
156 179 0
152 175 0
165 187 0
155 178 0
161 184 0
154 177 0
162 185 0
156 179 0
156 179 0
165 187 0
167 189 0
155 178 0
157 179 0
163 186 0
156 178 0
156 177 0
161 184 0
165 188 0
156 179 0
155 177 0
165 188 0
158 181 0
156 178 0
150 174 0
152 175 0
160 182 0
160 182 0
158 181 0
160 183 0
158 181 0
157 180 0
161 183 0
162 184 0
161 183 0
161 183 0
154 176 0
161 184 0
154 176 0
157 180 0
156 180 0
158 181 0
160 183 0
161 183 0
161 183 0
156 178 0
157 180 0
154 176 0
157 181 0
161 183 0
152 175 0
151 174 0
162 184 0
160 182 0
157 179 0
153 176 0
159 182 0
156 179 0
153 175 0
150 173 0
154 176 0
161 184 0
160 183 0
153 175 0
157 180 0
152 175 0
161 184 0
154 176 0
156 180 0
162 184 0
152 174 0
154 177 0
148 170 0
163 186 0
160 181 0
153 176 0
153 176 0
151 174 0
152 174 0
159 183 0
156 178 0
153 174 0
151 175 0
156 179 0
153 177 0
150 171 0
161 185 0
157 180 0
152 175 0
149 171 0
153 176 0
154 176 0
153 176 0
153 175 0
156 178 0
147 169 0
155 175 0
162 184 0
152 175 0
158 180 0
151 172 0
154 175 0
155 176 0
146 169 0
152 174 0
145 167 0
155 178 0
154 176 0
152 174 0
151 174 0
146 169 0
151 172 0
154 176 0
157 179 0
149 170 0
153 174 0
155 178 0
155 178 0
149 172 0
146 167 0
150 172 0
153 175 0
151 173 0
157 178 0
153 173 0
148 169 0
148 170 0
151 171 0
154 177 0
149 170 0
151 172 0
151 173 0
153 174 0
155 178 0
147 168 0
155 178 0
155 177 0
155 177 0
152 172 0
152 175 0
148 170 0
151 174 0
154 175 0
151 171 0
144 165 0
153 175 0
142 165 0
150 170 0
155 177 0
147 168 0
140 160 0
157 177 0
155 177 0
151 172 0
147 167 0
146 168 0
148 169 0
150 171 0
154 176 0
147 167 0
145 167 0
149 170 0
155 177 0
150 171 0
146 167 0
150 171 0
155 176 0
150 170 0
149 168 0
151 173 0
152 175 0
148 168 0
152 173 0
150 171 0
156 176 0
152 173 0
151 169 0
149 169 0
155 174 0
155 175 0
153 175 0
155 175 0
155 175 0
149 169 0
155 175 0
152 172 0
151 171 0
160 181 0
154 175 0
154 174 0
152 172 0
152 174 0
156 175 0
152 172 0
152 175 0
152 172 0
151 171 0
152 173 0
151 174 0
154 174 0
157 178 0
154 174 0
154 174 0
152 172 0
155 173 0
145 167 0
156 176 0
151 171 0
153 174 0
154 172 0
155 176 0
155 176 0
156 178 0
150 169 0
148 167 0
157 178 0
157 177 0
151 171 0
153 171 0
155 174 0
146 166 0
157 176 0
155 173 0
156 175 0
149 167 0
155 175 0
155 173 0
155 174 0
150 170 0
151 169 0
154 174 0
154 172 0
153 172 0
161 182 0
148 168 0
154 171 0
158 176 0
153 172 0
161 180 0
155 173 0
161 180 0
151 168 0
147 166 0
153 171 0
147 165 0
153 171 0
151 166 0
155 172 0
150 168 0
156 174 0
154 172 0
161 179 0
154 174 0
153 170 0
156 174 0
155 171 0
157 175 0
151 168 0
162 179 0
154 172 0
161 179 0
161 180 0
158 175 0
154 172 0
157 170 0
154 169 0
152 169 0
158 173 0
152 168 0
160 176 0
152 168 0
155 172 0
157 176 0
155 171 0
160 178 0
157 171 0
160 178 0
156 172 0
156 172 0
161 177 0
151 166 0
160 175 0
159 175 0
155 171 0
154 169 0
159 176 0
151 164 0
153 167 0
159 172 0
162 176 0
156 170 0
158 174 0
165 181 0
158 172 0
162 177 0
165 179 0
159 174 0
165 179 0
163 178 0
160 174 0
166 181 0
154 167 0
158 174 0
158 173 0
159 174 0
156 169 0
164 179 0
157 172 0
159 171 0
162 176 0
166 180 0
160 172 0
164 181 0
156 170 0
160 176 0
164 180 0
163 177 0
165 179 0
158 171 0
162 178 0
156 169 0
164 181 0
162 177 0
161 177 0
164 179 0
159 176 0
161 175 0
164 180 0
168 190 0
169 191 0
170 192 0
163 186 0
168 190 0
165 187 0
167 188 0
169 191 0
169 191 0
168 190 0
168 191 0
168 189 0
171 193 0
168 190 0
165 188 0
167 189 0
167 189 0
170 192 0
168 190 0
169 192 0
171 192 0
167 189 0
163 186 0
168 191 0
164 186 0
160 183 0
170 191 0
163 185 0
166 188 0
164 186 0
168 190 0
164 186 0
167 188 0
168 190 0
163 184 0
165 187 0
169 191 0
166 189 0
171 193 0
166 188 0
171 194 0
164 187 0
167 189 0
167 189 0
167 189 0
161 183 0
164 186 0
159 181 0
165 187 0
166 188 0
161 183 0
161 183 0
159 182 0
167 190 0
162 184 0
162 183 0
164 187 0
161 182 0
162 184 0
163 186 0
163 186 0
162 184 0
159 182 0
163 186 0
158 181 0
161 184 0
156 179 0
160 182 0
161 183 0
162 185 0
160 184 0
165 187 0
162 184 0
160 183 0
163 185 0
160 182 0
156 178 0
160 182 0
162 187 0
160 183 0
163 186 0
163 185 0
159 182 0
164 186 0
164 186 0
167 189 0
163 186 0
157 179 0
157 180 0
155 176 0
160 183 0
154 177 0
165 187 0
160 183 0
160 183 0
158 181 0
164 186 0
162 183 0
159 182 0
157 180 0
159 182 0
154 177 0
154 175 0
158 180 0
163 186 0
149 172 0
155 178 0
157 179 0
159 181 0
153 175 0
158 181 0
154 177 0
149 171 0
158 182 0
153 175 0
159 182 0
159 182 0
167 189 0
152 175 0
154 176 0
150 172 0
158 180 0
156 179 0
154 177 0
164 187 0
151 174 0
153 176 0
154 176 0
155 178 0
158 180 0
159 180 0
160 182 0
156 178 0
159 181 0
152 175 0
156 178 0
158 181 0
164 186 0
161 184 0
161 183 0
159 182 0
157 180 0
161 182 0
158 181 0
152 175 0
153 175 0
157 180 0
152 175 0
152 173 0
149 172 0
162 185 0
156 179 0
162 184 0
159 182 0
151 174 0
158 180 0
154 176 0
153 176 0
151 172 0
152 174 0
154 176 0
149 172 0
153 175 0
149 170 0
159 182 0
155 178 0
154 176 0
148 171 0
151 173 0
147 168 0
148 171 0
151 172 0
159 181 0
156 178 0
157 179 0
158 180 0
160 181 0
150 172 0
154 175 0
146 168 0
154 177 0
157 180 0
148 171 0
155 178 0
153 176 0
150 172 0
156 178 0
152 174 0
154 175 0
150 171 0
143 165 0
151 172 0
149 171 0
151 173 0
152 175 0
148 170 0
155 178 0
158 182 0
145 167 0
150 171 0
151 172 0
151 173 0
156 179 0
150 171 0
147 169 0
147 168 0
149 171 0
146 167 0
152 172 0
148 171 0
152 172 0
152 175 0
148 169 0
144 165 0
156 177 0
161 183 0
147 167 0
149 170 0
155 176 0
153 174 0
147 169 0
152 174 0
157 180 0
142 163 0
149 170 0
156 177 0
155 176 0
141 162 0
151 174 0
149 169 0
155 176 0
151 173 0
157 178 0
153 174 0
153 174 0
151 171 0
158 180 0
146 167 0
149 170 0
155 176 0
155 175 0
154 174 0
148 171 0
153 174 0
155 178 0
156 177 0
153 173 0
151 171 0
157 179 0
145 166 0
148 169 0
154 176 0
152 173 0
153 174 0
155 175 0
154 173 0
143 161 0
151 172 0
152 172 0
157 177 0
148 168 0
149 171 0
150 171 0
153 174 0
157 178 0
156 176 0
160 181 0
149 169 0
158 179 0
149 169 0
157 178 0
150 170 0
147 166 0
147 166 0
153 173 0
159 180 0
154 173 0
154 175 0
154 174 0
157 176 0
154 173 0
150 171 0
157 175 0
155 175 0
158 177 0
157 175 0
146 165 0
151 172 0
156 177 0
159 177 0
155 175 0
152 173 0
155 175 0
154 174 0
154 175 0
161 181 0
150 170 0
156 177 0
156 175 0
154 173 0
157 175 0
154 175 0
156 176 0
159 179 0
156 173 0
155 175 0
158 177 0
151 170 0
151 169 0
159 178 0
149 167 0
159 178 0
152 170 0
156 175 0
149 169 0
155 172 0
163 182 0
149 166 0
155 174 0
153 171 0
154 170 0
153 170 0
160 178 0
152 168 0
159 179 0
156 174 0
161 180 0
161 179 0
154 171 0
154 172 0
155 172 0
158 177 0
157 174 0
157 175 0
156 172 0
161 181 0
154 172 0
152 170 0
162 179 0
158 175 0
153 169 0
158 172 0
158 173 0
156 174 0
154 169 0
158 174 0
157 173 0
163 178 0
155 172 0
155 170 0
158 174 0
162 179 0
163 182 0
160 178 0
159 174 0
158 174 0
160 177 0
161 177 0
160 176 0
160 176 0
157 171 0
155 167 0
155 171 0
160 176 0
160 176 0
162 178 0
162 176 0
159 175 0
160 173 0
161 177 0
156 172 0
153 169 0
158 174 0
156 170 0
161 177 0
155 171 0
157 168 0
166 181 0
162 177 0
165 180 0
158 173 0
161 175 0
154 167 0
161 175 0
157 169 0
162 175 0
165 180 0
163 178 0
158 170 0
158 173 0
158 171 0
156 170 0
162 176 0
164 179 0
163 176 0
167 183 0
164 180 0
158 172 0
163 175 0
164 179 0
170 193 0
168 190 0
171 192 0
172 194 0
169 190 0
168 190 0
162 183 0
169 192 0
161 184 0
167 189 0
172 194 0
169 191 0
170 191 0
165 188 0
170 192 0
168 191 0
169 192 0
165 188 0
166 188 0
168 190 0
167 189 0
167 190 0
165 188 0
173 195 0
169 191 0
167 189 0
172 194 0
169 192 0
164 186 0
166 188 0
163 185 0
167 190 0
167 189 0
165 187 0
168 190 0
167 190 0
166 188 0
163 185 0
161 184 0
166 188 0
163 185 0
161 183 0
167 189 0
166 187 0
167 189 0
166 188 0
163 185 0
163 186 0
165 187 0
167 189 0
159 181 0
165 187 0
159 181 0
169 192 0
163 186 0
162 183 0
161 183 0
162 183 0
162 185 0
164 187 0
163 186 0
164 187 0
165 187 0
160 183 0
165 187 0
160 183 0
163 186 0
159 182 0
164 185 0
157 179 0
164 187 0
161 184 0
159 182 0
161 184 0
160 183 0
162 184 0
164 187 0
159 181 0
156 180 0
164 185 0
159 181 0
159 181 0
157 180 0
165 188 0
160 184 0
159 182 0
162 185 0
161 183 0
161 183 0
160 183 0
154 176 0
151 174 0
165 187 0
156 178 0
161 183 0
162 186 0
161 183 0
166 189 0
163 185 0
161 184 0
163 186 0
157 180 0
152 175 0
159 182 0
163 185 0
161 183 0
161 182 0
157 180 0
155 177 0
162 185 0
157 180 0
158 180 0
160 183 0
158 182 0
159 182 0
158 180 0
150 172 0
160 183 0
167 190 0
159 182 0
150 172 0
157 180 0
161 185 0
155 177 0
159 181 0
164 186 0
159 182 0
155 178 0
157 181 0
152 174 0
153 176 0
151 172 0
158 181 0
153 175 0
155 178 0
155 178 0
154 178 0
160 183 0
152 174 0
152 173 0
156 179 0
156 180 0
153 176 0
162 185 0
154 176 0
153 176 0
154 175 0
152 173 0
159 181 0
159 183 0
152 175 0
158 182 0
156 179 0
155 178 0
155 177 0
143 165 0
155 177 0
157 179 0
161 184 0
152 175 0
157 179 0
154 176 0
152 174 0
158 179 0
149 170 0
145 167 0
152 173 0
155 177 0
158 180 0
155 177 0
155 177 0
158 180 0
152 174 0
149 171 0
157 179 0
151 173 0
150 172 0
152 174 0
151 174 0
155 176 0
153 176 0
157 181 0
153 176 0
146 168 0
156 178 0
152 175 0
150 172 0
147 167 0
159 181 0
157 179 0
155 178 0
148 170 0
140 161 0
146 169 0
149 171 0
150 170 0
154 175 0
153 175 0
156 178 0
157 179 0
156 178 0
157 178 0
148 169 0
153 175 0
157 178 0
156 177 0
141 163 0
145 166 0
151 174 0
148 170 0
157 178 0
156 178 0
149 171 0
159 181 0
155 177 0
149 170 0
155 176 0
157 178 0
156 177 0
153 176 0
151 174 0
154 176 0
156 179 0
156 179 0
152 173 0
157 175 0
154 175 0
152 174 0
154 175 0
152 174 0
154 174 0
152 175 0
152 174 0
157 179 0
150 172 0
146 167 0
148 170 0
157 177 0
154 176 0
154 172 0
155 176 0
152 172 0
153 175 0
159 179 0
157 177 0
153 175 0
155 176 0
152 173 0
145 167 0
151 173 0
152 173 0
151 172 0
152 172 0
156 177 0
158 179 0
151 171 0
154 174 0
152 170 0
148 169 0
151 173 0
153 174 0
155 176 0
148 171 0
154 175 0
152 173 0
158 179 0
150 169 0
158 177 0
150 171 0
152 173 0
158 178 0
156 176 0
154 173 0
155 175 0
155 174 0
149 171 0
155 176 0
150 170 0
158 178 0
153 172 0
156 175 0
155 175 0
157 178 0
152 172 0
159 179 0
156 177 0
153 173 0
147 163 0
159 178 0
155 175 0
154 174 0
156 176 0
154 173 0
151 170 0
164 184 0
154 174 0
154 173 0
155 175 0
153 172 0
154 172 0
161 180 0
153 172 0
155 174 0
156 176 0
158 179 0
155 175 0
159 179 0
149 167 0
158 177 0
153 173 0
151 168 0
156 173 0
157 176 0
157 177 0
155 173 0
156 176 0
158 176 0
159 177 0
158 175 0
154 172 0
158 177 0
161 179 0
153 171 0
158 178 0
155 174 0
155 173 0
156 173 0
159 176 0
154 168 0
152 170 0
160 176 0
153 169 0
162 180 0
156 173 0
156 173 0
157 176 0
160 178 0
160 179 0
158 176 0
158 175 0
159 176 0
165 181 0
157 174 0
164 181 0
160 179 0
158 175 0
156 172 0
156 172 0
155 168 0
155 171 0
156 172 0
161 176 0
157 174 0
156 173 0
162 178 0
158 175 0
159 175 0
162 179 0
162 179 0
167 185 0
161 177 0
154 170 0
159 176 0
162 181 0
153 169 0
161 178 0
160 176 0
158 173 0
158 173 0
158 173 0
160 174 0
164 177 0
162 177 0
157 169 0
163 181 0
159 175 0
157 174 0
160 178 0
164 180 0
157 171 0
161 175 0
157 169 0
160 175 0
162 177 0
156 169 0
159 175 0
161 174 0
165 182 0
162 176 0
161 176 0
161 176 0
160 174 0
162 176 0
163 178 0
160 175 0
164 179 0
159 173 0
159 172 0
160 175 0
160 172 0
166 188 0
173 194 0
172 193 0
166 188 0
170 192 0
169 191 0
172 194 0
169 191 0
167 189 0
168 190 0
164 186 0
171 194 0
170 193 0
173 196 0
164 186 0
168 191 0
166 189 0
167 189 0
171 193 0
171 193 0
167 190 0
169 191 0
172 194 0
167 189 0
167 189 0
165 188 0
165 188 0
164 186 0
167 189 0
164 185 0
167 189 0
168 190 0
162 184 0
167 189 0
169 192 0
165 187 0
164 186 0
168 189 0
165 187 0
163 185 0
169 192 0
162 184 0
165 188 0
160 182 0
164 185 0
160 182 0
165 186 0
163 186 0
162 185 0
164 187 0
170 191 0
166 188 0
152 174 0
170 192 0
165 187 0
163 186 0
164 187 0
166 188 0
160 182 0
160 182 0
162 184 0
165 187 0
162 185 0
161 184 0
162 183 0
166 189 0
159 181 0
160 184 0
160 182 0
160 183 0
164 187 0
162 185 0
163 186 0
165 188 0
165 187 0
161 183 0
160 183 0
160 183 0
157 180 0
161 184 0
162 184 0
158 181 0
163 186 0
158 180 0
152 175 0
162 185 0
159 182 0
161 183 0
153 176 0
154 177 0
160 183 0
159 182 0
155 178 0
153 176 0
162 185 0
159 181 0
159 181 0
162 186 0
167 191 0
157 179 0
156 178 0
160 182 0
158 181 0
158 179 0
160 183 0
159 181 0
155 179 0
162 185 0
162 185 0
161 183 0
162 184 0
155 178 0
158 179 0
163 186 0
160 183 0
163 185 0
159 183 0
159 181 0
152 175 0
156 179 0
148 171 0
152 174 0
161 183 0
158 180 0
151 174 0
158 180 0
153 176 0
152 174 0
155 178 0
157 179 0
150 173 0
152 175 0
154 178 0
164 187 0
162 184 0
155 179 0
151 173 0
148 170 0
157 179 0
155 177 0
152 176 0
154 178 0
157 179 0
156 179 0
154 177 0
149 171 0
155 177 0
152 174 0
151 173 0
150 173 0
149 172 0
156 179 0
150 172 0
155 177 0
160 182 0
153 174 0
155 178 0
155 177 0
152 174 0
158 180 0
154 177 0
153 176 0
157 179 0
159 182 0
155 177 0
152 173 0
141 162 0
161 184 0
156 178 0
155 177 0
155 179 0
159 182 0
149 171 0
152 174 0
150 172 0
150 173 0
152 174 0
158 179 0
155 178 0
148 169 0
151 174 0
152 174 0
156 179 0
148 170 0
152 174 0
153 176 0
156 178 0
157 179 0
150 171 0
152 174 0
146 169 0
151 173 0
152 174 0
152 174 0
147 169 0
161 182 0
152 174 0
156 177 0
154 175 0
146 167 0
151 171 0
154 175 0
142 163 0
149 172 0
155 177 0
154 174 0
153 176 0
150 172 0
150 171 0
154 175 0
154 174 0
147 169 0
148 168 0
155 177 0
154 176 0
161 184 0
156 177 0
146 167 0
153 176 0
161 183 0
158 179 0
154 175 0
148 169 0
152 173 0
150 173 0
148 170 0
154 175 0
148 169 0
154 176 0
152 174 0
153 175 0
146 167 0
145 165 0
159 181 0
158 179 0
149 172 0
157 178 0
152 173 0
152 173 0
156 176 0
155 176 0
151 171 0
152 172 0
152 172 0
155 176 0
152 174 0
153 174 0
157 178 0
156 177 0
154 174 0
154 173 0
155 175 0
151 172 0
155 174 0
152 171 0
148 169 0
158 177 0
155 175 0
157 178 0
155 176 0
160 180 0
159 179 0
152 172 0
146 166 0
143 164 0
154 175 0
154 175 0
159 177 0
155 177 0
157 178 0
149 169 0
158 179 0
157 177 0
154 174 0
153 173 0
151 172 0
152 173 0
155 176 0
156 176 0
154 175 0
158 179 0
155 175 0
157 177 0
155 173 0
156 176 0
148 167 0
148 169 0
160 179 0
160 178 0
157 175 0
146 167 0
148 168 0
156 177 0
149 170 0
144 163 0
154 171 0
158 179 0
154 174 0
161 180 0
156 177 0
157 177 0
156 175 0
160 179 0
159 179 0
155 175 0
155 175 0
151 170 0
155 173 0
155 174 0
158 179 0
150 169 0
161 178 0
158 177 0
153 171 0
159 179 0
154 175 0
155 174 0
154 171 0
161 180 0
149 168 0
158 177 0
160 178 0
160 176 0
153 171 0
157 176 0
160 178 0
155 173 0
153 168 0
160 178 0
150 167 0
155 173 0
157 175 0
153 171 0
156 175 0
157 176 0
159 175 0
164 182 0
151 168 0
162 181 0
157 173 0
159 176 0
161 178 0
160 177 0
157 174 0
161 176 0
158 175 0
160 175 0
156 173 0
157 172 0
160 177 0
162 178 0
159 175 0
153 170 0
158 174 0
161 178 0
161 179 0
158 174 0
156 172 0
159 176 0
156 174 0
155 172 0
160 177 0
160 177 0
154 169 0
154 169 0
160 176 0
153 168 0
156 170 0
159 174 0
154 169 0
160 175 0
155 170 0
162 177 0
157 174 0
156 172 0
150 163 0
151 166 0
162 176 0
157 170 0
163 179 0
156 172 0
161 176 0
164 180 0
157 172 0
158 173 0
162 176 0
163 178 0
162 177 0
161 175 0
164 179 0
159 175 0
164 178 0
163 179 0
160 173 0
161 176 0
159 174 0
160 173 0
165 179 0
165 180 0
165 181 0
166 188 0
166 189 0
171 193 0
168 190 0
169 192 0
169 190 0
173 194 0
171 193 0
169 191 0
169 191 0
164 186 0
171 193 0
168 191 0
162 184 0
169 191 0
167 189 0
166 188 0
168 190 0
171 193 0
171 192 0
165 188 0
166 189 0
168 191 0
165 187 0
165 187 0
170 192 0
171 193 0
167 190 0
164 186 0
166 189 0
165 187 0
163 185 0
163 185 0
168 190 0
165 188 0
164 187 0
169 192 0
161 184 0
163 185 0
161 183 0
165 187 0
167 191 0
159 181 0
168 191 0
167 190 0
167 190 0
165 186 0
167 190 0
168 190 0
160 183 0
163 186 0
165 187 0
164 186 0
164 188 0
161 184 0
155 179 0
162 185 0
165 188 0
162 184 0
158 181 0
161 183 0
160 183 0
164 187 0
168 191 0
163 185 0
161 183 0
160 183 0
164 187 0
159 182 0
163 185 0
162 185 0
162 185 0
161 184 0
159 182 0
163 185 0
161 184 0
162 185 0
160 182 0
159 182 0
156 179 0
156 179 0
161 184 0
156 179 0
165 186 0
166 188 0
160 182 0
153 177 0
159 181 0
153 176 0
163 186 0
158 180 0
161 184 0
159 183 0
160 182 0
155 177 0
155 179 0
160 183 0
156 178 0
158 180 0
159 182 0
155 178 0
157 180 0
165 187 0
155 178 0
147 171 0
163 185 0
159 183 0
154 178 0
158 180 0
165 187 0
160 182 0
158 181 0
148 170 0
155 177 0
153 177 0
159 182 0
156 179 0
162 185 0
157 179 0
161 184 0
159 181 0
163 186 0
157 180 0
160 183 0
155 177 0
150 173 0
160 182 0
157 180 0
155 179 0
158 181 0
159 181 0
156 179 0
160 183 0
163 186 0
158 181 0
161 183 0
157 180 0
152 173 0
158 179 0
161 183 0
159 182 0
162 185 0
155 178 0
158 181 0
158 179 0
158 181 0
153 176 0
152 175 0
158 181 0
154 176 0
163 186 0
148 169 0
155 177 0
159 181 0
154 177 0
158 181 0
154 175 0
158 180 0
153 176 0
147 170 0
158 179 0
159 182 0
153 174 0
157 179 0
148 169 0
143 164 0
158 181 0
154 176 0
154 176 0
143 164 0
150 173 0
152 174 0
154 177 0
155 176 0
159 181 0
155 178 0
153 175 0
157 180 0
150 173 0
156 179 0
148 170 0
152 174 0
149 172 0
153 175 0
162 184 0
153 174 0
159 182 0
151 171 0
156 177 0
146 165 0
155 176 0
144 166 0
151 174 0
157 179 0
148 170 0
151 174 0
149 172 0
143 166 0
154 175 0
152 173 0
153 175 0
151 173 0
153 174 0
149 170 0
153 176 0
155 177 0
152 175 0
158 179 0
150 173 0
145 166 0
145 166 0
150 171 0
153 174 0
153 174 0
149 170 0
147 168 0
153 175 0
155 176 0
145 166 0
161 183 0
150 171 0
155 176 0
148 170 0
152 174 0
153 174 0
157 178 0
150 171 0
153 174 0
149 171 0
154 175 0
155 178 0
152 172 0
153 175 0
146 166 0
153 175 0
144 165 0
159 181 0
155 175 0
154 175 0
155 175 0
154 177 0
157 178 0
147 168 0
155 177 0
148 171 0
157 178 0
151 173 0
157 176 0
154 173 0
147 168 0
152 173 0
156 178 0
157 177 0
153 172 0
152 172 0
152 172 0
154 175 0
157 178 0
154 174 0
155 176 0
151 172 0
156 175 0
150 171 0
159 181 0
145 165 0
154 173 0
157 178 0
154 174 0
153 173 0
157 178 0
157 178 0
154 174 0
150 171 0
154 174 0
147 167 0
151 171 0
150 172 0
158 178 0
158 179 0
157 177 0
156 174 0
141 162 0
152 173 0
155 176 0
156 176 0
154 172 0
156 176 0
152 172 0
154 175 0
142 162 0
153 173 0
151 171 0
153 173 0
153 172 0
158 178 0
158 178 0
157 177 0
158 177 0
153 172 0
154 175 0
150 171 0
153 173 0
151 171 0
157 178 0
157 176 0
158 176 0
161 181 0
151 168 0
156 176 0
158 176 0
160 177 0
156 175 0
153 171 0
157 175 0
154 172 0
159 178 0
157 175 0
156 175 0
150 168 0
154 174 0
155 173 0
154 170 0
156 174 0
155 175 0
157 175 0
152 171 0
163 180 0
155 173 0
152 173 0
156 177 0
156 173 0
154 173 0
155 172 0
153 170 0
159 177 0
159 177 0
155 168 0
154 169 0
157 173 0
153 171 0
158 176 0
163 180 0
161 178 0
154 171 0
156 173 0
159 177 0
162 181 0
159 175 0
156 172 0
159 176 0
160 174 0
161 179 0
156 172 0
156 171 0
166 184 0
160 178 0
160 176 0
163 180 0
155 170 0
157 175 0
158 173 0
163 180 0
152 168 0
158 173 0
159 176 0
155 170 0
155 172 0
156 173 0
159 176 0
158 173 0
158 174 0
160 177 0
165 182 0
160 177 0
152 165 0
160 176 0
158 175 0
164 179 0
154 170 0
163 180 0
158 175 0
165 181 0
160 172 0
159 172 0
157 173 0
157 172 0
159 172 0
161 174 0
164 181 0
159 170 0
162 177 0
163 179 0
159 172 0
161 175 0
165 181 0
164 179 0
162 177 0
159 172 0
159 173 0
161 175 0
170 192 0
168 190 0
170 192 0
169 192 0
169 191 0
165 187 0
171 193 0
165 187 0
168 190 0
166 188 0
164 185 0
168 190 0
167 189 0
167 189 0
166 189 0
166 188 0
170 192 0
173 195 0
169 191 0
167 189 0
172 194 0
167 189 0
161 185 0
166 189 0
166 189 0
169 192 0
164 186 0
172 194 0
161 184 0
165 187 0
163 185 0
171 193 0
162 184 0
162 185 0
165 188 0
165 187 0
165 188 0
165 187 0
168 191 0
168 191 0
164 186 0
169 191 0
161 184 0
157 180 0
159 181 0
167 190 0
164 186 0
170 192 0
159 181 0
157 179 0
167 190 0
164 186 0
163 187 0
165 188 0
166 188 0
165 188 0
163 187 0
159 182 0
162 184 0
167 189 0
160 182 0
162 184 0
166 188 0
162 185 0
163 186 0
163 187 0
160 183 0
159 181 0
162 184 0
164 186 0
159 182 0
160 183 0
163 186 0
164 186 0
153 177 0
164 187 0
159 181 0
160 181 0
156 178 0
163 185 0
159 182 0
157 179 0
151 175 0
153 176 0
160 183 0
163 186 0
158 181 0
166 188 0
159 181 0
162 185 0
162 185 0
165 187 0
161 183 0
163 185 0
166 190 0
156 179 0
163 186 0
160 183 0
159 181 0
157 179 0
165 189 0
157 180 0
161 183 0
159 181 0
157 180 0
155 178 0
160 182 0
161 183 0
157 180 0
164 186 0
155 179 0
154 175 0
160 183 0
153 176 0
161 185 0
150 172 0
159 182 0
164 186 0
157 179 0
158 181 0
157 181 0
157 180 0
163 185 0
159 184 0
162 185 0
158 180 0
159 182 0
154 176 0
156 179 0
156 179 0
155 177 0
155 178 0
163 185 0
148 172 0
156 179 0
158 180 0
160 182 0
158 181 0
159 182 0
158 181 0
150 173 0
158 180 0
157 180 0
154 177 0
159 181 0
152 174 0
161 185 0
155 178 0
153 175 0
160 183 0
154 176 0
154 176 0
159 182 0
156 178 0
151 173 0
157 180 0
155 177 0
149 171 0
153 176 0
154 176 0
157 180 0
153 175 0
150 172 0
161 182 0
157 180 0
160 183 0
152 172 0
151 174 0
155 177 0
159 180 0
151 172 0
142 166 0
149 172 0
153 175 0
149 172 0
163 185 0
158 180 0
152 174 0
152 174 0
151 174 0
154 176 0
149 171 0
156 179 0
147 168 0
159 181 0
156 178 0
153 176 0
154 175 0
153 174 0
151 175 0
159 182 0
154 177 0
152 174 0
155 178 0
155 177 0
153 173 0
155 177 0
151 173 0
154 176 0
154 175 0
153 175 0
156 180 0
152 174 0
151 172 0
157 179 0
149 171 0
158 179 0
158 179 0
152 172 0
152 173 0
144 166 0
157 179 0
150 171 0
152 172 0
150 172 0
154 175 0
154 176 0
156 177 0
149 170 0
154 175 0
158 180 0
156 177 0
148 169 0
147 169 0
147 168 0
146 168 0
153 174 0
160 183 0
154 176 0
159 181 0
151 173 0
152 173 0
152 173 0
150 172 0
157 178 0
155 177 0
152 172 0
145 166 0
144 164 0
153 176 0
145 167 0
154 174 0
153 174 0
156 176 0
155 176 0
151 171 0
156 178 0
151 172 0
158 177 0
155 176 0
153 175 0
157 178 0
154 176 0
160 182 0
150 172 0
151 171 0
160 183 0
156 177 0
146 165 0
153 173 0
157 179 0
146 166 0
156 178 0
148 168 0
156 177 0
155 177 0
154 173 0
154 173 0
151 172 0
156 177 0
145 166 0
156 176 0
152 174 0
161 181 0
153 174 0
152 171 0
156 177 0
157 176 0
158 179 0
161 179 0
156 175 0
155 176 0
157 177 0
155 176 0
151 171 0
158 177 0
153 172 0
156 177 0
155 175 0
151 171 0
153 172 0
156 177 0
151 170 0
156 176 0
158 178 0
159 178 0
146 166 0
155 175 0
148 167 0
147 166 0
162 181 0
153 172 0
156 177 0
151 171 0
160 179 0
156 176 0
152 172 0
158 178 0
153 172 0
157 175 0
161 182 0
158 175 0
159 179 0
154 172 0
159 179 0
153 173 0
149 167 0
152 169 0
157 176 0
159 179 0
159 178 0
153 170 0
152 171 0
161 180 0
160 178 0
158 176 0
153 172 0
159 174 0
157 175 0
152 168 0
156 172 0
157 175 0
155 173 0
157 176 0
158 175 0
154 174 0
159 178 0
163 180 0
160 176 0
156 172 0
151 166 0
159 177 0
155 172 0
157 174 0
162 177 0
162 178 0
158 175 0
154 169 0
163 180 0
160 178 0
154 170 0
156 174 0
155 171 0
157 174 0
162 178 0
160 176 0
160 176 0
159 175 0
152 168 0
161 178 0
154 171 0
159 176 0
159 172 0
157 172 0
159 176 0
156 173 0
157 172 0
163 179 0
157 170 0
155 172 0
159 175 0
166 182 0
157 173 0
162 181 0
164 181 0
162 178 0
160 177 0
164 178 0
168 185 0
155 170 0
164 181 0
164 181 0
160 176 0
161 178 0
160 174 0
162 178 0
158 172 0
161 177 0
166 182 0
161 176 0
158 172 0
157 173 0
166 183 0
162 175 0
160 176 0
163 178 0
163 176 0
163 179 0
158 171 0
158 173 0
170 192 0
167 190 0
168 190 0
167 189 0
171 193 0
172 194 0
171 192 0
172 194 0
165 187 0
169 191 0
167 189 0
167 189 0
168 191 0
165 187 0
168 190 0
170 192 0
166 189 0
167 190 0
164 187 0
166 187 0
171 194 0
169 191 0
165 188 0
164 187 0
163 186 0
169 192 0
168 190 0
167 189 0
161 183 0
165 187 0
162 185 0
164 186 0
160 182 0
170 193 0
171 194 0
170 192 0
159 182 0
164 187 0
167 189 0
164 187 0
170 192 0
161 184 0
158 180 0
163 185 0
162 184 0
163 186 0
168 190 0
163 186 0
160 183 0
161 185 0
159 183 0
167 191 0
165 188 0
165 188 0
158 180 0
167 189 0
166 188 0
166 189 0
160 183 0
160 182 0
165 187 0
164 186 0
165 188 0
162 185 0
163 187 0
153 176 0
161 184 0
164 187 0
162 185 0
161 183 0
156 177 0
159 182 0
157 181 0
161 185 0
157 179 0
163 186 0
161 185 0
160 182 0
163 185 0
156 179 0
162 184 0
161 183 0
160 182 0
158 182 0
158 180 0
158 181 0
162 184 0
162 184 0
162 184 0
161 184 0
161 183 0
158 182 0
157 180 0
161 185 0
166 188 0
152 175 0
165 188 0
164 186 0
158 180 0
158 180 0
161 183 0
156 179 0
156 179 0
151 173 0
164 187 0
169 192 0
158 180 0
159 181 0
160 183 0
155 177 0
161 183 0
162 184 0
161 185 0
154 178 0
158 181 0
158 180 0
158 180 0
157 180 0
157 179 0
155 178 0
155 178 0
158 180 0
158 181 0
156 179 0
158 180 0
162 186 0
160 183 0
160 182 0
160 182 0
157 179 0
164 186 0
153 175 0
159 182 0
153 176 0
157 179 0
152 174 0
154 177 0
157 180 0
158 179 0
157 180 0
159 181 0
156 178 0
163 185 0
153 176 0
153 174 0
165 189 0
155 178 0
159 182 0
154 176 0
153 176 0
156 179 0
155 177 0
157 178 0
151 174 0
155 178 0
151 173 0
157 181 0
157 179 0
154 177 0
160 182 0
154 176 0
151 174 0
155 177 0
151 173 0
152 175 0
154 176 0
162 184 0
152 174 0
156 177 0
159 182 0
152 174 0
155 178 0
151 173 0
159 181 0
157 179 0
151 173 0
154 177 0
154 176 0
152 175 0
144 166 0
151 174 0
152 174 0
155 176 0
153 177 0
151 172 0
153 176 0
154 177 0
146 168 0
157 180 0
151 173 0
149 171 0
153 175 0
148 171 0
150 171 0
157 178 0
157 178 0
151 174 0
156 179 0
158 181 0
153 175 0
151 173 0
154 176 0
153 174 0
151 173 0
156 176 0
151 173 0
155 178 0
153 175 0
148 169 0
154 175 0
150 170 0
154 175 0
156 179 0
154 177 0
155 176 0
153 175 0
156 178 0
152 175 0
144 165 0
155 176 0
155 178 0
160 182 0
156 177 0
147 169 0
149 171 0
156 179 0
154 176 0
150 172 0
151 173 0
154 176 0
148 170 0
149 170 0
151 174 0
151 172 0
157 179 0
159 181 0
164 186 0
154 176 0
160 182 0
153 174 0
150 172 0
155 175 0
156 176 0
148 170 0
151 173 0
151 173 0
154 175 0
156 176 0
153 174 0
151 172 0
159 183 0
149 171 0
155 175 0
148 169 0
149 170 0
155 175 0
155 176 0
154 176 0
157 178 0
155 175 0
154 175 0
158 180 0
149 169 0
153 173 0
154 174 0
156 179 0
157 177 0
158 178 0
152 172 0
153 174 0
158 178 0
155 176 0
152 173 0
152 172 0
149 168 0
147 167 0
161 181 0
159 179 0
146 165 0
156 177 0
152 174 0
159 179 0
147 168 0
154 174 0
158 179 0
162 183 0
155 176 0
154 174 0
154 173 0
160 179 0
157 178 0
156 175 0
156 175 0
154 173 0
153 173 0
156 175 0
152 169 0
159 179 0
158 179 0
151 171 0
152 171 0
154 174 0
150 168 0
150 171 0
150 169 0
152 171 0
166 187 0
160 181 0
157 177 0
150 170 0
162 180 0
152 170 0
154 173 0
154 171 0
155 171 0
158 178 0
158 179 0
160 179 0
158 178 0
159 178 0
156 175 0
159 178 0
158 178 0
154 173 0
158 177 0
154 172 0
157 174 0
152 170 0
160 180 0
162 183 0
162 180 0
161 179 0
159 177 0
154 172 0
158 176 0
163 182 0
161 177 0
160 179 0
161 180 0
155 171 0
159 177 0
153 171 0
157 175 0
159 177 0
160 175 0
158 176 0
157 175 0
157 174 0
162 181 0
159 178 0
158 174 0
155 171 0
158 178 0
159 175 0
162 180 0
155 173 0
164 183 0
158 175 0
155 167 0
163 180 0
157 173 0
164 182 0
160 178 0
165 183 0
161 176 0
159 174 0
159 174 0
160 175 0
162 179 0
162 178 0
163 179 0
160 177 0
158 175 0
164 183 0
158 176 0
159 173 0
159 176 0
160 176 0
159 173 0
161 177 0
157 171 0
161 176 0
162 179 0
156 171 0
166 183 0
162 176 0
161 177 0
166 184 0
161 175 0
165 180 0
165 181 0
164 182 0
159 175 0
164 180 0
163 179 0
157 171 0
164 182 0
163 176 0
161 175 0
161 176 0
169 190 0
170 192 0
168 190 0
170 192 0
169 191 0
169 191 0
167 189 0
169 193 0
166 188 0
166 188 0
168 191 0
167 189 0
169 191 0
168 190 0
168 191 0
165 188 0
168 190 0
162 184 0
164 187 0
170 192 0
164 186 0
171 193 0
166 188 0
167 189 0
170 192 0
163 185 0
162 184 0
167 189 0
168 190 0
163 185 0
165 188 0
169 191 0
165 187 0
164 186 0
166 188 0
160 182 0
168 191 0
165 188 0
162 184 0
169 191 0
161 185 0
163 185 0
164 186 0
167 189 0
167 189 0
167 190 0
157 179 0
167 191 0
163 184 0
154 176 0
165 187 0
165 187 0
164 187 0
161 183 0
168 191 0
162 184 0
160 183 0
164 187 0
166 189 0
162 185 0
151 173 0
163 185 0
159 181 0
169 193 0
157 179 0
162 185 0
161 184 0
162 185 0
165 188 0
160 183 0
169 192 0
166 189 0
163 186 0
165 188 0
154 176 0
155 178 0
162 185 0
163 186 0
161 183 0
160 184 0
158 180 0
159 182 0
160 183 0
161 184 0
161 184 0
164 187 0
161 183 0
162 185 0
157 180 0
159 182 0
160 182 0
165 188 0
158 181 0
156 179 0
153 176 0
161 184 0
158 180 0
161 184 0
163 186 0
156 180 0
159 182 0
157 181 0
155 178 0
164 187 0
155 178 0
165 187 0
160 184 0
158 182 0
162 185 0
161 183 0
159 182 0
160 184 0
161 184 0
166 189 0
158 181 0
158 181 0
162 184 0
151 173 0
162 185 0
151 174 0
162 185 0
159 181 0
163 186 0
161 183 0
152 175 0
153 176 0
151 173 0
161 185 0
158 181 0
159 181 0
160 182 0
150 172 0
155 178 0
153 175 0
155 178 0
151 174 0
156 179 0
156 179 0
151 173 0
157 181 0
159 182 0
153 174 0
159 183 0
153 176 0
152 176 0
152 173 0
161 184 0
163 185 0
151 173 0
159 182 0
153 176 0
155 178 0
152 174 0
156 179 0
159 181 0
154 176 0
155 177 0
161 183 0
154 177 0
151 174 0
148 171 0
148 170 0
159 182 0
156 179 0
156 179 0
149 170 0
156 178 0
157 179 0
153 175 0
151 172 0
154 177 0
158 181 0
154 177 0
148 170 0
146 168 0
158 179 0
158 180 0
155 178 0
157 180 0
154 177 0
145 168 0
155 178 0
148 169 0
154 176 0
152 175 0
161 183 0
158 179 0
152 174 0
151 173 0
154 176 0
162 184 0
156 178 0
159 179 0
150 172 0
157 180 0
153 174 0
154 177 0
158 180 0
155 178 0
154 177 0
153 175 0
156 178 0
144 167 0
149 171 0
160 182 0
147 169 0
150 171 0
155 177 0
155 178 0
154 177 0
152 175 0
149 171 0
156 177 0
150 172 0
156 178 0
156 179 0
159 181 0
159 181 0
146 168 0
155 176 0
150 171 0
150 172 0
150 171 0
151 173 0
154 176 0
153 175 0
149 168 0
152 174 0
149 169 0
159 182 0
155 176 0
154 175 0
154 175 0
155 177 0
148 169 0
150 171 0
146 167 0
156 178 0
147 168 0
158 180 0
157 180 0
145 167 0
156 177 0
153 174 0
156 177 0
152 173 0
151 173 0
152 174 0
149 169 0
156 175 0
156 177 0
161 184 0
157 176 0
153 173 0
154 175 0
158 179 0
156 177 0
162 182 0
159 181 0
154 176 0
160 181 0
151 172 0
158 180 0
157 178 0
158 179 0
152 173 0
147 167 0
152 170 0
155 175 0
145 165 0
156 177 0
159 179 0
152 174 0
155 177 0
156 176 0
154 173 0
155 176 0
148 168 0
155 176 0
161 182 0
153 175 0
157 178 0
155 177 0
161 182 0
162 179 0
155 174 0
150 170 0
158 179 0
156 177 0
161 182 0
156 177 0
159 181 0
160 181 0
152 170 0
160 180 0
150 171 0
149 170 0
154 174 0
155 175 0
152 173 0
156 174 0
154 174 0
150 171 0
153 174 0
159 178 0
155 175 0
154 172 0
161 179 0
162 181 0
161 179 0
154 172 0
152 171 0
155 173 0
160 182 0
160 179 0
159 177 0
161 180 0
161 179 0
163 182 0
160 180 0
153 171 0
157 177 0
155 173 0
158 175 0
153 172 0
158 176 0
155 172 0
158 178 0
158 177 0
154 173 0
151 171 0
152 171 0
156 174 0
158 178 0
158 175 0
158 175 0
153 168 0
155 173 0
149 167 0
158 176 0
159 177 0
163 183 0
162 182 0
160 177 0
159 176 0
154 171 0
161 177 0
154 171 0
155 173 0
162 180 0
164 181 0
161 179 0
160 180 0
166 183 0
155 173 0
159 175 0
159 179 0
161 178 0
162 179 0
159 175 0
162 179 0
160 177 0
160 178 0
156 173 0
155 172 0
165 183 0
155 170 0
159 177 0
158 175 0
165 184 0
160 175 0
158 173 0
161 177 0
160 176 0
160 176 0
159 175 0
163 179 0
159 174 0
163 179 0
161 175 0
165 182 0
161 178 0
164 180 0
162 177 0
164 179 0
158 173 0
153 168 0
157 172 0
160 175 0
160 174 0
160 177 0
158 173 0
168 185 0
161 177 0
165 180 0
163 180 0
162 180 0
162 180 0
162 178 0
160 174 0
167 189 0
168 191 0
171 193 0
172 195 0
169 191 0
167 189 0
170 192 0
166 188 0
170 192 0
170 192 0
169 191 0
167 190 0
165 187 0
170 193 0
169 191 0
170 193 0
169 191 0
164 187 0
168 191 0
165 188 0
169 192 0
170 192 0
168 190 0
167 190 0
167 191 0
166 188 0
168 191 0
163 185 0
164 186 0
169 191 0
165 188 0
165 188 0
162 185 0
159 181 0
163 186 0
159 181 0
163 187 0
164 185 0
160 182 0
163 186 0
160 184 0
165 188 0
164 186 0
164 186 0
162 184 0
160 182 0
162 185 0
157 179 0
161 184 0
162 185 0
166 188 0
165 187 0
162 185 0
164 186 0
162 185 0
160 182 0
161 184 0
163 185 0
161 184 0
164 187 0
160 182 0
163 185 0
157 181 0
164 187 0
165 188 0
158 180 0
160 183 0
160 184 0
158 181 0
159 181 0
161 185 0
157 179 0
160 182 0
164 187 0
161 183 0
156 179 0
159 183 0
168 190 0
159 181 0
161 183 0
166 188 0
163 187 0
166 189 0
164 187 0
164 186 0
160 183 0
163 186 0
164 186 0
157 179 0
157 181 0
157 179 0
168 190 0
161 185 0
159 181 0
164 187 0
156 179 0
164 187 0
155 178 0
164 186 0
160 183 0
156 178 0
158 180 0
165 189 0
162 183 0
160 183 0
155 179 0
162 184 0
157 180 0
162 183 0
163 185 0
156 177 0
162 184 0
154 176 0
163 185 0
156 178 0
156 178 0
162 185 0
158 181 0
156 179 0
160 182 0
159 182 0
155 178 0
162 184 0
157 178 0
156 178 0
154 176 0
152 175 0
156 179 0
162 184 0
154 177 0
159 182 0
152 174 0
157 181 0
158 181 0
149 171 0
160 182 0
152 174 0
159 182 0
153 175 0
156 178 0
162 185 0
157 178 0
152 175 0
159 181 0
157 180 0
161 183 0
154 177 0
162 184 0
154 176 0
155 177 0
154 176 0
162 183 0
160 183 0
151 174 0
156 178 0
154 176 0
154 176 0
158 180 0
155 178 0
151 173 0
150 172 0
156 179 0
153 174 0
152 173 0
153 176 0
153 175 0
147 169 0
160 183 0
160 182 0
154 176 0
155 177 0
149 170 0
146 169 0
157 179 0
154 175 0
153 176 0
158 179 0
156 178 0
158 181 0
154 175 0
159 183 0
149 170 0
158 181 0
148 170 0
155 178 0
156 177 0
155 177 0
155 179 0
144 166 0
153 174 0
159 181 0
155 177 0
158 181 0
156 179 0
147 170 0
147 168 0
151 173 0
155 178 0
152 173 0
152 174 0
164 186 0
156 179 0
152 174 0
153 175 0
159 181 0
155 177 0
148 169 0
151 174 0
154 176 0
146 166 0
153 174 0
147 170 0
151 173 0
155 178 0
152 174 0
141 163 0
158 179 0
150 172 0
155 176 0
148 170 0
151 171 0
155 176 0
155 179 0
155 177 0
156 177 0
153 175 0
151 172 0
156 177 0
154 175 0
149 169 0
148 170 0
155 176 0
158 180 0
149 170 0
155 174 0
156 177 0
157 179 0
150 172 0
155 175 0
159 181 0
151 173 0
157 180 0
159 181 0
155 177 0
161 183 0
153 174 0
151 173 0
156 177 0
152 174 0
157 179 0
158 179 0
154 176 0
157 177 0
150 169 0
152 174 0
157 178 0
149 173 0
154 175 0
151 173 0
157 176 0
150 170 0
151 172 0
152 173 0
149 170 0
154 176 0
157 177 0
158 178 0
159 180 0
156 176 0
151 172 0
157 178 0
156 174 0
155 175 0
152 173 0
156 176 0
156 176 0
155 176 0
161 181 0
156 176 0
153 174 0
149 168 0
153 173 0
159 180 0
156 175 0
151 171 0
159 180 0
154 172 0
155 174 0
157 175 0
161 181 0
154 174 0
155 174 0
156 175 0
156 175 0
159 178 0
157 175 0
158 177 0
148 167 0
154 174 0
161 183 0
164 185 0
156 176 0
148 167 0
153 174 0
153 173 0
154 173 0
153 171 0
152 171 0
151 170 0
157 177 0
157 177 0
156 174 0
161 183 0
152 173 0
155 172 0
159 177 0
160 179 0
163 182 0
159 176 0
157 174 0
156 176 0
158 177 0
153 171 0
161 179 0
160 179 0
160 179 0
157 178 0
159 178 0
156 175 0
161 180 0
156 175 0
159 175 0
152 169 0
154 172 0
159 178 0
161 177 0
158 177 0
151 170 0
157 177 0
160 178 0
161 182 0
158 177 0
158 175 0
153 172 0
161 181 0
163 183 0
156 173 0
164 182 0
160 177 0
158 176 0
154 172 0
156 172 0
157 175 0
155 172 0
156 172 0
159 178 0
154 172 0
161 176 0
161 178 0
153 170 0
162 180 0
157 173 0
162 181 0
159 176 0
161 179 0
159 177 0
158 176 0
158 174 0
158 175 0
162 178 0
159 176 0
158 174 0
162 179 0
162 176 0
159 174 0
159 174 0
165 181 0
159 176 0
156 170 0
161 176 0
160 176 0
165 180 0
162 178 0
163 180 0
156 172 0
160 176 0
158 176 0
163 179 0
165 181 0
162 179 0
154 169 0
167 185 0
161 179 0
162 178 0
161 176 0
165 179 0
160 177 0
161 176 0
165 180 0
162 179 0
172 193 0
167 189 0
170 192 0
169 191 0
166 189 0
167 189 0
170 193 0
171 193 0
170 192 0
167 190 0
167 190 0
167 190 0
166 188 0
165 188 0
165 187 0
166 188 0
166 189 0
165 188 0
169 191 0
167 190 0
168 191 0
160 182 0
165 188 0
166 189 0
163 185 0
168 191 0
164 187 0
166 188 0
170 192 0
166 189 0
165 188 0
163 186 0
161 183 0
162 185 0
160 183 0
171 195 0
164 187 0
166 188 0
168 191 0
163 185 0
166 187 0
161 183 0
160 182 0
158 181 0
166 188 0
160 182 0
167 189 0
162 185 0
157 179 0
158 181 0
160 184 0
164 186 0
165 188 0
159 182 0
167 190 0
154 177 0
157 180 0
158 182 0
160 183 0
160 182 0
163 186 0
160 183 0
164 188 0
165 187 0
163 186 0
163 185 0
155 178 0
151 173 0
156 179 0
163 186 0
158 182 0
156 179 0
160 184 0
158 181 0
162 184 0
156 179 0
161 183 0
159 181 0
158 181 0
157 179 0
152 174 0
159 181 0
161 183 0
157 181 0
160 183 0
154 177 0
160 184 0
162 184 0
158 181 0
158 181 0
156 179 0
157 180 0
158 181 0
155 178 0
149 172 0
163 186 0
162 185 0
158 182 0
161 185 0
160 183 0
157 179 0
163 186 0
163 186 0
165 188 0
158 181 0
156 180 0
164 186 0
160 183 0
155 178 0
163 185 0
158 181 0
163 186 0
155 178 0
161 184 0
158 181 0
154 177 0
154 177 0
160 183 0
158 181 0
160 183 0
159 182 0
153 175 0
162 185 0
160 183 0
159 183 0
159 181 0
160 183 0
155 177 0
153 175 0
156 179 0
158 180 0
153 175 0
161 184 0
156 179 0
156 179 0
160 183 0
158 180 0
157 179 0
159 182 0
159 181 0
156 180 0
158 180 0
159 181 0
156 178 0
152 175 0
155 177 0
158 182 0
157 179 0
160 184 0
161 184 0
158 182 0
162 184 0
157 179 0
156 179 0
156 178 0
149 171 0
156 179 0
157 180 0
157 179 0
154 176 0
156 179 0
156 179 0
155 178 0
155 178 0
157 181 0
149 171 0
159 182 0
158 179 0
163 185 0
149 171 0
151 174 0
149 170 0
149 173 0
157 180 0
156 178 0
157 179 0
162 184 0
148 170 0
158 181 0
154 176 0
147 168 0
156 178 0
155 177 0
157 178 0
148 170 0
150 172 0
149 171 0
157 179 0
158 178 0
155 177 0
155 177 0
155 176 0
150 171 0
151 174 0
152 174 0
158 180 0
153 175 0
154 177 0
155 178 0
159 180 0
148 171 0
158 181 0
143 164 0
149 171 0
158 182 0
155 178 0
156 179 0
157 180 0
151 172 0
155 176 0
157 180 0
154 177 0
153 176 0
156 177 0
149 171 0
150 171 0
159 179 0
151 173 0
157 178 0
154 176 0
155 176 0
155 176 0
152 173 0
152 173 0
147 168 0
151 172 0
161 184 0
152 174 0
149 172 0
154 176 0
161 181 0
154 175 0
158 178 0
147 166 0
152 174 0
157 178 0
148 170 0
156 177 0
153 174 0
156 177 0
152 172 0
151 173 0
155 174 0
155 177 0
155 178 0
159 180 0
161 182 0
154 175 0
150 171 0
149 169 0
157 177 0
155 175 0
151 172 0
151 172 0
146 165 0
151 172 0
153 173 0
152 173 0
153 174 0
154 176 0
156 178 0
159 180 0
153 172 0
156 178 0
155 175 0
151 173 0
155 174 0
154 176 0
156 177 0
160 180 0
155 175 0
162 183 0
147 166 0
154 174 0
160 180 0
151 173 0
156 176 0
162 182 0
152 172 0
156 177 0
154 173 0
157 179 0
155 176 0
160 179 0
158 179 0
159 179 0
156 176 0
155 177 0
158 176 0
152 170 0
158 178 0
156 177 0
159 179 0
159 180 0
154 173 0
155 176 0
156 178 0
154 174 0
161 180 0
155 175 0
157 177 0
156 175 0
151 170 0
156 175 0
150 171 0
156 175 0
161 182 0
160 180 0
155 175 0
158 178 0
162 181 0
161 181 0
156 174 0
164 184 0
157 177 0
157 176 0
155 175 0
154 171 0
157 176 0
160 179 0
155 176 0
159 180 0
156 176 0
155 172 0
154 172 0
155 173 0
160 178 0
158 176 0
159 178 0
159 177 0
152 170 0
162 182 0
162 181 0
156 176 0
160 179 0
155 173 0
154 172 0
154 171 0
160 180 0
158 178 0
156 174 0
161 179 0
156 172 0
160 177 0
159 178 0
152 168 0
159 174 0
160 179 0
159 176 0
156 174 0
164 181 0
157 174 0
161 179 0
166 185 0
161 179 0
159 175 0
161 177 0
158 172 0
154 172 0
161 175 0
163 179 0
155 169 0
160 179 0
162 179 0
157 175 0
161 180 0
164 181 0
163 179 0
159 176 0
158 175 0
163 180 0
160 177 0
158 175 0
161 178 0
158 175 0
162 179 0
161 179 0
160 178 0
160 177 0
158 173 0
159 176 0
164 180 0
160 176 0
164 180 0
159 173 0
161 179 0
163 179 0
158 175 0
159 175 0
162 178 0
161 176 0
159 177 0
159 174 0
159 176 0
158 173 0
163 179 0
157 172 0
161 177 0
156 172 0
163 178 0
172 194 0
167 189 0
164 187 0
162 184 0
166 187 0
168 190 0
169 191 0
170 193 0
165 187 0
170 192 0
169 191 0
168 191 0
164 186 0
167 189 0
167 189 0
167 190 0
167 190 0
166 188 0
167 190 0
169 191 0
165 187 0
168 190 0
168 191 0
167 189 0
168 191 0
161 184 0
165 187 0
166 189 0
164 187 0
166 189 0
161 183 0
171 193 0
166 188 0
170 193 0
167 189 0
169 192 0
166 189 0
163 185 0
164 188 0
163 185 0
160 182 0
160 183 0
167 189 0
164 186 0
160 183 0
166 188 0
166 189 0
161 183 0
159 181 0
161 185 0
163 186 0
161 183 0
165 187 0
166 187 0
164 188 0
162 184 0
164 187 0
166 188 0
162 184 0
157 179 0
163 186 0
162 185 0
164 188 0
164 187 0
163 186 0
161 183 0
159 181 0
155 177 0
157 180 0
155 178 0
165 189 0
161 184 0
158 181 0
160 183 0
163 185 0
163 186 0
159 180 0
161 184 0
156 178 0
157 180 0
162 185 0
162 186 0
161 184 0
158 181 0
161 184 0
158 181 0
160 181 0
159 182 0
156 180 0
165 188 0
155 177 0
167 189 0
159 182 0
164 186 0
156 178 0
157 179 0
159 182 0
164 186 0
161 184 0
157 180 0
159 181 0
152 175 0
153 176 0
161 184 0
164 186 0
158 181 0
165 188 0
158 180 0
161 184 0
159 180 0
160 182 0
157 180 0
155 178 0
165 188 0
157 180 0
159 182 0
164 186 0
153 175 0
157 181 0
153 175 0
153 175 0
165 187 0
155 178 0
163 186 0
158 181 0
156 179 0
154 177 0
155 178 0
161 184 0
146 169 0
158 181 0
155 178 0
159 181 0
161 184 0
157 180 0
158 179 0
157 180 0
162 185 0
154 177 0
157 180 0
150 173 0
167 190 0
157 179 0
153 175 0
164 186 0
156 179 0
157 180 0
152 176 0
161 184 0
151 174 0
160 183 0
161 184 0
159 182 0
150 173 0
158 181 0
163 185 0
157 181 0
155 177 0
157 179 0
159 182 0
157 180 0
156 178 0
149 172 0
157 180 0
148 171 0
147 169 0
156 178 0
154 175 0
151 172 0
154 175 0
159 183 0
154 177 0
152 174 0
156 179 0
149 172 0
151 174 0
156 178 0
149 172 0
160 181 0
156 178 0
147 170 0
162 185 0
151 173 0
153 175 0
147 169 0
148 171 0
146 169 0
149 171 0
154 178 0
154 176 0
151 174 0
146 168 0
147 170 0
153 176 0
157 179 0
154 176 0
153 175 0
159 181 0
147 169 0
162 183 0
157 180 0
153 175 0
160 181 0
149 171 0
154 176 0
157 180 0
151 174 0
151 174 0
152 175 0
150 171 0
154 177 0
148 169 0
155 177 0
154 176 0
153 175 0
159 180 0
150 172 0
152 173 0
154 177 0
152 175 0
156 178 0
161 181 0
155 177 0
154 177 0
155 175 0
152 175 0
148 170 0
149 170 0
160 182 0
151 173 0
149 171 0
154 176 0
156 178 0
149 170 0
151 173 0
148 168 0
154 175 0
157 178 0
152 175 0
157 178 0
156 178 0
149 171 0
155 177 0
155 177 0
152 173 0
153 175 0
150 172 0
159 179 0
146 167 0
155 176 0
158 180 0
156 177 0
148 168 0
156 176 0
153 174 0
146 167 0
154 175 0
152 174 0
158 179 0
155 176 0
150 171 0
152 173 0
155 176 0
160 183 0
151 172 0
155 175 0
156 177 0
157 178 0
154 174 0
155 176 0
154 174 0
145 166 0
155 175 0
153 173 0
153 172 0
151 172 0
156 177 0
156 176 0
159 178 0
155 175 0
148 170 0
156 176 0
159 179 0
152 172 0
153 173 0
153 173 0
155 176 0
154 175 0
154 173 0
160 179 0
146 167 0
154 174 0
159 178 0
160 181 0
157 177 0
154 174 0
157 176 0
150 169 0
156 175 0
151 172 0
153 174 0
156 177 0
159 177 0
155 176 0
160 182 0
159 178 0
160 179 0
153 173 0
153 172 0
157 176 0
156 174 0
155 174 0
154 174 0
157 178 0
153 173 0
158 177 0
159 177 0
158 178 0
157 176 0
157 178 0
150 170 0
158 177 0
159 178 0
155 173 0
153 170 0
157 177 0
161 182 0
161 178 0
154 173 0
157 173 0
159 178 0
159 179 0
163 181 0
152 171 0
163 182 0
155 175 0
156 176 0
162 181 0
158 178 0
160 177 0
157 175 0
154 170 0
159 179 0
157 175 0
158 175 0
161 180 0
162 181 0
156 175 0
160 177 0
162 180 0
156 172 0
165 184 0
156 171 0
161 178 0
160 176 0
157 175 0
157 175 0
162 179 0
162 180 0
156 173 0
160 177 0
161 180 0
161 180 0
164 181 0
156 174 0
161 176 0
156 174 0
163 182 0
153 168 0
164 181 0
155 172 0
162 178 0
163 177 0
153 169 0
157 172 0
164 181 0
164 180 0
158 175 0
161 178 0
162 176 0
163 181 0
163 180 0
164 181 0
164 180 0
158 175 0
162 179 0
161 176 0
160 176 0
160 179 0
161 176 0
158 175 0
162 179 0
158 172 0
160 177 0
158 173 0
162 179 0
164 180 0
163 180 0
162 176 0
162 177 0
